; generated by PrusaSlicer 2.3.0+linux-x64 on 2021-03-23 at 15:01:31 UTC

; 

; external perimeters extrusion width = 0.45mm
; perimeters extrusion width = 0.45mm
; infill extrusion width = 0.45mm
; solid infill extrusion width = 0.45mm
; top infill extrusion width = 0.40mm
; first layer extrusion width = 0.42mm

M73 P0 R62
M73 Q0 S63
M201 X1000 Y1000 Z200 E5000 ; sets maximum accelerations, mm/sec^2
M203 X200 Y200 Z12 E120 ; sets maximum feedrates, mm/sec
M204 P1250 R1250 T1250 ; sets acceleration (P, T) and retract acceleration (R), mm/sec^2
M205 X8.00 Y8.00 Z0.40 E4.50 ; sets the jerk limits, mm/sec
M205 S0 T0 ; sets the minimum extruding and travel feed rate, mm/sec
M107
;TYPE:Custom
M862.3 P "MK3" ; printer model check
M862.1 P0.4 ; nozzle diameter check
M115 U3.9.2 ; tell printer latest fw version
G90 ; use absolute coordinates
M83 ; extruder relative mode
M104 S215 ; set extruder temp
M140 S60 ; set bed temp
M190 S60 ; wait for bed temp
M109 S215 ; wait for extruder temp
G28 W ; home all without mesh bed level
G80 ; mesh bed leveling
G1 Y-3.0 F1000.0 ; go outside print area
G92 E0.0
G1 X60.0 E9.0 F1000.0 ; intro line
G1 X100.0 E12.5 F1000.0 ; intro line
G92 E0.0
M221 S95

; Don't change E values below. Excessive value can damage the printer.

M907 E538 ; set extruder motor current
G21 ; set units to millimeters
G90 ; use absolute coordinates
M83 ; use relative distances for extrusion
M900 K0.05 ; Filament gcode LA 1.5
M900 K30 ; Filament gcode LA 1.0
;LAYER_CHANGE
;Z:0.2
;HEIGHT:0.2
;BEFORE_LAYER_CHANGE
G92 E0.0
;0.2


G1 E-0.80000 F2100.000
G1 Z0.400 F10800.000
;AFTER_LAYER_CHANGE
;0.2
G1 X70.547 Y64.922
G1 Z0.200
G1 E0.80000 F2100.000
M204 S1000
;TYPE:Skirt
;WIDTH:0.42
G1 F1200.000
G1 X71.384 Y64.233 E0.03399
G1 X72.229 Y63.684 E0.03161
G1 X73.196 Y63.203 E0.03387
G1 X74.837 Y62.669 E0.05408
G1 X75.857 Y62.496 E0.03244
G1 X76.901 Y62.436 E0.03280
G1 X109.907 Y62.436 E1.03489
G1 X110.885 Y62.488 E0.03070
G1 X111.854 Y62.641 E0.03077
G1 X112.802 Y62.896 E0.03078
G1 X113.719 Y63.247 E0.03077
G1 X114.593 Y63.693 E0.03078
G1 X115.416 Y64.228 E0.03077
G1 X116.179 Y64.846 E0.03078
G1 X116.878 Y65.545 E0.03101
G1 X135.718 Y91.066 E0.99461
G1 X136.206 Y91.897 E0.03021
G1 X136.545 Y92.911 E0.03351
G1 X136.656 Y93.939 E0.03244
G1 X136.655 Y115.487 E0.67560
G1 X136.548 Y116.464 E0.03082
G1 X136.244 Y117.405 E0.03102
G1 X135.752 Y118.272 E0.03126
G1 X117.468 Y144.354 E0.99870
G1 X116.858 Y145.103 E0.03029
G1 X116.087 Y145.860 E0.03387
G1 X114.692 Y146.873 E0.05408
G1 X113.772 Y147.355 E0.03256
G1 X112.811 Y147.728 E0.03233
G1 X111.859 Y147.984 E0.03089
G1 X110.882 Y148.139 E0.03102
G1 X109.906 Y148.190 E0.03065
G1 X76.854 Y148.190 E1.03632
G1 X74.953 Y147.985 E0.05996
G1 X74.008 Y147.732 E0.03065
G1 X73.113 Y147.390 E0.03006
G1 X72.201 Y146.926 E0.03209
G1 X71.293 Y146.324 E0.03415
G1 X70.010 Y145.167 E0.05416
G1 X69.312 Y144.318 E0.03447
G1 X68.729 Y143.404 E0.03399
G1 X68.021 Y141.814 E0.05456
G1 X67.732 Y140.765 E0.03411
G1 X67.569 Y139.690 E0.03411
G1 X67.527 Y71.787 E2.12905
G1 X67.578 Y70.828 E0.03010
G1 X67.732 Y69.863 E0.03065
G1 X67.985 Y68.918 E0.03066
G1 X68.327 Y68.023 E0.03006
G1 X68.791 Y67.111 E0.03209
G1 X69.390 Y66.207 E0.03399
G1 X70.507 Y64.967 E0.05232
; printing object KeyHolderInsert_larger.stl id:1 copy 0
;WIPE_START
G1 F8640.000
G1 X71.384 Y64.233 E-0.26402
G1 X72.229 Y63.684 E-0.23279
G1 X73.196 Y63.203 E-0.24943
G1 X73.253 Y63.184 E-0.01376
;WIPE_END
G1 E-0.04000 F2100.000
G1 Z0.600 F10800.000
G1 X126.316 Y99.565
G1 Z0.200
G1 E0.80000 F2100.000
;TYPE:Perimeter
G1 F1200.000
G1 X126.502 Y99.329 E0.00942
G1 X126.743 Y99.083 E0.01081
G1 X127.001 Y98.881 E0.01026
G1 X127.265 Y98.721 E0.00969
G1 X127.570 Y98.582 E0.01051
G1 X127.887 Y98.483 E0.01042
G1 X128.204 Y98.424 E0.01011
G1 X128.505 Y98.406 E0.00943
G1 X129.352 Y98.424 E0.02658
G1 X129.669 Y98.482 E0.01008
G1 X129.979 Y98.579 E0.01019
G1 X130.280 Y98.714 E0.01037
G1 X130.557 Y98.881 E0.01013
G1 X130.812 Y99.082 E0.01018
G1 X131.041 Y99.310 E0.01012
G1 X131.241 Y99.567 E0.01021
G1 X131.411 Y99.848 E0.01031
G1 X131.541 Y100.137 E0.00992
G1 X131.639 Y100.452 E0.01037
G1 X131.697 Y100.769 E0.01011
G1 X131.716 Y101.070 E0.00943
G1 X131.716 Y108.317 E0.22724
G1 X131.697 Y108.617 E0.00942
G1 X131.640 Y108.933 E0.01008
G1 X131.543 Y109.244 E0.01019
G1 X131.408 Y109.545 E0.01037
G1 X131.241 Y109.821 E0.01012
G1 X131.055 Y110.058 E0.00942
G1 X130.814 Y110.304 E0.01081
G1 X130.556 Y110.506 E0.01026
G1 X130.292 Y110.666 E0.00969
G1 X129.987 Y110.805 E0.01051
G1 X129.670 Y110.904 E0.01042
G1 X129.353 Y110.962 E0.01011
G1 X129.052 Y110.980 E0.00943
G1 X128.205 Y110.962 E0.02658
G1 X127.888 Y110.905 E0.01008
G1 X127.578 Y110.808 E0.01019
G1 X127.277 Y110.673 E0.01037
G1 X127.000 Y110.505 E0.01013
G1 X126.745 Y110.305 E0.01018
G1 X126.516 Y110.077 E0.01012
G1 X126.315 Y109.820 E0.01021
G1 X126.146 Y109.539 E0.01031
G1 X126.016 Y109.250 E0.00992
G1 X125.918 Y108.935 E0.01037
G1 X125.860 Y108.617 E0.01011
G1 X125.841 Y108.317 E0.00943
G1 X125.841 Y101.070 E0.22724
G1 X125.859 Y100.770 E0.00942
G1 X125.917 Y100.453 E0.01008
G1 X126.014 Y100.143 E0.01019
G1 X126.149 Y99.842 E0.01037
G1 X126.285 Y99.617 E0.00824
G1 X126.608 Y99.812 F10800.000
;TYPE:External perimeter
G1 F1200.000
G1 X126.785 Y99.578 E0.00920
G1 X126.995 Y99.365 E0.00938
G1 X127.216 Y99.192 E0.00879
G1 X127.442 Y99.055 E0.00829
G1 X127.705 Y98.934 E0.00908
G1 X127.978 Y98.849 E0.00896
G1 X128.250 Y98.799 E0.00868
G1 X128.516 Y98.783 E0.00836
G1 X129.307 Y98.799 E0.02480
G1 X129.578 Y98.849 E0.00865
G1 X129.845 Y98.932 E0.00875
G1 X130.105 Y99.049 E0.00894
G1 X130.342 Y99.192 E0.00870
G1 X130.562 Y99.365 E0.00875
G1 X130.758 Y99.561 E0.00870
G1 X130.930 Y99.781 E0.00877
G1 X131.076 Y100.023 E0.00887
G1 X131.188 Y100.271 E0.00850
G1 X131.272 Y100.543 E0.00894
G1 X131.322 Y100.815 E0.00867
G1 X131.338 Y101.081 E0.00836
G1 X131.338 Y108.306 E0.22653
G1 X131.322 Y108.572 E0.00835
G1 X131.273 Y108.843 E0.00865
G1 X131.190 Y109.110 E0.00875
G1 X131.073 Y109.370 E0.00894
G1 X130.930 Y109.607 E0.00869
G1 X130.771 Y109.809 E0.00805
G1 X130.562 Y110.022 E0.00938
G1 X130.341 Y110.195 E0.00879
G1 X130.115 Y110.332 E0.00829
G1 X129.852 Y110.452 E0.00908
G1 X129.579 Y110.537 E0.00896
G1 X129.307 Y110.587 E0.00867
G1 X129.041 Y110.603 E0.00836
G1 X128.250 Y110.587 E0.02480
G1 X127.978 Y110.538 E0.00865
G1 X127.712 Y110.455 E0.00875
G1 X127.452 Y110.338 E0.00894
G1 X127.215 Y110.195 E0.00870
G1 X126.995 Y110.022 E0.00876
G1 X126.799 Y109.826 E0.00870
G1 X126.627 Y109.606 E0.00877
G1 X126.481 Y109.363 E0.00887
G1 X126.369 Y109.116 E0.00850
G1 X126.284 Y108.844 E0.00894
G1 X126.235 Y108.572 E0.00868
G1 X126.218 Y108.306 E0.00836
G1 X126.218 Y101.081 E0.22653
G1 X126.235 Y100.815 E0.00836
G1 X126.284 Y100.543 E0.00865
G1 X126.367 Y100.277 E0.00875
G1 X126.484 Y100.017 E0.00894
G1 X126.577 Y99.863 E0.00564
G1 X126.479 Y99.548 F10800.000
;WIPE_START
G1 F8640.000
G1 X126.785 Y99.578 E-0.08157
G1 X126.995 Y99.365 E-0.06906
G1 X127.216 Y99.192 E-0.06471
G1 X127.442 Y99.055 E-0.06104
G1 X127.705 Y98.934 E-0.06684
G1 X127.978 Y98.849 E-0.06595
G1 X128.250 Y98.799 E-0.06389
G1 X128.516 Y98.783 E-0.06156
G1 X129.307 Y98.799 E-0.18263
G1 X129.489 Y98.833 E-0.04274
;WIPE_END
G1 E-0.04000 F2100.000
G1 Z0.600 F10800.000
G1 X124.642 Y93.286
G1 Z0.200
G1 E0.80000 F2100.000
;TYPE:Perimeter
G1 F1200.000
G1 X124.709 Y93.184 E0.00382
G1 X124.902 Y92.969 E0.00907
G1 X125.124 Y92.807 E0.00861
G1 X125.372 Y92.696 E0.00851
G1 X125.494 Y92.663 E0.00396
G1 X125.814 Y92.629 E0.01010
G1 X131.912 Y92.639 E0.19122
G1 X132.039 Y92.657 E0.00400
G1 X132.326 Y92.751 E0.00946
G1 X132.667 Y92.978 E0.01286
G1 X132.912 Y93.287 E0.01238
G1 X133.024 Y93.537 E0.00858
G1 X133.081 Y93.805 E0.00859
G1 X133.091 Y115.409 E0.67737
M73 Q0 S62
G1 X133.059 Y115.717 E0.00971
G1 X132.974 Y115.978 E0.00860
G1 X132.839 Y116.214 E0.00851
G1 X132.760 Y116.313 E0.00399
G1 X132.550 Y116.504 E0.00890
G1 X132.432 Y116.582 E0.00445
G1 X132.326 Y116.636 E0.00373
G1 X132.051 Y116.726 E0.00906
G1 X131.743 Y116.758 E0.00972
G1 X125.814 Y116.758 E0.18588
G1 X125.491 Y116.724 E0.01020
G1 X125.124 Y116.579 E0.01237
G1 X124.890 Y116.409 E0.00907
G1 X124.727 Y116.228 E0.00763
G1 X124.536 Y115.865 E0.01286
G1 X124.476 Y115.582 E0.00907
G1 X124.466 Y93.978 E0.67737
G1 X124.498 Y93.670 E0.00971
G1 X124.615 Y93.340 E0.01098
G1 X124.315 Y93.097 F10800.000
;TYPE:External perimeter
G1 F1200.000
G1 X124.409 Y92.954 E0.00537
G1 X124.649 Y92.687 E0.01124
G1 X124.934 Y92.479 E0.01108
G1 X125.243 Y92.341 E0.01062
G1 X125.423 Y92.291 E0.00584
G1 X125.794 Y92.252 E0.01172
G1 X131.940 Y92.262 E0.19271
G1 X132.125 Y92.289 E0.00586
M73 P0 R61
G1 X132.471 Y92.401 E0.01138
G1 X132.618 Y92.476 E0.00520
G1 X132.913 Y92.690 E0.01142
G1 X133.030 Y92.808 E0.00520
G1 X133.241 Y93.098 E0.01124
G1 X133.384 Y93.420 E0.01107
G1 X133.458 Y93.766 E0.01107
G1 X133.468 Y115.429 E0.67923
G1 X133.430 Y115.796 E0.01158
G1 X133.321 Y116.132 E0.01108
G1 X133.152 Y116.426 E0.01062
G1 X133.036 Y116.572 E0.00585
G1 X132.782 Y116.802 E0.01076
G1 X132.471 Y116.986 E0.01133
G1 X132.130 Y117.096 E0.01124
G1 X131.762 Y117.135 E0.01158
G1 X125.795 Y117.135 E0.18711
G1 X125.422 Y117.096 E0.01175
G1 X125.262 Y117.053 E0.00520
G1 X124.934 Y116.907 E0.01124
G1 X124.644 Y116.696 E0.01124
G1 X124.415 Y116.442 E0.01073
G1 X124.233 Y116.127 E0.01142
G1 X124.174 Y115.972 E0.00520
G1 X124.099 Y115.621 E0.01124
G1 X124.088 Y93.958 E0.67923
G1 X124.127 Y93.591 E0.01158
G1 X124.238 Y93.250 E0.01124
G1 X124.288 Y93.151 E0.00349
G1 X124.487 Y93.094 F10800.000
;WIPE_START
G1 F8640.000
G1 X124.409 Y92.954 E-0.05336
G1 X124.649 Y92.687 E-0.08279
G1 X124.934 Y92.479 E-0.08158
G1 X125.243 Y92.341 E-0.07821
G1 X125.423 Y92.291 E-0.04300
G1 X125.794 Y92.252 E-0.08627
G1 X127.244 Y92.254 E-0.33479
;WIPE_END
G1 E-0.04000 F2100.000
G1 Z0.600 F10800.000
G1 X131.505 Y92.751
G1 Z0.200
G1 E0.80000 F2100.000
;TYPE:Solid infill
;WIDTH:0.420125
G1 F1200.000
G1 X132.798 Y94.044 E0.05735
G1 X132.798 Y94.578 E0.01674
G1 X131.141 Y92.920 E0.07352
G1 X130.607 Y92.919 E0.01676
G1 X132.799 Y95.111 E0.09723
G1 X132.799 Y95.645 E0.01674
G1 X130.072 Y92.919 E0.12094
G1 X129.538 Y92.918 E0.01676
G1 X132.799 Y96.179 E0.14465
G1 X132.799 Y96.713 E0.01674
G1 X129.004 Y92.917 E0.16836
G1 X128.469 Y92.916 E0.01676
G1 X132.800 Y97.246 E0.19207
G1 X132.800 Y97.780 E0.01674
G1 X127.935 Y92.915 E0.21578
G1 X127.401 Y92.914 E0.01676
G1 X132.800 Y98.314 E0.23949
G1 X132.800 Y98.847 E0.01674
G1 X126.867 Y92.914 E0.26320
G1 X126.332 Y92.913 E0.01676
G1 X132.801 Y99.381 E0.28691
G1 X132.801 Y99.915 E0.01674
G1 X125.801 Y92.915 E0.31049
G1 X125.547 Y92.941 E0.00802
G1 X125.363 Y93.010 E0.00615
G1 X132.801 Y100.448 E0.32993
G1 X132.801 Y100.982 E0.01674
G1 X131.765 Y99.946 E0.04598
G1 X131.662 Y99.717 E0.00787
G1 X131.475 Y99.406 E0.01138
G1 X131.253 Y99.122 E0.01130
G1 X131.000 Y98.870 E0.01119
G1 X130.718 Y98.648 E0.01126
G1 X130.412 Y98.463 E0.01121
G1 X130.177 Y98.358 E0.00808
G1 X125.048 Y93.229 E0.22748
G1 X124.934 Y93.357 E0.00537
G1 X124.849 Y93.503 E0.00531
G1 X124.834 Y93.549 E0.00150
G1 X129.439 Y98.153 E0.20422
M73 P1 R61
G1 X128.884 Y98.132 E0.01741
G1 X124.748 Y93.996 E0.18344
M73 Q1 S62
G1 X124.749 Y94.530 E0.01674
G1 X128.351 Y98.132 E0.15980
G1 X128.170 Y98.143 E0.00569
G1 X127.882 Y98.196 E0.00920
G1 X124.749 Y95.063 E0.13896
G1 X124.749 Y95.597 E0.01674
G1 X127.469 Y98.317 E0.12064
G1 X127.105 Y98.487 E0.01258
G1 X124.749 Y96.131 E0.10451
G1 X124.750 Y96.665 E0.01674
G1 X126.780 Y98.695 E0.09006
G1 X126.489 Y98.938 E0.01188
G1 X124.750 Y97.198 E0.07716
G1 X124.750 Y97.732 E0.01674
G1 X126.232 Y99.214 E0.06574
G1 X126.010 Y99.525 E0.01199
G1 X124.750 Y98.266 E0.05587
G1 X124.751 Y98.799 E0.01674
G1 X125.825 Y99.874 E0.04764
G1 X125.680 Y100.262 E0.01301
G1 X124.751 Y99.333 E0.04122
G1 X124.751 Y99.867 E0.01674
G1 X125.585 Y100.700 E0.03697
G1 X125.559 Y101.208 E0.01593
G1 X124.751 Y100.401 E0.03580
G1 X124.752 Y100.934 E0.01674
G1 X125.559 Y101.741 E0.03579
G1 X125.559 Y102.274 E0.01673
G1 X124.752 Y101.468 E0.03578
G1 X124.752 Y102.002 E0.01674
G1 X125.559 Y102.808 E0.03576
G1 X125.559 Y103.341 E0.01673
G1 X124.753 Y102.535 E0.03575
G1 X124.753 Y103.069 E0.01674
G1 X125.559 Y103.875 E0.03574
G1 X125.559 Y104.408 E0.01673
G1 X124.753 Y103.603 E0.03573
G1 X124.753 Y104.137 E0.01674
G1 X125.559 Y104.942 E0.03572
G1 X125.559 Y105.475 E0.01673
G1 X124.754 Y104.670 E0.03571
G1 X124.754 Y105.204 E0.01674
G1 X125.559 Y106.009 E0.03569
G1 X125.559 Y106.542 E0.01673
G1 X124.754 Y105.738 E0.03568
G1 X124.754 Y106.271 E0.01674
G1 X125.559 Y107.076 E0.03567
G1 X125.559 Y107.609 E0.01673
G1 X124.755 Y106.805 E0.03566
G1 X124.755 Y107.339 E0.01674
G1 X125.559 Y108.142 E0.03565
G1 X125.588 Y108.705 E0.01768
G1 X124.585 Y107.703 E0.04448
;WIPE_START
G1 F8640.000
G1 X125.588 Y108.705 E-0.32744
G1 X125.559 Y108.142 E-0.13018
G1 X124.755 Y107.339 E-0.26243
G1 X124.755 Y107.166 E-0.03995
;WIPE_END
G1 E-0.04000 F2100.000
G1 Z0.600 F10800.000
G1 X132.971 Y101.686
G1 Z0.200
G1 E0.80000 F2100.000
G1 F1200.000
G1 X131.969 Y100.683 E0.04446
G1 X131.998 Y101.246 E0.01767
G1 X132.802 Y102.050 E0.03565
G1 X132.802 Y102.583 E0.01674
G1 X131.998 Y101.779 E0.03566
G1 X131.998 Y102.313 E0.01673
G1 X132.802 Y103.117 E0.03567
G1 X132.803 Y103.651 E0.01674
G1 X131.998 Y102.846 E0.03568
G1 X131.998 Y103.380 E0.01673
G1 X132.803 Y104.184 E0.03569
G1 X132.803 Y104.718 E0.01674
G1 X131.998 Y103.913 E0.03571
G1 X131.998 Y104.447 E0.01673
G1 X132.804 Y105.252 E0.03572
G1 X132.804 Y105.786 E0.01674
G1 X131.998 Y104.980 E0.03573
G1 X131.998 Y105.514 E0.01673
G1 X132.804 Y106.319 E0.03574
G1 X132.804 Y106.853 E0.01674
G1 X131.998 Y106.047 E0.03575
G1 X131.998 Y106.580 E0.01673
G1 X132.805 Y107.387 E0.03576
G1 X132.805 Y107.920 E0.01674
G1 X131.998 Y107.114 E0.03578
G1 X131.998 Y107.647 E0.01673
G1 X132.805 Y108.454 E0.03579
G1 X132.805 Y108.988 E0.01674
G1 X131.998 Y108.181 E0.03580
G1 X131.972 Y108.688 E0.01593
G1 X132.806 Y109.522 E0.03698
G1 X132.806 Y110.055 E0.01674
G1 X131.876 Y109.126 E0.04124
G1 X131.732 Y109.514 E0.01301
G1 X132.806 Y110.589 E0.04767
G1 X132.806 Y111.123 E0.01674
G1 X131.546 Y109.862 E0.05590
G1 X131.324 Y110.174 E0.01199
G1 X132.807 Y111.656 E0.06577
G1 X132.807 Y112.190 E0.01674
G1 X131.067 Y110.450 E0.07719
G1 X130.776 Y110.693 E0.01188
G1 X132.807 Y112.724 E0.09010
G1 X132.807 Y113.258 E0.01674
G1 X130.450 Y110.900 E0.10455
G1 X130.087 Y111.070 E0.01259
G1 X132.808 Y113.791 E0.12070
G1 X132.808 Y114.325 E0.01674
G1 X129.674 Y111.191 E0.13902
G1 X129.387 Y111.244 E0.00916
G1 X129.204 Y111.255 E0.00573
G1 X132.808 Y114.859 E0.15987
G1 X132.809 Y115.392 E0.01674
G1 X128.671 Y111.255 E0.18351
G1 X128.116 Y111.234 E0.01742
G1 X132.722 Y115.839 E0.20429
G1 X132.605 Y116.054 E0.00768
G1 X132.509 Y116.160 E0.00446
G1 X127.377 Y111.028 E0.22763
G1 X127.145 Y110.923 E0.00798
G1 X126.839 Y110.738 E0.01121
G1 X126.557 Y110.517 E0.01126
G1 X126.304 Y110.264 E0.01119
G1 X126.082 Y109.981 E0.01130
G1 X125.895 Y109.670 E0.01138
G1 X125.793 Y109.444 E0.00777
G1 X124.755 Y108.406 E0.04604
G1 X124.756 Y108.940 E0.01674
G1 X132.197 Y116.381 E0.33005
G1 X131.992 Y116.447 E0.00675
G1 X131.754 Y116.472 E0.00749
G1 X124.756 Y109.474 E0.31043
G1 X124.756 Y110.007 E0.01674
G1 X131.224 Y116.475 E0.28688
G1 X130.690 Y116.475 E0.01673
G1 X124.756 Y110.541 E0.26320
G1 X124.757 Y111.075 E0.01674
G1 X130.157 Y116.475 E0.23953
G1 X129.623 Y116.475 E0.01673
G1 X124.757 Y111.608 E0.21586
G1 X124.757 Y112.142 E0.01674
G1 X129.090 Y116.475 E0.19218
G1 X128.557 Y116.475 E0.01673
G1 X124.758 Y112.676 E0.16851
G1 X124.758 Y113.210 E0.01674
G1 X128.023 Y116.475 E0.14484
G1 X127.490 Y116.475 E0.01673
G1 X124.758 Y113.743 E0.12116
G1 X124.758 Y114.277 E0.01674
G1 X126.956 Y116.475 E0.09749
G1 X126.423 Y116.475 E0.01673
G1 X124.759 Y114.811 E0.07382
G1 X124.759 Y115.344 E0.01674
G1 X125.889 Y116.475 E0.05014
G1 X125.542 Y116.445 E0.01093
G1 X125.266 Y116.333 E0.00936
G1 X125.074 Y116.193 E0.00743
G1 X124.638 Y115.757 E0.01934
; stop printing object KeyHolderInsert_larger.stl id:1 copy 0
