; generated by PrusaSlicer 2.3.0+linux-x64 on 2021-04-21 at 14:04:11 UTC

; 

; external perimeters extrusion width = 0.45mm
; perimeters extrusion width = 0.45mm
; infill extrusion width = 0.45mm
; solid infill extrusion width = 0.45mm
; top infill extrusion width = 0.40mm
; first layer extrusion width = 0.42mm

M73 P0 R197
M73 Q0 S203
M201 X1000 Y1000 Z200 E5000 ; sets maximum accelerations, mm/sec^2
M203 X200 Y200 Z12 E120 ; sets maximum feedrates, mm/sec
M204 P1250 R1250 T1250 ; sets acceleration (P, T) and retract acceleration (R), mm/sec^2
M205 X8.00 Y8.00 Z0.40 E4.50 ; sets the jerk limits, mm/sec
M205 S0 T0 ; sets the minimum extruding and travel feed rate, mm/sec
M107
;TYPE:Custom
M862.3 P "MK3" ; printer model check
M862.1 P0.4 ; nozzle diameter check
M115 U3.9.2 ; tell printer latest fw version
G90 ; use absolute coordinates
M83 ; extruder relative mode
M104 S215 ; set extruder temp
M140 S60 ; set bed temp
M190 S60 ; wait for bed temp
M109 S215 ; wait for extruder temp
G28 W ; home all without mesh bed level
G80 ; mesh bed leveling
G1 Y-3.0 F1000.0 ; go outside print area
G92 E0.0
G1 X60.0 E9.0 F1000.0 ; intro line
G1 X100.0 E12.5 F1000.0 ; intro line
G92 E0.0
M221 S95

; Don't change E values below. Excessive value can damage the printer.

M907 E538 ; set extruder motor current
G21 ; set units to millimeters
G90 ; use absolute coordinates
M83 ; use relative distances for extrusion
M900 K0.05 ; Filament gcode LA 1.5
M900 K30 ; Filament gcode LA 1.0
;LAYER_CHANGE
;Z:0.2
;HEIGHT:0.2
;BEFORE_LAYER_CHANGE
G92 E0.0
;0.2


G1 E-0.80000 F2100.000
G1 Z0.400 F10800.000
;AFTER_LAYER_CHANGE
;0.2
G1 X13.808 Y49.485
G1 Z0.200
G1 E0.80000 F2100.000
M204 S1000
;TYPE:Skirt
;WIDTH:0.42
G1 F1200.000
G1 X14.476 Y47.953 E0.05239
G1 X14.956 Y47.231 E0.02719
G1 X15.838 Y46.252 E0.04133
M73 Q0 S202
G1 X16.512 Y45.694 E0.02743
G1 X17.212 Y45.243 E0.02612
G1 X17.962 Y44.872 E0.02623
G1 X19.209 Y44.467 E0.04110
G1 X20.846 Y44.279 E0.05167
G1 X229.148 Y44.279 E6.53115
G1 X230.664 Y44.437 E0.04780
G1 X232.047 Y44.876 E0.04550
G1 X233.377 Y45.618 E0.04775
G1 X234.161 Y46.251 E0.03160
G1 X235.122 Y47.333 E0.04538
G1 X235.885 Y48.660 E0.04800
G1 X236.358 Y50.112 E0.04788
G1 X236.520 Y51.585 E0.04645
G1 X236.520 Y158.424 E3.34985
G1 X236.465 Y159.233 E0.02544
G1 X236.191 Y160.519 E0.04121
G1 X235.522 Y162.050 E0.05239
G1 X235.044 Y162.769 E0.02707
G1 X234.162 Y163.748 E0.04133
G1 X233.488 Y164.306 E0.02743
G1 X232.788 Y164.757 E0.02612
G1 X232.038 Y165.128 E0.02623
G1 X230.791 Y165.533 E0.04110
G1 X229.154 Y165.721 E0.05167
G1 X20.826 Y165.721 E6.53199
G1 X19.974 Y165.666 E0.02675
G1 X18.689 Y165.393 E0.04121
G1 X17.157 Y164.726 E0.05239
G1 X16.431 Y164.244 E0.02731
G1 X15.452 Y163.362 E0.04133
G1 X14.896 Y162.691 E0.02731
G1 X14.443 Y161.988 E0.02624
G1 X14.073 Y161.238 E0.02623
G1 X13.668 Y159.995 E0.04098
G1 X13.479 Y158.365 E0.05143
G1 X13.480 Y51.599 E3.34758
M73 P0 R196
G1 X13.534 Y50.770 E0.02604
G1 X13.795 Y49.544 E0.03933
; printing object CU-3286-MB parts - 3286-CT -trimmedprint.stl id:0 copy 0
;WIPE_START
G1 F8640.000
G1 X14.476 Y47.953 E-0.39937
G1 X14.956 Y47.231 E-0.20022
G1 X15.421 Y46.715 E-0.16040
;WIPE_END
G1 E-0.04000 F2100.000
G1 Z0.600 F10800.000
G1 X103.391 Y103.452
G1 Z0.200
G1 E0.80000 F2100.000
;TYPE:Perimeter
G1 F1200.000
G1 X103.485 Y103.295 E0.00573
G1 X103.684 Y103.033 E0.01031
G1 X103.911 Y102.794 E0.01031
G1 X104.161 Y102.581 E0.01031
G1 X104.434 Y102.397 E0.01031
G1 X104.724 Y102.243 E0.01031
G1 X105.030 Y102.121 E0.01031
G1 X105.347 Y102.033 E0.01031
G1 X105.672 Y101.980 E0.01031
G1 X105.980 Y101.963 E0.00968
G1 X106.326 Y101.979 E0.01088
G1 X106.653 Y102.033 E0.01038
G1 X106.970 Y102.121 E0.01031
G1 X107.276 Y102.243 E0.01031
G1 X107.566 Y102.397 E0.01031
G1 X107.839 Y102.581 E0.01031
G1 X108.089 Y102.794 E0.01031
G1 X108.316 Y103.033 E0.01031
G1 X108.515 Y103.295 E0.01031
G1 X108.684 Y103.577 E0.01031
G1 X108.822 Y103.875 E0.01031
G1 X108.927 Y104.187 E0.01031
G1 X108.998 Y104.508 E0.01031
G1 X109.034 Y104.836 E0.01031
G1 X109.034 Y105.164 E0.01031
G1 X108.998 Y105.492 E0.01031
G1 X108.927 Y105.813 E0.01031
G1 X108.822 Y106.125 E0.01031
G1 X108.684 Y106.423 E0.01031
G1 X108.515 Y106.705 E0.01031
G1 X108.316 Y106.967 E0.01031
G1 X108.089 Y107.206 E0.01031
G1 X107.839 Y107.419 E0.01031
G1 X107.566 Y107.603 E0.01031
G1 X107.276 Y107.757 E0.01031
G1 X106.970 Y107.879 E0.01031
G1 X106.653 Y107.967 E0.01031
G1 X106.328 Y108.020 E0.01031
G1 X106.000 Y108.038 E0.01031
G1 X105.672 Y108.020 E0.01031
G1 X105.347 Y107.967 E0.01031
G1 X105.030 Y107.879 E0.01031
G1 X104.724 Y107.757 E0.01031
G1 X104.434 Y107.603 E0.01031
G1 X104.161 Y107.419 E0.01031
G1 X103.911 Y107.206 E0.01031
G1 X103.684 Y106.967 E0.01031
G1 X103.485 Y106.705 E0.01031
G1 X103.316 Y106.423 E0.01031
G1 X103.178 Y106.125 E0.01031
G1 X103.073 Y105.813 E0.01031
G1 X103.002 Y105.492 E0.01031
G1 X102.966 Y105.164 E0.01031
G1 X102.966 Y104.836 E0.01031
G1 X103.002 Y104.508 E0.01031
G1 X103.073 Y104.187 E0.01031
G1 X103.178 Y103.875 E0.01031
G1 X103.360 Y103.503 E0.01300
G1 X103.683 Y103.697 F10800.000
;TYPE:External perimeter
G1 F1200.000
G1 X103.798 Y103.507 E0.00697
G1 X103.972 Y103.278 E0.00903
G1 X104.170 Y103.068 E0.00903
G1 X104.390 Y102.882 E0.00903
G1 X104.628 Y102.720 E0.00903
G1 X104.883 Y102.585 E0.00903
G1 X105.150 Y102.479 E0.00903
G1 X105.428 Y102.402 E0.00903
G1 X105.712 Y102.355 E0.00903
G1 X105.981 Y102.340 E0.00844
G1 X106.287 Y102.355 E0.00960
G1 X106.572 Y102.402 E0.00906
G1 X106.850 Y102.479 E0.00903
G1 X107.117 Y102.585 E0.00903
G1 X107.372 Y102.720 E0.00903
G1 X107.610 Y102.882 E0.00903
G1 X107.830 Y103.068 E0.00903
G1 X108.028 Y103.278 E0.00903
G1 X108.202 Y103.507 E0.00903
G1 X108.351 Y103.754 E0.00903
G1 X108.472 Y104.015 E0.00903
G1 X108.564 Y104.288 E0.00903
G1 X108.626 Y104.570 E0.00903
G1 X108.657 Y104.856 E0.00903
G1 X108.657 Y105.144 E0.00903
G1 X108.626 Y105.430 E0.00903
G1 X108.564 Y105.712 E0.00903
G1 X108.472 Y105.985 E0.00903
G1 X108.351 Y106.246 E0.00903
G1 X108.202 Y106.493 E0.00903
G1 X108.028 Y106.722 E0.00903
G1 X107.830 Y106.932 E0.00903
G1 X107.610 Y107.118 E0.00903
G1 X107.372 Y107.280 E0.00903
G1 X107.117 Y107.415 E0.00903
G1 X106.850 Y107.521 E0.00903
G1 X106.572 Y107.598 E0.00903
G1 X106.288 Y107.645 E0.00903
G1 X106.000 Y107.661 E0.00903
G1 X105.712 Y107.645 E0.00903
G1 X105.428 Y107.598 E0.00903
G1 X105.150 Y107.521 E0.00903
G1 X104.883 Y107.415 E0.00903
G1 X104.628 Y107.280 E0.00903
G1 X104.390 Y107.118 E0.00903
G1 X104.170 Y106.932 E0.00903
G1 X103.972 Y106.722 E0.00903
G1 X103.798 Y106.493 E0.00903
G1 X103.649 Y106.246 E0.00903
G1 X103.528 Y105.985 E0.00903
G1 X103.436 Y105.712 E0.00903
G1 X103.374 Y105.430 E0.00903
G1 X103.343 Y105.144 E0.00903
G1 X103.343 Y104.856 E0.00903
G1 X103.374 Y104.570 E0.00903
G1 X103.436 Y104.288 E0.00903
G1 X103.528 Y104.015 E0.00903
G1 X103.652 Y103.749 E0.00921
G1 X103.566 Y103.508 F10800.000
;WIPE_START
G1 F8640.000
G1 X103.798 Y103.507 E-0.06521
G1 X103.972 Y103.278 E-0.06652
G1 X104.170 Y103.068 E-0.06652
G1 X104.390 Y102.882 E-0.06652
G1 X104.628 Y102.720 E-0.06652
G1 X104.883 Y102.585 E-0.06652
G1 X105.150 Y102.479 E-0.06652
G1 X105.428 Y102.402 E-0.06652
G1 X105.712 Y102.355 E-0.06652
G1 X105.981 Y102.340 E-0.06215
G1 X106.287 Y102.355 E-0.07070
G1 X106.414 Y102.376 E-0.02979
;WIPE_END
G1 E-0.04000 F2100.000
G1 Z0.600 F10800.000
G1 X94.029 Y104.795
G1 Z0.200
G1 E0.80000 F2100.000
;TYPE:Perimeter
G1 F1200.000
G1 X94.034 Y105.164 E0.01158
G1 X93.998 Y105.492 E0.01031
G1 X93.927 Y105.813 E0.01031
G1 X93.822 Y106.125 E0.01031
G1 X93.684 Y106.423 E0.01031
G1 X93.515 Y106.705 E0.01031
G1 X93.316 Y106.967 E0.01031
G1 X93.089 Y107.206 E0.01031
G1 X92.839 Y107.419 E0.01031
G1 X92.566 Y107.603 E0.01031
G1 X92.276 Y107.757 E0.01031
G1 X91.970 Y107.879 E0.01031
G1 X91.653 Y107.967 E0.01031
G1 X91.328 Y108.020 E0.01031
G1 X91.000 Y108.038 E0.01031
G1 X90.672 Y108.020 E0.01031
G1 X90.347 Y107.967 E0.01031
G1 X90.030 Y107.879 E0.01031
G1 X89.743 Y107.765 E0.00968
G1 X89.435 Y107.604 E0.01088
G1 X89.161 Y107.419 E0.01038
G1 X88.911 Y107.206 E0.01031
G1 X88.684 Y106.967 E0.01032
G1 X88.485 Y106.705 E0.01031
G1 X88.316 Y106.423 E0.01031
G1 X88.178 Y106.125 E0.01031
G1 X88.073 Y105.813 E0.01031
G1 X88.002 Y105.492 E0.01031
G1 X87.966 Y105.164 E0.01031
G1 X87.966 Y104.836 E0.01031
G1 X88.002 Y104.508 E0.01031
G1 X88.073 Y104.187 E0.01031
G1 X88.178 Y103.875 E0.01031
G1 X88.316 Y103.577 E0.01031
G1 X88.485 Y103.295 E0.01031
G1 X88.684 Y103.033 E0.01031
G1 X88.911 Y102.794 E0.01032
G1 X89.161 Y102.581 E0.01031
G1 X89.434 Y102.397 E0.01031
G1 X89.724 Y102.243 E0.01031
G1 X90.030 Y102.121 E0.01031
G1 X90.347 Y102.033 E0.01031
G1 X90.672 Y101.980 E0.01031
G1 X90.980 Y101.963 E0.00968
G1 X91.326 Y101.979 E0.01088
G1 X91.653 Y102.033 E0.01038
G1 X91.970 Y102.121 E0.01031
G1 X92.276 Y102.243 E0.01031
G1 X92.566 Y102.397 E0.01031
G1 X92.839 Y102.581 E0.01031
G1 X93.089 Y102.794 E0.01031
G1 X93.316 Y103.033 E0.01031
G1 X93.515 Y103.295 E0.01031
G1 X93.684 Y103.577 E0.01031
G1 X93.822 Y103.875 E0.01031
G1 X93.927 Y104.187 E0.01031
G1 X93.998 Y104.508 E0.01031
G1 X94.023 Y104.736 E0.00717
G1 X93.648 Y104.776 F10800.000
;TYPE:External perimeter
G1 F1200.000
G1 X93.657 Y105.144 E0.01153
G1 X93.626 Y105.430 E0.00903
G1 X93.564 Y105.712 E0.00903
G1 X93.472 Y105.985 E0.00903
G1 X93.351 Y106.246 E0.00903
G1 X93.202 Y106.493 E0.00903
G1 X93.028 Y106.722 E0.00903
G1 X92.830 Y106.932 E0.00903
G1 X92.610 Y107.118 E0.00903
G1 X92.372 Y107.280 E0.00903
G1 X92.117 Y107.415 E0.00903
G1 X91.850 Y107.521 E0.00903
G1 X91.572 Y107.598 E0.00903
G1 X91.288 Y107.645 E0.00903
G1 X91.000 Y107.661 E0.00903
G1 X90.712 Y107.645 E0.00903
G1 X90.428 Y107.598 E0.00903
G1 X90.150 Y107.521 E0.00903
G1 X89.900 Y107.422 E0.00844
G1 X89.629 Y107.280 E0.00960
G1 X89.390 Y107.118 E0.00906
G1 X89.170 Y106.932 E0.00903
G1 X88.972 Y106.722 E0.00903
G1 X88.798 Y106.493 E0.00903
G1 X88.649 Y106.246 E0.00903
G1 X88.528 Y105.985 E0.00903
G1 X88.436 Y105.712 E0.00903
G1 X88.374 Y105.430 E0.00903
G1 X88.343 Y105.144 E0.00903
G1 X88.343 Y104.856 E0.00903
G1 X88.374 Y104.570 E0.00903
G1 X88.436 Y104.288 E0.00903
G1 X88.528 Y104.015 E0.00903
G1 X88.649 Y103.754 E0.00903
G1 X88.798 Y103.507 E0.00903
G1 X88.972 Y103.278 E0.00903
G1 X89.170 Y103.068 E0.00903
G1 X89.390 Y102.882 E0.00903
G1 X89.628 Y102.720 E0.00903
G1 X89.883 Y102.585 E0.00903
G1 X90.150 Y102.479 E0.00903
G1 X90.428 Y102.402 E0.00903
G1 X90.712 Y102.355 E0.00903
G1 X90.981 Y102.340 E0.00844
G1 X91.287 Y102.355 E0.00960
G1 X91.572 Y102.402 E0.00906
G1 X91.850 Y102.479 E0.00903
G1 X92.117 Y102.585 E0.00903
G1 X92.372 Y102.720 E0.00903
G1 X92.610 Y102.882 E0.00903
G1 X92.830 Y103.068 E0.00903
G1 X93.028 Y103.278 E0.00903
G1 X93.202 Y103.507 E0.00903
G1 X93.351 Y103.754 E0.00903
G1 X93.472 Y104.015 E0.00903
G1 X93.564 Y104.288 E0.00903
G1 X93.642 Y104.717 E0.01366
G1 X93.982 Y104.930 F10800.000
;WIPE_START
G1 F8640.000
G1 X93.657 Y105.144 E-0.09871
G1 X93.626 Y105.430 E-0.06652
G1 X93.564 Y105.712 E-0.06652
G1 X93.472 Y105.985 E-0.06652
G1 X93.351 Y106.246 E-0.06652
G1 X93.202 Y106.493 E-0.06652
G1 X93.028 Y106.722 E-0.06652
G1 X92.830 Y106.932 E-0.06652
G1 X92.610 Y107.118 E-0.06652
G1 X92.372 Y107.280 E-0.06652
G1 X92.132 Y107.407 E-0.06261
;WIPE_END
G1 E-0.04000 F2100.000
G1 Z0.600 F10800.000
G1 X83.783 Y104.795
G1 Z0.200
G1 E0.80000 F2100.000
;TYPE:Perimeter
G1 F1200.000
G1 X83.783 Y105.205 E0.01286
G1 X83.738 Y105.613 E0.01286
G1 X83.650 Y106.013 E0.01286
G1 X83.519 Y106.402 E0.01286
G1 X83.347 Y106.774 E0.01286
G1 X83.135 Y107.126 E0.01286
G1 X82.887 Y107.452 E0.01286
G1 X82.605 Y107.750 E0.01286
G1 X82.293 Y108.016 E0.01286
G1 X81.953 Y108.246 E0.01286
G1 X81.591 Y108.438 E0.01286
G1 X81.210 Y108.590 E0.01286
G1 X80.814 Y108.700 E0.01286
G1 X80.410 Y108.766 E0.01286
G1 X80.000 Y108.788 E0.01286
G1 X79.590 Y108.766 E0.01286
G1 X79.186 Y108.700 E0.01286
G1 X78.790 Y108.590 E0.01286
G1 X78.409 Y108.438 E0.01286
G1 X78.047 Y108.246 E0.01286
G1 X77.707 Y108.016 E0.01286
G1 X77.395 Y107.750 E0.01286
G1 X77.113 Y107.452 E0.01286
G1 X76.865 Y107.126 E0.01286
G1 X76.653 Y106.774 E0.01286
G1 X76.481 Y106.402 E0.01286
G1 X76.350 Y106.013 E0.01286
G1 X76.262 Y105.613 E0.01286
G1 X76.217 Y105.205 E0.01286
G1 X76.217 Y104.795 E0.01286
G1 X76.262 Y104.387 E0.01286
G1 X76.350 Y103.987 E0.01286
G1 X76.474 Y103.619 E0.01216
G1 X76.652 Y103.227 E0.01351
G1 X76.865 Y102.874 E0.01292
G1 X77.113 Y102.548 E0.01286
G1 X77.395 Y102.250 E0.01286
G1 X77.707 Y101.984 E0.01286
G1 X78.047 Y101.754 E0.01286
G1 X78.409 Y101.562 E0.01286
G1 X78.790 Y101.410 E0.01286
G1 X79.186 Y101.300 E0.01286
G1 X79.590 Y101.234 E0.01286
G1 X79.978 Y101.213 E0.01216
G1 X80.408 Y101.234 E0.01351
G1 X80.814 Y101.300 E0.01292
G1 X81.210 Y101.410 E0.01286
G1 X81.591 Y101.562 E0.01286
G1 X81.953 Y101.754 E0.01286
G1 X82.293 Y101.984 E0.01286
G1 X82.605 Y102.250 E0.01286
G1 X82.887 Y102.548 E0.01286
G1 X83.122 Y102.856 E0.01216
G1 X83.346 Y103.224 E0.01351
G1 X83.519 Y103.598 E0.01292
G1 X83.650 Y103.987 E0.01286
G1 X83.738 Y104.387 E0.01286
G1 X83.776 Y104.735 E0.01098
G1 X83.401 Y104.776 F10800.000
;TYPE:External perimeter
G1 F1200.000
G1 X83.406 Y105.185 E0.01281
G1 X83.366 Y105.552 E0.01158
G1 X83.286 Y105.912 E0.01158
G1 X83.168 Y106.262 E0.01158
G1 X83.013 Y106.598 E0.01158
G1 X82.823 Y106.914 E0.01158
G1 X82.599 Y107.208 E0.01158
G1 X82.345 Y107.476 E0.01158
G1 X82.064 Y107.715 E0.01158
G1 X81.758 Y107.922 E0.01158
G1 X81.432 Y108.095 E0.01158
G1 X81.089 Y108.232 E0.01158
G1 X80.733 Y108.331 E0.01158
G1 X80.369 Y108.391 E0.01158
G1 X80.000 Y108.411 E0.01158
G1 X79.631 Y108.391 E0.01158
G1 X79.267 Y108.331 E0.01158
G1 X78.911 Y108.232 E0.01158
G1 X78.568 Y108.095 E0.01158
G1 X78.242 Y107.922 E0.01158
G1 X77.936 Y107.715 E0.01158
G1 X77.655 Y107.476 E0.01158
G1 X77.401 Y107.208 E0.01158
G1 X77.177 Y106.914 E0.01158
G1 X76.987 Y106.598 E0.01158
G1 X76.832 Y106.262 E0.01158
G1 X76.714 Y105.912 E0.01158
G1 X76.634 Y105.552 E0.01158
G1 X76.594 Y105.185 E0.01158
G1 X76.594 Y104.815 E0.01158
G1 X76.634 Y104.448 E0.01158
G1 X76.714 Y104.088 E0.01158
G1 X76.825 Y103.758 E0.01091
G1 X76.986 Y103.403 E0.01222
G1 X77.177 Y103.086 E0.01160
G1 X77.401 Y102.792 E0.01158
G1 X77.655 Y102.524 E0.01158
G1 X77.936 Y102.285 E0.01158
G1 X78.242 Y102.078 E0.01158
G1 X78.568 Y101.905 E0.01158
G1 X78.911 Y101.768 E0.01158
G1 X79.267 Y101.669 E0.01158
G1 X79.631 Y101.609 E0.01158
G1 X79.979 Y101.591 E0.01091
G1 X80.368 Y101.609 E0.01222
G1 X80.733 Y101.669 E0.01160
G1 X81.089 Y101.768 E0.01158
G1 X81.432 Y101.905 E0.01158
G1 X81.758 Y102.078 E0.01158
G1 X82.064 Y102.285 E0.01158
G1 X82.345 Y102.524 E0.01158
G1 X82.599 Y102.792 E0.01158
G1 X82.810 Y103.069 E0.01091
G1 X83.013 Y103.402 E0.01222
G1 X83.168 Y103.738 E0.01160
G1 X83.286 Y104.088 E0.01158
G1 X83.366 Y104.448 E0.01158
G1 X83.395 Y104.716 E0.00846
G1 X83.759 Y104.954 F10800.000
;WIPE_START
G1 F8640.000
G1 X83.406 Y105.185 E-0.10815
G1 X83.366 Y105.552 E-0.08527
G1 X83.286 Y105.912 E-0.08527
G1 X83.168 Y106.262 E-0.08527
G1 X83.013 Y106.598 E-0.08527
G1 X82.823 Y106.914 E-0.08527
G1 X82.599 Y107.208 E-0.08527
G1 X82.345 Y107.476 E-0.08527
G1 X82.164 Y107.630 E-0.05495
;WIPE_END
G1 E-0.04000 F2100.000
G1 Z0.600 F10800.000
G1 X64.995 Y116.410
G1 Z0.200
G1 E0.80000 F2100.000
;TYPE:Perimeter
G1 F1200.000
G1 X65.198 Y116.920 E0.01723
G1 X65.287 Y117.462 E0.01723
G1 X65.257 Y118.011 E0.01723
G1 X65.110 Y118.540 E0.01723
G1 X64.853 Y119.026 E0.01723
G1 X64.497 Y119.445 E0.01723
G1 X64.060 Y119.777 E0.01723
G1 X63.561 Y120.008 E0.01723
G1 X63.040 Y120.122 E0.01672
G1 X62.734 Y120.139 E0.00962
G1 X62.204 Y120.081 E0.01672
G1 X61.683 Y119.906 E0.01723
G1 X61.226 Y119.631 E0.01672
G1 X60.992 Y119.432 E0.00962
G1 X60.647 Y119.026 E0.01672
G1 X60.390 Y118.540 E0.01723
G1 X60.247 Y118.027 E0.01672
G1 X60.214 Y117.722 E0.00962
G1 X60.243 Y117.189 E0.01672
G1 X60.385 Y116.675 E0.01672
G1 X60.514 Y116.397 E0.00962
G1 X60.813 Y115.955 E0.01672
G1 X61.212 Y115.577 E0.01723
G1 X61.683 Y115.294 E0.01723
G1 X62.203 Y115.119 E0.01721
G1 X62.715 Y115.062 E0.01613
