; generated by PrusaSlicer 2.3.0+linux-x64 on 2021-04-21 at 08:12:21 UTC

; 

; external perimeters extrusion width = 0.45mm
; perimeters extrusion width = 0.45mm
; infill extrusion width = 0.45mm
; solid infill extrusion width = 0.45mm
; top infill extrusion width = 0.40mm
; first layer extrusion width = 0.42mm

M73 P0 R14
M73 Q0 S14
M201 X1000 Y1000 Z200 E5000 ; sets maximum accelerations, mm/sec^2
M203 X200 Y200 Z12 E120 ; sets maximum feedrates, mm/sec
M204 P1250 R1250 T1250 ; sets acceleration (P, T) and retract acceleration (R), mm/sec^2
M205 X8.00 Y8.00 Z0.40 E4.50 ; sets the jerk limits, mm/sec
M205 S0 T0 ; sets the minimum extruding and travel feed rate, mm/sec
M107
;TYPE:Custom
M862.3 P "MK3" ; printer model check
M862.1 P0.4 ; nozzle diameter check
M115 U3.9.2 ; tell printer latest fw version
G90 ; use absolute coordinates
M83 ; extruder relative mode
M104 S215 ; set extruder temp
M140 S60 ; set bed temp
M190 S60 ; wait for bed temp
M109 S215 ; wait for extruder temp
G28 W ; home all without mesh bed level
G80 ; mesh bed leveling
G1 Y-3.0 F1000.0 ; go outside print area
G92 E0.0
G1 X60.0 E9.0 F1000.0 ; intro line
G1 X100.0 E12.5 F1000.0 ; intro line
G92 E0.0
M221 S95

; Don't change E values below. Excessive value can damage the printer.

M907 E538 ; set extruder motor current
G21 ; set units to millimeters
G90 ; use absolute coordinates
M83 ; use relative distances for extrusion
M900 K0.05 ; Filament gcode LA 1.5
M900 K30 ; Filament gcode LA 1.0
;LAYER_CHANGE
;Z:0.2
;HEIGHT:0.2
;BEFORE_LAYER_CHANGE
G92 E0.0
;0.2


G1 E-0.80000 F2100.000
G1 Z0.400 F10800.000
;AFTER_LAYER_CHANGE
;0.2
G1 X106.957 Y97.956
G1 Z0.200
G1 E0.80000 F2100.000
M204 S1000
;TYPE:Skirt
;WIDTH:0.42
G1 F1200.000
G1 X107.793 Y97.355 E0.03227
G1 X108.693 Y96.938 E0.03109
G1 X109.447 Y96.728 E0.02454
G1 X110.402 Y96.625 E0.03013
G1 X139.504 Y96.623 E0.91246
M73 P1 R14
M73 Q1 S14
G1 X140.526 Y96.723 E0.03219
G1 X141.274 Y96.926 E0.02432
G1 X142.206 Y97.354 E0.03215
G1 X143.085 Y97.992 E0.03406
G1 X143.786 Y98.756 E0.03251
G1 X144.205 Y99.399 E0.02408
G1 X144.614 Y100.340 E0.03215
G1 X144.837 Y101.352 E0.03251
G1 X145.334 Y114.623 E0.41639
G1 X145.315 Y121.132 E0.20407
G1 X145.107 Y122.225 E0.03488
G1 X144.821 Y122.974 E0.02515
G1 X144.285 Y123.874 E0.03286
G1 X143.500 Y124.727 E0.03631
G1 X142.714 Y125.298 E0.03049
G1 X142.035 Y125.640 E0.02384
G1 X141.071 Y125.943 E0.03168
G1 X140.056 Y126.057 E0.03203
G1 X110.924 Y126.059 E0.91341
G1 X109.828 Y125.939 E0.03457
G1 X108.749 Y125.585 E0.03560
G1 X107.785 Y125.022 E0.03500
G1 X106.914 Y124.225 E0.03703
G1 X106.356 Y123.461 E0.02965
G1 X106.038 Y122.851 E0.02157
G1 X105.723 Y121.905 E0.03125
G1 X105.605 Y121.186 E0.02284
G1 X105.124 Y108.059 E0.41187
G1 X105.123 Y101.996 E0.19010
G1 X105.241 Y100.883 E0.03508
G1 X105.595 Y99.798 E0.03580
G1 X106.158 Y98.830 E0.03512
G1 X106.917 Y98.000 E0.03527
; printing object CU-3286-MB parts - LC Standoff (2).stl id:0 copy 1
;WIPE_START
G1 F8640.000
G1 X107.793 Y97.355 E-0.25120
G1 X108.693 Y96.938 E-0.22899
G1 X109.447 Y96.728 E-0.18073
G1 X109.873 Y96.682 E-0.09908
;WIPE_END
G1 E-0.04000 F2100.000
G1 Z0.600 F10800.000
G1 X110.420 Y112.149
G1 Z0.200
G1 E0.80000 F2100.000
;TYPE:External perimeter
G1 F1200.000
G1 X110.687 Y112.107 E0.00850
G1 X110.969 Y112.092 E0.00884
G1 X139.947 Y112.092 E0.90860
G1 X140.224 Y112.107 E0.00868
G1 X140.497 Y112.149 E0.00866
G1 X140.758 Y112.220 E0.00849
G1 X141.011 Y112.317 E0.00850
G1 X141.253 Y112.440 E0.00850
G1 X141.480 Y112.587 E0.00850
G1 X141.691 Y112.758 E0.00850
G1 X141.882 Y112.950 E0.00850
G1 X142.053 Y113.160 E0.00850
G1 X142.200 Y113.388 E0.00850
G1 X142.324 Y113.629 E0.00850
G1 X142.421 Y113.882 E0.00850
G1 X142.491 Y114.144 E0.00850
G1 X142.533 Y114.412 E0.00850
G1 X142.548 Y114.693 E0.00884
G1 X142.548 Y120.672 E0.18745
G1 X142.533 Y120.953 E0.00884
G1 X142.491 Y121.221 E0.00850
G1 X142.421 Y121.482 E0.00850
G1 X142.324 Y121.735 E0.00850
G1 X142.200 Y121.977 E0.00850
G1 X142.053 Y122.204 E0.00850
G1 X141.882 Y122.415 E0.00850
G1 X141.691 Y122.607 E0.00850
G1 X141.480 Y122.777 E0.00850
G1 X141.253 Y122.925 E0.00850
G1 X141.011 Y123.048 E0.00850
M73 Q2 S14
G1 X140.758 Y123.145 E0.00850
G1 X140.496 Y123.215 E0.00850
G1 X140.229 Y123.258 E0.00850
G1 X139.947 Y123.272 E0.00884
G1 X110.969 Y123.272 E0.90860
M73 P2 R14
G1 X110.687 Y123.258 E0.00884
G1 X110.420 Y123.215 E0.00850
G1 X110.158 Y123.145 E0.00850
G1 X109.905 Y123.048 E0.00850
G1 X109.663 Y122.925 E0.00850
G1 X109.436 Y122.777 E0.00850
G1 X109.225 Y122.607 E0.00850
G1 X109.034 Y122.415 E0.00850
G1 X108.863 Y122.204 E0.00850
G1 X108.715 Y121.977 E0.00850
G1 X108.592 Y121.735 E0.00850
G1 X108.495 Y121.482 E0.00850
G1 X108.425 Y121.221 E0.00850
G1 X108.383 Y120.953 E0.00850
G1 X108.368 Y120.672 E0.00884
G1 X108.368 Y114.693 E0.18745
G1 X108.383 Y114.412 E0.00884
G1 X108.425 Y114.144 E0.00850
G1 X108.495 Y113.882 E0.00850
G1 X108.592 Y113.629 E0.00850
G1 X108.715 Y113.388 E0.00850
G1 X108.863 Y113.160 E0.00850
G1 X109.034 Y112.950 E0.00850
G1 X109.225 Y112.758 E0.00850
G1 X109.436 Y112.587 E0.00850
G1 X109.663 Y112.440 E0.00850
G1 X109.905 Y112.317 E0.00850
G1 X110.362 Y112.165 E0.01510
G1 X110.604 Y112.348 F10800.000
G1 X110.459 Y112.529
;TYPE:Perimeter
G1 F1200.000
G1 X110.727 Y112.483 E0.00851
G1 X110.979 Y112.469 E0.00791
G1 X139.937 Y112.469 E0.90798
G1 X140.184 Y112.482 E0.00776
G1 X140.641 Y112.579 E0.01464
G1 X140.858 Y112.662 E0.00726
G1 X141.258 Y112.893 E0.01450
G1 X141.602 Y113.202 E0.01450
G1 X141.873 Y113.576 E0.01450
G1 X142.062 Y113.999 E0.01450
G1 X142.121 Y114.222 E0.00726
G1 X142.158 Y114.451 E0.00726
G1 X142.171 Y114.703 E0.00791
G1 X142.171 Y120.662 E0.18683
M73 P2 R13
G1 X142.158 Y120.913 E0.00791
G1 X142.062 Y121.366 E0.01450
G1 X141.873 Y121.788 E0.01450
G1 X141.747 Y121.982 E0.00726
G1 X141.438 Y122.326 E0.01450
G1 X141.258 Y122.472 E0.00726
G1 X140.858 Y122.703 E0.01450
G1 X140.641 Y122.786 E0.00726
G1 X140.189 Y122.882 E0.01450
G1 X139.937 Y122.895 E0.00791
G1 X110.979 Y122.895 E0.90798
M73 Q2 S13
G1 X110.727 Y122.882 E0.00791
G1 X110.274 Y122.786 E0.01450
G1 X109.852 Y122.598 E0.01450
G1 X109.478 Y122.326 E0.01450
G1 X109.314 Y122.162 E0.00726
G1 X109.042 Y121.788 E0.01450
G1 X108.854 Y121.366 E0.01450
G1 X108.794 Y121.142 E0.00726
G1 X108.758 Y120.913 E0.00726
G1 X108.745 Y120.662 E0.00791
G1 X108.745 Y114.703 E0.18683
G1 X108.758 Y114.451 E0.00791
G1 X108.854 Y113.999 E0.01450
G1 X109.042 Y113.576 E0.01450
G1 X109.169 Y113.382 E0.00726
G1 X109.478 Y113.039 E0.01450
G1 X109.658 Y112.893 E0.00726
G1 X110.058 Y112.662 E0.01450
G1 X110.401 Y112.545 E0.01136
;WIPE_START
G1 F8640.000
G1 X110.727 Y112.483 E-0.07651
G1 X110.979 Y112.469 E-0.05822
G1 X113.686 Y112.469 E-0.62526
;WIPE_END
G1 E-0.04000 F2100.000
G1 Z0.600 F10800.000
G1 X136.330 Y117.276
G1 Z0.200
G1 E0.80000 F2100.000
;TYPE:External perimeter
G1 F1200.000
G1 X136.394 Y116.971 E0.00975
G1 X136.486 Y116.697 E0.00906
G1 X136.607 Y116.436 E0.00903
G1 X136.756 Y116.189 E0.00903
G1 X136.930 Y115.960 E0.00903
G1 X137.128 Y115.751 E0.00903
G1 X137.348 Y115.564 E0.00903
G1 X137.586 Y115.403 E0.00903
G1 X137.841 Y115.268 E0.00903
G1 X138.108 Y115.161 E0.00903
G1 X138.386 Y115.084 E0.00903
G1 X138.670 Y115.037 E0.00903
G1 X138.934 Y115.023 E0.00828
G1 X139.245 Y115.037 E0.00975
G1 X139.530 Y115.084 E0.00906
G1 X139.807 Y115.161 E0.00903
G1 X140.075 Y115.268 E0.00903
G1 X140.330 Y115.403 E0.00903
G1 X140.568 Y115.564 E0.00903
G1 X140.788 Y115.751 E0.00903
G1 X140.986 Y115.960 E0.00903
G1 X141.160 Y116.189 E0.00903
G1 X141.309 Y116.436 E0.00903
G1 X141.430 Y116.697 E0.00903
G1 X141.522 Y116.970 E0.00903
G1 X141.584 Y117.252 E0.00903
G1 X141.615 Y117.538 E0.00903
G1 X141.615 Y117.826 E0.00903
G1 X141.584 Y118.113 E0.00903
G1 X141.522 Y118.394 E0.00903
G1 X141.430 Y118.667 E0.00903
G1 X141.309 Y118.929 E0.00903
G1 X141.160 Y119.175 E0.00903
G1 X140.986 Y119.405 E0.00903
G1 X140.788 Y119.614 E0.00903
G1 X140.568 Y119.800 E0.00903
G1 X140.330 Y119.962 E0.00903
G1 X140.075 Y120.097 E0.00903
G1 X139.807 Y120.204 E0.00903
G1 X139.530 Y120.281 E0.00903
G1 X139.246 Y120.327 E0.00903
G1 X138.958 Y120.343 E0.00903
G1 X138.670 Y120.327 E0.00903
G1 X138.386 Y120.281 E0.00903
G1 X138.108 Y120.204 E0.00903
G1 X137.841 Y120.097 E0.00903
G1 X137.586 Y119.962 E0.00903
G1 X137.348 Y119.800 E0.00903
G1 X137.128 Y119.614 E0.00903
G1 X136.930 Y119.405 E0.00903
G1 X136.756 Y119.175 E0.00903
G1 X136.607 Y118.929 E0.00903
G1 X136.486 Y118.667 E0.00903
G1 X136.394 Y118.394 E0.00903
G1 X136.332 Y118.113 E0.00903
G1 X136.301 Y117.826 E0.00903
G1 X136.301 Y117.538 E0.00903
G1 X136.323 Y117.335 E0.00640
G1 X136.088 Y117.080 F10800.000
G1 X135.948 Y117.295
;TYPE:Perimeter
G1 F1200.000
G1 X136.030 Y116.872 E0.01349
G1 X136.136 Y116.558 E0.01039
G1 X136.274 Y116.259 E0.01031
G1 X136.443 Y115.977 E0.01031
G1 X136.642 Y115.715 E0.01031
G1 X136.869 Y115.477 E0.01031
G1 X137.119 Y115.264 E0.01031
G1 X137.392 Y115.079 E0.01031
G1 X137.682 Y114.925 E0.01031
G1 X137.988 Y114.803 E0.01031
G1 X138.305 Y114.715 E0.01031
G1 X138.629 Y114.662 E0.01031
G1 X138.932 Y114.645 E0.00951
G1 X139.284 Y114.661 E0.01103
G1 X139.611 Y114.715 E0.01039
G1 X139.928 Y114.803 E0.01031
G1 X140.234 Y114.925 E0.01031
G1 X140.524 Y115.079 E0.01031
G1 X140.797 Y115.264 E0.01031
G1 X141.047 Y115.477 E0.01031
G1 X141.274 Y115.715 E0.01031
G1 X141.473 Y115.977 E0.01031
G1 X141.642 Y116.259 E0.01031
M73 Q3 S13
G1 X141.780 Y116.558 E0.01031
G1 X141.885 Y116.869 E0.01031
G1 X141.956 Y117.191 E0.01031
G1 X141.992 Y117.518 E0.01031
G1 X141.992 Y117.847 E0.01031
G1 X141.956 Y118.174 E0.01031
G1 X141.885 Y118.495 E0.01031
G1 X141.780 Y118.807 E0.01031
G1 X141.642 Y119.105 E0.01031
G1 X141.473 Y119.387 E0.01031
G1 X141.274 Y119.649 E0.01031
G1 X141.047 Y119.888 E0.01031
G1 X140.797 Y120.101 E0.01031
G1 X140.524 Y120.286 E0.01031
G1 X140.234 Y120.440 E0.01031
G1 X139.928 Y120.561 E0.01031
G1 X139.611 Y120.649 E0.01031
G1 X139.286 Y120.703 E0.01031
G1 X138.958 Y120.721 E0.01031
G1 X138.629 Y120.703 E0.01031
G1 X138.305 Y120.649 E0.01031
G1 X137.988 Y120.561 E0.01031
G1 X137.682 Y120.440 E0.01031
M73 P3 R13
G1 X137.392 Y120.286 E0.01031
G1 X137.119 Y120.101 E0.01031
G1 X136.869 Y119.888 E0.01031
G1 X136.642 Y119.649 E0.01031
G1 X136.443 Y119.387 E0.01031
G1 X136.274 Y119.105 E0.01031
G1 X136.136 Y118.807 E0.01031
G1 X136.030 Y118.495 E0.01031
G1 X135.960 Y118.174 E0.01031
G1 X135.924 Y117.847 E0.01031
G1 X135.942 Y117.354 E0.01546
;WIPE_START
G1 F8640.000
G1 X136.030 Y116.872 E-0.11319
G1 X136.136 Y116.558 E-0.07655
G1 X136.274 Y116.259 E-0.07596
G1 X136.443 Y115.977 E-0.07596
G1 X136.642 Y115.715 E-0.07596
G1 X136.869 Y115.477 E-0.07596
G1 X137.119 Y115.264 E-0.07596
G1 X137.392 Y115.079 E-0.07596
G1 X137.682 Y114.925 E-0.07596
G1 X137.837 Y114.863 E-0.03854
;WIPE_END
G1 E-0.04000 F2100.000
G1 Z0.600 F10800.000
G1 X115.239 Y118.056
G1 Z0.200
G1 E0.80000 F2100.000
;TYPE:External perimeter
G1 F1200.000
G1 X115.105 Y118.538 E0.01567
G1 X114.883 Y118.960 E0.01497
G1 X114.716 Y119.182 E0.00871
G1 X114.357 Y119.522 E0.01552
G1 X113.929 Y119.780 E0.01567
G1 X113.455 Y119.940 E0.01567
G1 X112.964 Y119.993 E0.01549
G1 X112.702 Y119.979 E0.00820
G1 X112.220 Y119.873 E0.01549
G1 X111.766 Y119.663 E0.01567
G1 X111.368 Y119.360 E0.01567
G1 X111.045 Y118.979 E0.01567
G1 X110.811 Y118.538 E0.01567
G1 X110.678 Y118.062 E0.01549
G1 X110.650 Y117.802 E0.00820
G1 X110.677 Y117.309 E0.01549
G1 X110.804 Y116.848 E0.01497
G1 X110.918 Y116.595 E0.00871
G1 X111.196 Y116.186 E0.01552
G1 X111.559 Y115.842 E0.01567
G1 X111.987 Y115.584 E0.01567
G1 X112.461 Y115.425 E0.01567
G1 X112.935 Y115.372 E0.01497
G1 X113.213 Y115.385 E0.00871
G1 X113.696 Y115.492 E0.01552
G1 X114.150 Y115.702 E0.01567
G1 X114.548 Y116.004 E0.01567
G1 X114.871 Y116.385 E0.01567
G1 X115.105 Y116.827 E0.01567
G1 X115.238 Y117.303 E0.01549
G1 X115.266 Y117.563 E0.00820
G1 X115.242 Y117.996 E0.01361
G1 X115.544 Y118.315 F10800.000
G1 X115.613 Y118.118
;TYPE:Perimeter
G1 F1200.000
G1 X115.458 Y118.678 E0.01823
G1 X115.202 Y119.162 E0.01717
G1 X114.999 Y119.434 E0.01065
G1 X114.586 Y119.824 E0.01781
G1 X114.088 Y120.124 E0.01824
G1 X113.536 Y120.310 E0.01824
G1 X112.974 Y120.371 E0.01774
G1 X112.651 Y120.354 E0.01013
G1 X112.099 Y120.232 E0.01774
G1 X111.571 Y119.988 E0.01824
G1 X111.107 Y119.636 E0.01824
G1 X110.731 Y119.192 E0.01824
G1 X110.458 Y118.678 E0.01824
G1 X110.307 Y118.133 E0.01774
G1 X110.272 Y117.812 E0.01013
G1 X110.303 Y117.248 E0.01772
G1 X110.448 Y116.719 E0.01717
G1 X110.588 Y116.410 E0.01065
G1 X110.907 Y115.940 E0.01781
G1 X111.330 Y115.540 E0.01824
G1 X111.828 Y115.240 E0.01824
G1 X112.379 Y115.055 E0.01823
G1 X112.923 Y114.994 E0.01717
G1 X113.263 Y115.010 E0.01064
G1 X113.817 Y115.132 E0.01781
G1 X114.345 Y115.377 E0.01824
G1 X114.808 Y115.729 E0.01824
G1 X115.185 Y116.172 E0.01824
G1 X115.458 Y116.686 E0.01824
G1 X115.609 Y117.231 E0.01774
G1 X115.644 Y117.553 E0.01013
G1 X115.617 Y118.058 E0.01586
;WIPE_START
G1 F8640.000
G1 X115.458 Y118.678 E-0.14778
G1 X115.202 Y119.162 E-0.12648
G1 X114.999 Y119.434 E-0.07839
G1 X114.586 Y119.824 E-0.13113
G1 X114.088 Y120.124 E-0.13435
G1 X113.536 Y120.310 E-0.13435
G1 X113.504 Y120.314 E-0.00751
;WIPE_END
G1 E-0.04000 F2100.000
G1 Z0.600 F10800.000
G1 X121.301 Y117.826
G1 Z0.200
G1 E0.80000 F2100.000
;TYPE:External perimeter
G1 F1200.000
G1 X121.301 Y117.538 E0.00903
G1 X121.330 Y117.276 E0.00828
G1 X121.394 Y116.971 E0.00975
G1 X121.486 Y116.697 E0.00906
G1 X121.607 Y116.436 E0.00903
G1 X121.756 Y116.189 E0.00903
G1 X121.930 Y115.960 E0.00903
G1 X122.128 Y115.751 E0.00903
G1 X122.348 Y115.564 E0.00903
G1 X122.586 Y115.403 E0.00903
G1 X122.841 Y115.268 E0.00903
G1 X123.108 Y115.161 E0.00903
G1 X123.386 Y115.084 E0.00903
G1 X123.670 Y115.037 E0.00903
G1 X123.934 Y115.023 E0.00828
G1 X124.245 Y115.037 E0.00975
G1 X124.530 Y115.084 E0.00906
G1 X124.807 Y115.161 E0.00903
G1 X125.075 Y115.268 E0.00903
G1 X125.330 Y115.403 E0.00903
G1 X125.568 Y115.564 E0.00903
G1 X125.788 Y115.751 E0.00903
G1 X125.986 Y115.960 E0.00903
G1 X126.160 Y116.189 E0.00903
G1 X126.309 Y116.436 E0.00903
G1 X126.430 Y116.697 E0.00903
G1 X126.522 Y116.970 E0.00903
G1 X126.584 Y117.252 E0.00903
G1 X126.615 Y117.538 E0.00903
G1 X126.615 Y117.826 E0.00903
G1 X126.584 Y118.113 E0.00903
G1 X126.522 Y118.394 E0.00903
G1 X126.430 Y118.667 E0.00903
G1 X126.309 Y118.929 E0.00903
G1 X126.160 Y119.175 E0.00903
G1 X125.986 Y119.405 E0.00903
G1 X125.788 Y119.614 E0.00903
G1 X125.568 Y119.800 E0.00903
G1 X125.330 Y119.962 E0.00903
G1 X125.075 Y120.097 E0.00903
G1 X124.807 Y120.204 E0.00903
G1 X124.530 Y120.281 E0.00903
G1 X124.246 Y120.327 E0.00903
G1 X123.958 Y120.343 E0.00903
G1 X123.670 Y120.327 E0.00903
G1 X123.386 Y120.281 E0.00903
G1 X123.108 Y120.204 E0.00903
G1 X122.841 Y120.097 E0.00903
G1 X122.586 Y119.962 E0.00903
G1 X122.348 Y119.800 E0.00903
G1 X122.128 Y119.614 E0.00903
G1 X121.930 Y119.405 E0.00903
G1 X121.756 Y119.175 E0.00903
G1 X121.607 Y118.929 E0.00903
G1 X121.496 Y118.689 E0.00828
G1 X121.395 Y118.395 E0.00975
G1 X121.332 Y118.113 E0.00906
G1 X121.308 Y117.886 E0.00715
G1 X121.044 Y117.696 F10800.000
G1 X120.933 Y117.927
;TYPE:Perimeter
G1 F1200.000
G1 X120.924 Y117.518 E0.01282
G1 X120.957 Y117.216 E0.00951
G1 X121.030 Y116.872 E0.01103
G1 X121.136 Y116.558 E0.01039
G1 X121.274 Y116.259 E0.01031
G1 X121.443 Y115.977 E0.01031
G1 X121.642 Y115.715 E0.01031
G1 X121.869 Y115.477 E0.01031
G1 X122.119 Y115.264 E0.01031
G1 X122.392 Y115.079 E0.01031
G1 X122.682 Y114.925 E0.01031
G1 X122.988 Y114.803 E0.01031
G1 X123.305 Y114.715 E0.01031
G1 X123.629 Y114.662 E0.01031
G1 X123.932 Y114.645 E0.00951
G1 X124.284 Y114.661 E0.01103
G1 X124.611 Y114.715 E0.01039
G1 X124.928 Y114.803 E0.01031
G1 X125.234 Y114.925 E0.01031
G1 X125.524 Y115.079 E0.01031
G1 X125.797 Y115.264 E0.01031
G1 X126.047 Y115.477 E0.01031
G1 X126.274 Y115.715 E0.01031
G1 X126.473 Y115.977 E0.01031
G1 X126.642 Y116.259 E0.01031
G1 X126.780 Y116.558 E0.01031
G1 X126.885 Y116.869 E0.01031
G1 X126.956 Y117.191 E0.01031
G1 X126.992 Y117.518 E0.01031
G1 X126.992 Y117.847 E0.01031
