; generated by PrusaSlicer 2.3.0+linux-x64 on 2021-04-12 at 14:22:01 UTC

; 

; external perimeters extrusion width = 0.45mm
; perimeters extrusion width = 0.45mm
; infill extrusion width = 0.45mm
; solid infill extrusion width = 0.45mm
; top infill extrusion width = 0.40mm
; first layer extrusion width = 0.42mm

M73 P0 R51
M73 Q0 S52
M201 X1000 Y1000 Z200 E5000 ; sets maximum accelerations, mm/sec^2
M203 X200 Y200 Z12 E120 ; sets maximum feedrates, mm/sec
M204 P1250 R1250 T1250 ; sets acceleration (P, T) and retract acceleration (R), mm/sec^2
M205 X8.00 Y8.00 Z0.40 E4.50 ; sets the jerk limits, mm/sec
M205 S0 T0 ; sets the minimum extruding and travel feed rate, mm/sec
M107
;TYPE:Custom
M862.3 P "MK3" ; printer model check
M862.1 P0.4 ; nozzle diameter check
M115 U3.9.2 ; tell printer latest fw version
G90 ; use absolute coordinates
M83 ; extruder relative mode
M104 S215 ; set extruder temp
M140 S60 ; set bed temp
M190 S60 ; wait for bed temp
M109 S215 ; wait for extruder temp
G28 W ; home all without mesh bed level
G80 ; mesh bed leveling
G1 Y-3.0 F1000.0 ; go outside print area
G92 E0.0
G1 X60.0 E9.0 F1000.0 ; intro line
G1 X100.0 E12.5 F1000.0 ; intro line
G92 E0.0
M221 S95

; Don't change E values below. Excessive value can damage the printer.

M907 E538 ; set extruder motor current
G21 ; set units to millimeters
G90 ; use absolute coordinates
M83 ; use relative distances for extrusion
M900 K0.05 ; Filament gcode LA 1.5
M900 K30 ; Filament gcode LA 1.0
;LAYER_CHANGE
;Z:0.2
;HEIGHT:0.2
;BEFORE_LAYER_CHANGE
G92 E0.0
;0.2


G1 E-0.80000 F2100.000
G1 Z0.400 F10800.000
;AFTER_LAYER_CHANGE
;0.2
G1 X167.185 Y98.064
G1 Z0.200
G1 E0.80000 F2100.000
M204 S1000
;TYPE:Skirt
;WIDTH:0.42
G1 F1200.000
G1 X167.377 Y98.990 E0.02966
G1 X167.374 Y111.114 E0.38013
G1 X167.183 Y111.941 E0.02661
G1 X166.713 Y112.648 E0.02661
G1 X166.129 Y113.092 E0.02302
G1 X137.142 Y128.731 E1.03269
G1 X135.626 Y129.426 E0.05229
G1 X134.608 Y129.703 E0.03308
G1 X132.974 Y129.876 E0.05152
G1 X117.071 Y129.877 E0.49862
G1 X115.268 Y129.678 E0.05689
G1 X114.391 Y129.432 E0.02854
G1 X113.472 Y129.057 E0.03114
G1 X83.855 Y113.083 E1.05509
G1 X83.380 Y112.740 E0.01835
G1 X83.002 Y112.289 E0.01846
G1 X82.729 Y111.704 E0.02024
G1 X82.624 Y111.067 E0.02024
G1 X82.625 Y98.890 E0.38181
G1 X82.718 Y98.335 E0.01763
G1 X82.940 Y97.814 E0.01775
G1 X83.279 Y97.360 E0.01775
G1 X83.712 Y97.002 E0.01763
G1 X112.858 Y81.269 E1.03847
G1 X114.388 Y80.568 E0.05279
G1 X115.396 Y80.297 E0.03271
G1 X117.026 Y80.124 E0.05141
G1 X132.921 Y80.123 E0.49838
G1 X134.728 Y80.322 E0.05701
G1 X135.605 Y80.566 E0.02854
G1 X136.522 Y80.940 E0.03106
G1 X166.132 Y96.910 E1.05482
G1 X166.650 Y97.289 E0.02012
G1 X167.151 Y98.015 E0.02766
; printing object CU-3286-MB parts - LC Mirrored Mount.stl id:0 copy 0
;WIPE_START
G1 F8640.000
G1 X167.377 Y98.990 E-0.23123
G1 X167.377 Y101.280 E-0.52877
;WIPE_END
G1 E-0.04000 F2100.000
G1 Z0.600 F10800.000
G1 X133.787 Y98.015
G1 Z0.200
G1 E0.80000 F2100.000
;TYPE:Perimeter
G1 F1200.000
G1 X133.787 Y114.521 E0.51753
G1 X133.767 Y114.896 E0.01179
G1 X133.705 Y115.288 E0.01243
G1 X133.603 Y115.671 E0.01243
G1 X133.461 Y116.041 E0.01243
G1 X133.281 Y116.394 E0.01243
G1 X133.065 Y116.727 E0.01243
G1 X132.815 Y117.035 E0.01243
G1 X132.535 Y117.315 E0.01243
G1 X132.227 Y117.565 E0.01243
G1 X131.894 Y117.781 E0.01243
G1 X131.541 Y117.961 E0.01243
G1 X131.171 Y118.103 E0.01243
G1 X130.788 Y118.205 E0.01243
G1 X130.396 Y118.267 E0.01243
G1 X130.021 Y118.287 E0.01179
G1 X119.979 Y118.287 E0.31484
G1 X119.604 Y118.267 E0.01179
G1 X119.212 Y118.205 E0.01243
G1 X118.829 Y118.103 E0.01243
G1 X118.474 Y117.966 E0.01194
G1 X118.107 Y117.781 E0.01288
G1 X117.773 Y117.565 E0.01247
G1 X117.465 Y117.315 E0.01243
G1 X117.185 Y117.035 E0.01243
G1 X116.935 Y116.727 E0.01243
G1 X116.719 Y116.394 E0.01243
G1 X116.539 Y116.041 E0.01243
G1 X116.397 Y115.671 E0.01243
G1 X116.295 Y115.288 E0.01243
G1 X116.233 Y114.896 E0.01243
G1 X116.213 Y114.521 E0.01179
G1 X116.213 Y95.479 E0.59702
G1 X116.233 Y95.104 E0.01179
G1 X116.295 Y94.712 E0.01243
G1 X116.397 Y94.329 E0.01243
G1 X116.539 Y93.959 E0.01243
G1 X116.719 Y93.606 E0.01243
G1 X116.935 Y93.273 E0.01243
G1 X117.185 Y92.965 E0.01243
G1 X117.465 Y92.685 E0.01243
G1 X117.773 Y92.435 E0.01243
G1 X118.106 Y92.219 E0.01243
G1 X118.459 Y92.039 E0.01243
G1 X118.829 Y91.897 E0.01243
G1 X119.212 Y91.795 E0.01243
G1 X119.604 Y91.733 E0.01243
G1 X119.979 Y91.713 E0.01179
G1 X130.021 Y91.713 E0.31484
G1 X130.396 Y91.733 E0.01179
G1 X130.788 Y91.795 E0.01243
G1 X131.171 Y91.897 E0.01243
G1 X131.526 Y92.034 E0.01194
G1 X131.893 Y92.219 E0.01288
G1 X132.227 Y92.435 E0.01247
G1 X132.535 Y92.685 E0.01243
G1 X132.815 Y92.965 E0.01243
G1 X133.065 Y93.273 E0.01243
G1 X133.281 Y93.606 E0.01243
G1 X133.461 Y93.959 E0.01243
G1 X133.603 Y94.329 E0.01243
G1 X133.705 Y94.712 E0.01243
G1 X133.767 Y95.104 E0.01243
G1 X133.787 Y95.479 E0.01179
G1 X133.787 Y97.955 E0.07762
G1 X133.410 Y97.955 F10800.000
;TYPE:External perimeter
G1 F1200.000
G1 X133.410 Y114.511 E0.51910
G1 X133.392 Y114.856 E0.01086
G1 X133.336 Y115.209 E0.01119
G1 X133.244 Y115.554 E0.01119
G1 X133.116 Y115.887 E0.01119
G1 X132.954 Y116.205 E0.01119
G1 X132.759 Y116.505 E0.01119
G1 X132.535 Y116.782 E0.01119
G1 X132.282 Y117.035 E0.01119
G1 X132.005 Y117.259 E0.01119
G1 X131.705 Y117.454 E0.01119
G1 X131.387 Y117.616 E0.01119
G1 X131.054 Y117.744 E0.01119
G1 X130.709 Y117.836 E0.01119
G1 X130.357 Y117.892 E0.01119
G1 X130.011 Y117.910 E0.01086
G1 X119.989 Y117.910 E0.31422
G1 X119.644 Y117.892 E0.01086
G1 X119.291 Y117.836 E0.01119
G1 X118.946 Y117.744 E0.01119
G1 X118.627 Y117.621 E0.01073
G1 X118.295 Y117.454 E0.01164
G1 X117.995 Y117.259 E0.01121
G1 X117.718 Y117.035 E0.01119
G1 X117.465 Y116.782 E0.01119
G1 X117.241 Y116.505 E0.01119
G1 X117.046 Y116.205 E0.01119
G1 X116.884 Y115.887 E0.01119
G1 X116.756 Y115.554 E0.01119
G1 X116.664 Y115.209 E0.01119
G1 X116.608 Y114.857 E0.01119
G1 X116.590 Y114.511 E0.01086
G1 X116.590 Y95.489 E0.59640
G1 X116.608 Y95.143 E0.01086
G1 X116.664 Y94.791 E0.01119
G1 X116.756 Y94.446 E0.01119
G1 X116.884 Y94.113 E0.01119
G1 X117.046 Y93.795 E0.01119
G1 X117.241 Y93.495 E0.01119
G1 X117.465 Y93.218 E0.01119
G1 X117.718 Y92.965 E0.01119
G1 X117.995 Y92.741 E0.01119
G1 X118.295 Y92.546 E0.01119
G1 X118.613 Y92.384 E0.01119
G1 X118.946 Y92.256 E0.01119
G1 X119.291 Y92.164 E0.01119
G1 X119.644 Y92.108 E0.01119
G1 X119.989 Y92.090 E0.01086
G1 X130.011 Y92.090 E0.31422
G1 X130.357 Y92.108 E0.01086
G1 X130.709 Y92.164 E0.01119
G1 X131.054 Y92.256 E0.01119
G1 X131.373 Y92.379 E0.01073
G1 X131.705 Y92.546 E0.01164
G1 X132.005 Y92.741 E0.01121
G1 X132.282 Y92.965 E0.01119
G1 X132.535 Y93.218 E0.01119
G1 X132.759 Y93.495 E0.01119
G1 X132.954 Y93.795 E0.01119
G1 X133.116 Y94.113 E0.01119
G1 X133.244 Y94.446 E0.01119
G1 X133.336 Y94.791 E0.01119
G1 X133.392 Y95.144 E0.01119
G1 X133.410 Y95.489 E0.01086
G1 X133.410 Y97.895 E0.07542
G1 X133.757 Y98.154 F10800.000
;WIPE_START
G1 F8640.000
G1 X133.410 Y101.186 E-0.76000
;WIPE_END
G1 E-0.04000 F2100.000
G1 Z0.600 F10800.000
G1 X120.015 Y89.705
G1 Z0.200
G1 E0.80000 F2100.000
;TYPE:Perimeter
G1 F1200.000
G1 X119.816 Y89.967 E0.01031
G1 X119.589 Y90.206 E0.01031
G1 X119.339 Y90.419 E0.01031
G1 X119.066 Y90.603 E0.01032
G1 X118.776 Y90.757 E0.01031
G1 X118.470 Y90.879 E0.01031
G1 X118.153 Y90.967 E0.01031
G1 X117.828 Y91.020 E0.01031
G1 X117.500 Y91.038 E0.01031
G1 X117.172 Y91.020 E0.01031
G1 X116.847 Y90.967 E0.01031
G1 X116.530 Y90.879 E0.01031
G1 X116.224 Y90.757 E0.01031
G1 X115.934 Y90.603 E0.01031
G1 X115.661 Y90.419 E0.01031
G1 X115.411 Y90.206 E0.01031
G1 X115.184 Y89.967 E0.01031
G1 X114.985 Y89.705 E0.01031
G1 X114.816 Y89.423 E0.01031
G1 X114.678 Y89.125 E0.01031
G1 X114.573 Y88.813 E0.01031
G1 X114.502 Y88.492 E0.01031
G1 X114.466 Y88.164 E0.01031
G1 X114.466 Y87.836 E0.01031
G1 X114.502 Y87.508 E0.01031
G1 X114.573 Y87.187 E0.01031
G1 X114.678 Y86.875 E0.01031
G1 X114.816 Y86.577 E0.01031
G1 X114.985 Y86.295 E0.01031
G1 X115.184 Y86.033 E0.01031
G1 X115.411 Y85.794 E0.01031
G1 X115.661 Y85.581 E0.01031
G1 X115.934 Y85.397 E0.01031
G1 X116.224 Y85.243 E0.01031
G1 X116.530 Y85.121 E0.01031
G1 X116.847 Y85.033 E0.01031
G1 X117.172 Y84.980 E0.01031
G1 X117.485 Y84.963 E0.00983
G1 X117.827 Y84.979 E0.01075
G1 X118.153 Y85.033 E0.01036
G1 X118.470 Y85.121 E0.01031
G1 X118.776 Y85.243 E0.01031
G1 X119.066 Y85.397 E0.01031
G1 X119.339 Y85.581 E0.01031
G1 X119.589 Y85.794 E0.01031
G1 X119.816 Y86.033 E0.01031
G1 X120.015 Y86.295 E0.01031
G1 X120.184 Y86.577 E0.01031
G1 X120.322 Y86.875 E0.01031
G1 X120.427 Y87.187 E0.01031
G1 X120.498 Y87.508 E0.01031
G1 X120.534 Y87.836 E0.01031
G1 X120.534 Y88.164 E0.01031
G1 X120.498 Y88.492 E0.01031
G1 X120.427 Y88.813 E0.01031
G1 X120.322 Y89.125 E0.01031
G1 X120.184 Y89.423 E0.01031
G1 X120.046 Y89.654 E0.00843
G1 X119.723 Y89.459 F10800.000
;TYPE:External perimeter
G1 F1200.000
G1 X119.528 Y89.722 E0.01027
G1 X119.330 Y89.932 E0.00903
G1 X119.110 Y90.118 E0.00903
G1 X118.872 Y90.280 E0.00903
G1 X118.617 Y90.415 E0.00903
G1 X118.350 Y90.521 E0.00903
G1 X118.072 Y90.598 E0.00903
G1 X117.788 Y90.645 E0.00903
G1 X117.500 Y90.661 E0.00903
G1 X117.212 Y90.645 E0.00903
G1 X116.928 Y90.598 E0.00903
G1 X116.650 Y90.521 E0.00903
G1 X116.383 Y90.415 E0.00903
G1 X116.128 Y90.280 E0.00903
G1 X115.890 Y90.118 E0.00903
G1 X115.670 Y89.932 E0.00903
G1 X115.472 Y89.722 E0.00903
G1 X115.298 Y89.493 E0.00903
G1 X115.149 Y89.246 E0.00903
G1 X115.028 Y88.985 E0.00903
G1 X114.936 Y88.712 E0.00903
G1 X114.874 Y88.430 E0.00903
G1 X114.843 Y88.144 E0.00903
G1 X114.843 Y87.856 E0.00903
G1 X114.874 Y87.570 E0.00903
G1 X114.936 Y87.288 E0.00903
G1 X115.028 Y87.015 E0.00903
G1 X115.149 Y86.754 E0.00903
G1 X115.298 Y86.507 E0.00903
G1 X115.472 Y86.278 E0.00903
G1 X115.670 Y86.068 E0.00903
G1 X115.890 Y85.882 E0.00903
G1 X116.128 Y85.720 E0.00903
G1 X116.383 Y85.585 E0.00903
G1 X116.650 Y85.479 E0.00903
G1 X116.928 Y85.402 E0.00903
G1 X117.212 Y85.355 E0.00903
G1 X117.486 Y85.340 E0.00858
G1 X117.787 Y85.355 E0.00947
G1 X118.072 Y85.402 E0.00905
G1 X118.350 Y85.479 E0.00903
G1 X118.617 Y85.585 E0.00903
G1 X118.872 Y85.720 E0.00903
G1 X119.110 Y85.882 E0.00903
G1 X119.330 Y86.068 E0.00903
G1 X119.528 Y86.278 E0.00903
G1 X119.702 Y86.507 E0.00903
G1 X119.851 Y86.754 E0.00903
G1 X119.972 Y87.015 E0.00903
G1 X120.064 Y87.288 E0.00903
G1 X120.126 Y87.570 E0.00903
G1 X120.157 Y87.856 E0.00903
G1 X120.157 Y88.144 E0.00903
G1 X120.126 Y88.430 E0.00903
G1 X120.064 Y88.712 E0.00903
G1 X119.972 Y88.985 E0.00903
G1 X119.753 Y89.408 E0.01492
G1 X119.874 Y89.750 F10800.000
;WIPE_START
G1 F8640.000
G1 X119.528 Y89.722 E-0.08941
G1 X119.330 Y89.932 E-0.06652
G1 X119.110 Y90.118 E-0.06652
G1 X118.872 Y90.280 E-0.06652
G1 X118.617 Y90.415 E-0.06652
G1 X118.350 Y90.521 E-0.06652
G1 X118.072 Y90.598 E-0.06652
G1 X117.788 Y90.645 E-0.06652
G1 X117.500 Y90.661 E-0.06652
G1 X117.212 Y90.645 E-0.06652
G1 X116.928 Y90.598 E-0.06652
G1 X116.906 Y90.592 E-0.00540
;WIPE_END
G1 E-0.04000 F2100.000
G1 Z0.600 F10800.000
G1 X129.486 Y88.349
G1 Z0.200
G1 E0.80000 F2100.000
;TYPE:Perimeter
G1 F1200.000
G1 X129.466 Y88.164 E0.00583
G1 X129.466 Y87.836 E0.01031
G1 X129.502 Y87.508 E0.01031
G1 X129.573 Y87.187 E0.01031
G1 X129.673 Y86.890 E0.00983
G1 X129.815 Y86.578 E0.01075
G1 X129.985 Y86.295 E0.01036
G1 X130.184 Y86.033 E0.01031
G1 X130.411 Y85.794 E0.01031
G1 X130.661 Y85.581 E0.01031
G1 X130.934 Y85.397 E0.01031
G1 X131.224 Y85.243 E0.01031
G1 X131.530 Y85.121 E0.01031
G1 X131.847 Y85.033 E0.01031
G1 X132.172 Y84.980 E0.01031
G1 X132.485 Y84.963 E0.00983
G1 X132.827 Y84.979 E0.01075
G1 X133.153 Y85.033 E0.01036
G1 X133.470 Y85.121 E0.01031
G1 X133.776 Y85.243 E0.01031
G1 X134.066 Y85.397 E0.01031
G1 X134.339 Y85.581 E0.01031
G1 X134.589 Y85.794 E0.01031
G1 X134.816 Y86.033 E0.01031
G1 X135.015 Y86.295 E0.01031
G1 X135.184 Y86.577 E0.01031
G1 X135.322 Y86.875 E0.01031
G1 X135.427 Y87.187 E0.01031
G1 X135.498 Y87.508 E0.01031
G1 X135.534 Y87.836 E0.01031
G1 X135.534 Y88.164 E0.01031
G1 X135.498 Y88.492 E0.01031
G1 X135.427 Y88.813 E0.01031
G1 X135.322 Y89.125 E0.01031
G1 X135.184 Y89.423 E0.01031
G1 X135.015 Y89.705 E0.01031
G1 X134.816 Y89.967 E0.01031
G1 X134.589 Y90.206 E0.01031
G1 X134.339 Y90.419 E0.01031
G1 X134.079 Y90.595 E0.00983
G1 X133.777 Y90.757 E0.01075
G1 X133.470 Y90.879 E0.01036
G1 X133.153 Y90.967 E0.01031
G1 X132.828 Y91.020 E0.01031
G1 X132.500 Y91.038 E0.01031
G1 X132.172 Y91.020 E0.01031
G1 X131.847 Y90.967 E0.01031
G1 X131.530 Y90.879 E0.01031
G1 X131.224 Y90.757 E0.01031
G1 X130.934 Y90.603 E0.01031
G1 X130.674 Y90.427 E0.00983
G1 X130.412 Y90.207 E0.01075
G1 X130.184 Y89.967 E0.01036
G1 X129.995 Y89.717 E0.00983
G1 X129.816 Y89.425 E0.01075
G1 X129.678 Y89.125 E0.01036
G1 X129.573 Y88.813 E0.01031
G1 X129.493 Y88.409 E0.01291
G1 X129.868 Y88.368 F10800.000
;TYPE:External perimeter
M73 P1 R51
G1 F1200.000
G1 X129.843 Y88.144 E0.00707
G1 X129.843 Y87.856 E0.00903
G1 X129.874 Y87.570 E0.00903
G1 X129.936 Y87.288 E0.00903
G1 X130.024 Y87.029 E0.00858
G1 X130.149 Y86.754 E0.00947
G1 X130.298 Y86.507 E0.00905
G1 X130.472 Y86.278 E0.00903
G1 X130.670 Y86.068 E0.00903
G1 X130.890 Y85.882 E0.00903
G1 X131.128 Y85.720 E0.00903
G1 X131.383 Y85.585 E0.00903
G1 X131.650 Y85.479 E0.00903
G1 X131.928 Y85.402 E0.00903
M73 Q1 S52
G1 X132.212 Y85.355 E0.00903
G1 X132.486 Y85.340 E0.00858
G1 X132.787 Y85.355 E0.00947
G1 X133.072 Y85.402 E0.00905
G1 X133.350 Y85.479 E0.00903
G1 X133.617 Y85.585 E0.00903
G1 X133.872 Y85.720 E0.00903
G1 X134.110 Y85.882 E0.00903
G1 X134.330 Y86.068 E0.00903
G1 X134.528 Y86.278 E0.00903
G1 X134.702 Y86.507 E0.00903
G1 X134.851 Y86.754 E0.00903
G1 X134.972 Y87.015 E0.00903
G1 X135.064 Y87.288 E0.00903
G1 X135.126 Y87.570 E0.00903
G1 X135.157 Y87.856 E0.00903
G1 X135.157 Y88.144 E0.00903
G1 X135.126 Y88.430 E0.00903
G1 X135.064 Y88.712 E0.00903
G1 X134.972 Y88.985 E0.00903
G1 X134.851 Y89.246 E0.00903
G1 X134.702 Y89.493 E0.00903
G1 X134.528 Y89.722 E0.00903
G1 X134.330 Y89.932 E0.00903
G1 X134.110 Y90.118 E0.00903
G1 X133.884 Y90.272 E0.00858
G1 X133.618 Y90.414 E0.00947
G1 X133.350 Y90.521 E0.00905
G1 X133.072 Y90.598 E0.00903
G1 X132.788 Y90.645 E0.00903
G1 X132.500 Y90.661 E0.00903
G1 X132.212 Y90.645 E0.00903
G1 X131.928 Y90.598 E0.00903
G1 X131.650 Y90.521 E0.00903
G1 X131.383 Y90.415 E0.00903
G1 X131.128 Y90.280 E0.00903
G1 X130.902 Y90.126 E0.00858
G1 X130.671 Y89.932 E0.00947
G1 X130.472 Y89.722 E0.00905
G1 X130.307 Y89.505 E0.00858
G1 X130.150 Y89.247 E0.00947
G1 X130.028 Y88.985 E0.00905
G1 X129.936 Y88.712 E0.00903
G1 X129.874 Y88.428 E0.00912
G1 X129.657 Y88.287 F10800.000
;WIPE_START
G1 F8640.000
G1 X129.843 Y88.144 E-0.06591
G1 X129.843 Y87.856 E-0.06652
G1 X129.874 Y87.570 E-0.06652
G1 X129.936 Y87.288 E-0.06652
G1 X130.024 Y87.029 E-0.06319
G1 X130.149 Y86.754 E-0.06970
G1 X130.298 Y86.507 E-0.06665
G1 X130.472 Y86.278 E-0.06652
G1 X130.670 Y86.068 E-0.06652
G1 X130.890 Y85.882 E-0.06652
G1 X131.128 Y85.720 E-0.06652
G1 X131.239 Y85.662 E-0.02892
;WIPE_END
G1 E-0.04000 F2100.000
G1 Z0.600 F10800.000
G1 X143.567 Y102.431
G1 Z0.200
G1 E0.80000 F2100.000
;TYPE:Perimeter
G1 F1200.000
G1 X143.859 Y102.183 E0.01201
G1 X144.176 Y101.968 E0.01201
G1 X144.514 Y101.789 E0.01201
G1 X144.870 Y101.647 E0.01201
G1 X145.239 Y101.544 E0.01201
G1 X145.617 Y101.483 E0.01201
G1 X145.985 Y101.463 E0.01154
G1 X146.381 Y101.482 E0.01244
G1 X146.761 Y101.544 E0.01205
G1 X147.130 Y101.647 E0.01201
G1 X147.486 Y101.789 E0.01201
G1 X147.824 Y101.968 E0.01201
G1 X148.141 Y102.183 E0.01201
G1 X148.433 Y102.431 E0.01201
G1 X148.697 Y102.709 E0.01201
G1 X148.929 Y103.014 E0.01201
G1 X149.126 Y103.343 E0.01201
G1 X149.287 Y103.690 E0.01201
G1 X149.409 Y104.053 E0.01201
G1 X149.492 Y104.428 E0.01201
G1 X149.533 Y104.808 E0.01201
G1 X149.533 Y105.192 E0.01201
G1 X149.492 Y105.572 E0.01201
G1 X149.409 Y105.947 E0.01201
G1 X149.287 Y106.310 E0.01201
G1 X149.126 Y106.657 E0.01201
G1 X148.929 Y106.986 E0.01201
G1 X148.697 Y107.291 E0.01201
G1 X148.433 Y107.569 E0.01201
G1 X148.141 Y107.817 E0.01201
