; generated by PrusaSlicer 2.3.0+linux-x64 on 2021-05-27 at 11:48:21 UTC

; 

; external perimeters extrusion width = 0.45mm
; perimeters extrusion width = 0.45mm
; infill extrusion width = 0.45mm
; solid infill extrusion width = 0.45mm
; top infill extrusion width = 0.40mm
; first layer extrusion width = 0.42mm

M73 P0 R24
M73 Q0 S24
M201 X1000 Y1000 Z200 E5000 ; sets maximum accelerations, mm/sec^2
M203 X200 Y200 Z12 E120 ; sets maximum feedrates, mm/sec
M204 P1250 R1250 T1250 ; sets acceleration (P, T) and retract acceleration (R), mm/sec^2
M205 X8.00 Y8.00 Z0.40 E4.50 ; sets the jerk limits, mm/sec
M205 S0 T0 ; sets the minimum extruding and travel feed rate, mm/sec
M107
;TYPE:Custom
M862.3 P "MK3" ; printer model check
M862.1 P0.4 ; nozzle diameter check
M115 U3.9.2 ; tell printer latest fw version
G90 ; use absolute coordinates
M83 ; extruder relative mode
M104 S215 ; set extruder temp
M140 S60 ; set bed temp
M190 S60 ; wait for bed temp
M109 S215 ; wait for extruder temp
G28 W ; home all without mesh bed level
G80 ; mesh bed leveling
G1 Y-3.0 F1000.0 ; go outside print area
G92 E0.0
G1 X60.0 E9.0 F1000.0 ; intro line
G1 X100.0 E12.5 F1000.0 ; intro line
G92 E0.0
M221 S95

; Don't change E values below. Excessive value can damage the printer.

M907 E538 ; set extruder motor current
G21 ; set units to millimeters
G90 ; use absolute coordinates
M83 ; use relative distances for extrusion
M900 K0.05 ; Filament gcode LA 1.5
M900 K30 ; Filament gcode LA 1.0
;LAYER_CHANGE
;Z:0.2
;HEIGHT:0.2
;BEFORE_LAYER_CHANGE
G92 E0.0
;0.2


G1 E-0.80000 F2100.000
G1 Z0.400 F10800.000
;AFTER_LAYER_CHANGE
;0.2
G1 X88.992 Y81.720
G1 Z0.200
G1 E0.80000 F2100.000
M204 S1000
;TYPE:Skirt
;WIDTH:0.42
G1 F1200.000
G1 X89.997 Y81.623 E0.03168
G1 X160.004 Y81.623 E2.19500
G1 X161.022 Y81.722 E0.03207
G1 X161.760 Y81.920 E0.02396
G1 X162.690 Y82.344 E0.03203
G1 X163.524 Y82.940 E0.03215
G1 X164.061 Y83.478 E0.02384
G1 X164.657 Y84.313 E0.03215
G1 X165.082 Y85.246 E0.03215
G1 X165.280 Y85.988 E0.02408
G1 X165.377 Y86.990 E0.03156
G1 X165.377 Y111.011 E0.75318
G1 X165.334 Y111.669 E0.02067
G1 X165.141 Y112.572 E0.02894
G1 X164.597 Y113.787 E0.04176
G1 X164.053 Y114.533 E0.02894
G1 X163.554 Y115.034 E0.02217
G1 X149.079 Y127.253 E0.59394
G1 X148.028 Y127.888 E0.03849
G1 X146.820 Y128.275 E0.03977
G1 X145.796 Y128.377 E0.03229
G1 X128.731 Y128.336 E0.53505
M73 Q1 S24
G1 X101.421 Y122.245 E0.87731
M73 P1 R24
G1 X100.779 Y122.056 E0.02098
G1 X99.911 Y121.653 E0.03003
G1 X98.836 Y120.834 E0.04238
G1 X98.222 Y120.113 E0.02967
G1 X97.871 Y119.552 E0.02076
G1 X85.289 Y95.588 E0.84864
G1 X84.913 Y94.739 E0.02913
G1 X84.720 Y94.010 E0.02361
G1 X84.623 Y93.033 E0.03080
G1 X84.623 Y86.950 E0.19071
G1 X84.720 Y85.992 E0.03020
G1 X84.901 Y85.294 E0.02262
G1 X85.136 Y84.712 E0.01967
G1 X85.586 Y83.933 E0.02822
G1 X86.429 Y82.980 E0.03988
G1 X86.925 Y82.591 E0.01978
G1 X87.724 Y82.130 E0.02894
G1 X88.935 Y81.738 E0.03989
; printing object CU-3286-MB parts - LC Standoff (2).stl id:1 copy 0
;WIPE_START
G1 F8640.000
G1 X89.997 Y81.623 E-0.24682
G1 X92.220 Y81.623 E-0.51318
;WIPE_END
G1 E-0.04000 F2100.000
G1 Z0.600 F10800.000
G1 X140.999 Y89.534
G1 Z0.200
G1 E0.80000 F2100.000
;TYPE:Perimeter
G1 F1200.000
G1 X141.072 Y89.190 E0.01103
G1 X141.178 Y88.875 E0.01039
G1 X141.316 Y88.577 E0.01031
G1 X141.485 Y88.295 E0.01031
G1 X141.684 Y88.033 E0.01031
G1 X141.911 Y87.794 E0.01031
G1 X142.161 Y87.581 E0.01031
G1 X142.434 Y87.397 E0.01031
G1 X142.724 Y87.243 E0.01031
G1 X143.030 Y87.121 E0.01031
G1 X143.347 Y87.033 E0.01031
G1 X143.672 Y86.980 E0.01031
G1 X143.974 Y86.963 E0.00951
G1 X144.326 Y86.979 E0.01103
G1 X144.653 Y87.033 E0.01039
G1 X144.970 Y87.121 E0.01031
G1 X145.276 Y87.243 E0.01031
G1 X145.566 Y87.397 E0.01031
G1 X145.839 Y87.581 E0.01031
G1 X146.089 Y87.794 E0.01031
G1 X146.316 Y88.033 E0.01031
G1 X146.515 Y88.295 E0.01031
G1 X146.684 Y88.577 E0.01031
G1 X146.822 Y88.875 E0.01031
G1 X146.927 Y89.187 E0.01031
G1 X146.998 Y89.508 E0.01031
G1 X147.034 Y89.836 E0.01031
G1 X147.034 Y90.164 E0.01031
G1 X146.998 Y90.492 E0.01031
G1 X146.927 Y90.813 E0.01031
G1 X146.822 Y91.125 E0.01031
G1 X146.684 Y91.423 E0.01031
G1 X146.515 Y91.705 E0.01031
G1 X146.316 Y91.967 E0.01031
G1 X146.089 Y92.206 E0.01031
G1 X145.839 Y92.419 E0.01031
G1 X145.566 Y92.603 E0.01031
G1 X145.276 Y92.757 E0.01031
G1 X144.970 Y92.879 E0.01031
G1 X144.653 Y92.967 E0.01031
G1 X144.328 Y93.020 E0.01031
G1 X144.000 Y93.038 E0.01031
G1 X143.672 Y93.020 E0.01031
G1 X143.347 Y92.967 E0.01031
G1 X143.030 Y92.879 E0.01031
G1 X142.724 Y92.757 E0.01031
G1 X142.434 Y92.603 E0.01031
G1 X142.161 Y92.419 E0.01031
G1 X141.911 Y92.206 E0.01031
G1 X141.684 Y91.967 E0.01031
G1 X141.485 Y91.705 E0.01031
G1 X141.316 Y91.423 E0.01031
G1 X141.188 Y91.148 E0.00951
G1 X141.073 Y90.815 E0.01103
G1 X141.002 Y90.492 E0.01039
G1 X140.966 Y90.164 E0.01031
G1 X140.966 Y89.836 E0.01031
G1 X140.993 Y89.594 E0.00763
G1 X141.367 Y89.634 F10800.000
;TYPE:External perimeter
G1 F1200.000
G1 X141.436 Y89.289 E0.01104
G1 X141.528 Y89.015 E0.00906
G1 X141.649 Y88.754 E0.00903
G1 X141.798 Y88.507 E0.00903
G1 X141.972 Y88.278 E0.00903
G1 X142.170 Y88.068 E0.00903
G1 X142.390 Y87.882 E0.00903
G1 X142.628 Y87.720 E0.00903
G1 X142.883 Y87.585 E0.00903
G1 X143.150 Y87.479 E0.00903
G1 X143.428 Y87.402 E0.00903
G1 X143.712 Y87.355 E0.00903
G1 X143.976 Y87.341 E0.00828
G1 X144.287 Y87.355 E0.00975
G1 X144.572 Y87.402 E0.00906
G1 X144.850 Y87.479 E0.00903
G1 X145.117 Y87.585 E0.00903
G1 X145.372 Y87.720 E0.00903
G1 X145.610 Y87.882 E0.00903
G1 X145.830 Y88.068 E0.00903
G1 X146.028 Y88.278 E0.00903
G1 X146.202 Y88.507 E0.00903
G1 X146.351 Y88.754 E0.00903
G1 X146.472 Y89.015 E0.00903
G1 X146.564 Y89.288 E0.00903
G1 X146.626 Y89.570 E0.00903
G1 X146.657 Y89.856 E0.00903
G1 X146.657 Y90.144 E0.00903
G1 X146.626 Y90.430 E0.00903
G1 X146.564 Y90.712 E0.00903
G1 X146.472 Y90.985 E0.00903
G1 X146.351 Y91.246 E0.00903
G1 X146.202 Y91.493 E0.00903
G1 X146.028 Y91.722 E0.00903
G1 X145.830 Y91.932 E0.00903
G1 X145.610 Y92.118 E0.00903
G1 X145.372 Y92.280 E0.00903
G1 X145.117 Y92.415 E0.00903
G1 X144.850 Y92.521 E0.00903
G1 X144.572 Y92.598 E0.00903
G1 X144.288 Y92.645 E0.00903
G1 X144.000 Y92.661 E0.00903
G1 X143.712 Y92.645 E0.00903
G1 X143.428 Y92.598 E0.00903
G1 X143.150 Y92.521 E0.00903
G1 X142.883 Y92.415 E0.00903
G1 X142.628 Y92.280 E0.00903
G1 X142.390 Y92.118 E0.00903
G1 X142.170 Y91.932 E0.00903
G1 X141.972 Y91.722 E0.00903
G1 X141.798 Y91.493 E0.00903
G1 X141.649 Y91.246 E0.00903
G1 X141.538 Y91.007 E0.00828
G1 X141.437 Y90.713 E0.00975
G1 X141.374 Y90.430 E0.00906
G1 X141.343 Y90.144 E0.00903
G1 X141.361 Y89.694 E0.01412
G1 X141.088 Y89.421 F10800.000
;WIPE_START
G1 F8640.000
G1 X141.436 Y89.289 E-0.09508
G1 X141.528 Y89.015 E-0.06673
G1 X141.649 Y88.754 E-0.06652
G1 X141.798 Y88.507 E-0.06652
G1 X141.972 Y88.278 E-0.06652
G1 X142.170 Y88.068 E-0.06652
G1 X142.390 Y87.882 E-0.06652
G1 X142.628 Y87.720 E-0.06652
G1 X142.883 Y87.585 E-0.06652
G1 X143.150 Y87.479 E-0.06652
G1 X143.426 Y87.402 E-0.06603
;WIPE_END
G1 E-0.04000 F2100.000
G1 Z0.600 F10800.000
G1 X135.655 Y90.435
G1 Z0.200
G1 E0.80000 F2100.000
;TYPE:Perimeter
G1 F1200.000
G1 X135.500 Y90.995 E0.01823
G1 X135.244 Y91.480 E0.01717
G1 X135.041 Y91.752 E0.01065
G1 X134.628 Y92.142 E0.01781
G1 X134.130 Y92.442 E0.01824
G1 X133.578 Y92.628 E0.01824
G1 X133.016 Y92.689 E0.01774
G1 X132.693 Y92.672 E0.01013
G1 X132.141 Y92.550 E0.01774
G1 X131.613 Y92.306 E0.01824
G1 X131.150 Y91.954 E0.01824
G1 X130.773 Y91.510 E0.01824
G1 X130.500 Y90.996 E0.01824
G1 X130.349 Y90.451 E0.01774
G1 X130.314 Y90.130 E0.01013
G1 X130.345 Y89.565 E0.01772
G1 X130.490 Y89.037 E0.01717
G1 X130.630 Y88.728 E0.01065
G1 X130.949 Y88.258 E0.01781
G1 X131.372 Y87.858 E0.01824
G1 X131.870 Y87.558 E0.01824
G1 X132.421 Y87.372 E0.01823
G1 X132.965 Y87.312 E0.01717
G1 X133.305 Y87.328 E0.01064
G1 X133.859 Y87.450 E0.01781
G1 X134.387 Y87.694 E0.01824
G1 X134.850 Y88.046 E0.01824
G1 X135.227 Y88.490 E0.01824
G1 X135.500 Y89.004 E0.01824
G1 X135.651 Y89.549 E0.01774
G1 X135.686 Y89.870 E0.01013
G1 X135.659 Y90.375 E0.01586
G1 X135.282 Y90.355 F10800.000
;TYPE:External perimeter
G1 F1200.000
G1 X135.147 Y90.855 E0.01625
G1 X134.925 Y91.278 E0.01497
G1 X134.758 Y91.500 E0.00871
G1 X134.399 Y91.840 E0.01552
G1 X133.971 Y92.098 E0.01567
G1 X133.497 Y92.257 E0.01567
G1 X133.006 Y92.311 E0.01549
G1 X132.744 Y92.297 E0.00820
G1 X132.262 Y92.191 E0.01549
G1 X131.808 Y91.981 E0.01567
G1 X131.410 Y91.678 E0.01567
G1 X131.087 Y91.297 E0.01567
G1 X130.853 Y90.856 E0.01567
G1 X130.720 Y90.379 E0.01549
G1 X130.692 Y90.119 E0.00820
G1 X130.719 Y89.626 E0.01549
G1 X130.846 Y89.166 E0.01497
G1 X130.961 Y88.913 E0.00871
G1 X131.238 Y88.504 E0.01552
G1 X131.601 Y88.160 E0.01567
G1 X132.029 Y87.902 E0.01567
G1 X132.503 Y87.743 E0.01567
G1 X132.977 Y87.690 E0.01497
G1 X133.255 Y87.703 E0.00871
G1 X133.738 Y87.809 E0.01552
G1 X134.192 Y88.019 E0.01567
G1 X134.590 Y88.322 E0.01567
G1 X134.913 Y88.703 E0.01567
G1 X135.147 Y89.144 E0.01567
G1 X135.280 Y89.621 E0.01549
G1 X135.308 Y89.881 E0.00820
G1 X135.285 Y90.295 E0.01302
G1 X135.589 Y90.612 F10800.000
;WIPE_START
G1 F8640.000
G1 X135.147 Y90.855 E-0.13324
G1 X134.925 Y91.278 E-0.11023
G1 X134.758 Y91.500 E-0.06413
G1 X134.399 Y91.840 E-0.11426
G1 X133.971 Y92.098 E-0.11542
G1 X133.497 Y92.257 E-0.11541
G1 X133.035 Y92.308 E-0.10731
;WIPE_END
G1 E-0.04000 F2100.000
G1 Z0.600 F10800.000
G1 X155.966 Y90.164
G1 Z0.200
G1 E0.80000 F2100.000
;TYPE:Perimeter
G1 F1200.000
G1 X155.966 Y89.836 E0.01031
G1 X155.999 Y89.534 E0.00951
G1 X156.072 Y89.190 E0.01103
G1 X156.178 Y88.875 E0.01039
G1 X156.316 Y88.577 E0.01031
G1 X156.485 Y88.295 E0.01031
G1 X156.684 Y88.033 E0.01031
G1 X156.911 Y87.794 E0.01031
G1 X157.161 Y87.581 E0.01031
G1 X157.434 Y87.397 E0.01031
G1 X157.724 Y87.243 E0.01031
G1 X158.030 Y87.121 E0.01031
G1 X158.347 Y87.033 E0.01031
G1 X158.672 Y86.980 E0.01031
G1 X158.974 Y86.963 E0.00951
G1 X159.326 Y86.979 E0.01103
G1 X159.653 Y87.033 E0.01039
G1 X159.970 Y87.121 E0.01031
G1 X160.276 Y87.243 E0.01031
G1 X160.566 Y87.397 E0.01031
G1 X160.839 Y87.581 E0.01031
G1 X161.089 Y87.794 E0.01031
G1 X161.316 Y88.033 E0.01031
G1 X161.515 Y88.295 E0.01031
G1 X161.684 Y88.577 E0.01031
G1 X161.822 Y88.875 E0.01031
G1 X161.927 Y89.187 E0.01031
G1 X161.998 Y89.508 E0.01031
G1 X162.034 Y89.836 E0.01031
G1 X162.034 Y90.164 E0.01031
G1 X161.998 Y90.492 E0.01031
G1 X161.927 Y90.813 E0.01031
G1 X161.822 Y91.125 E0.01031
G1 X161.684 Y91.423 E0.01031
G1 X161.515 Y91.705 E0.01031
G1 X161.316 Y91.967 E0.01031
G1 X161.089 Y92.206 E0.01031
G1 X160.839 Y92.419 E0.01031
G1 X160.566 Y92.603 E0.01031
G1 X160.276 Y92.757 E0.01031
G1 X159.970 Y92.879 E0.01031
G1 X159.653 Y92.967 E0.01031
G1 X159.328 Y93.020 E0.01031
G1 X159.000 Y93.038 E0.01031
G1 X158.672 Y93.020 E0.01031
G1 X158.347 Y92.967 E0.01031
G1 X158.030 Y92.879 E0.01031
G1 X157.724 Y92.757 E0.01031
G1 X157.434 Y92.603 E0.01031
G1 X157.161 Y92.419 E0.01031
G1 X156.911 Y92.206 E0.01031
G1 X156.684 Y91.967 E0.01031
G1 X156.485 Y91.705 E0.01031
G1 X156.316 Y91.423 E0.01031
G1 X156.178 Y91.125 E0.01031
G1 X156.073 Y90.813 E0.01031
G1 X156.002 Y90.492 E0.01031
G1 X155.973 Y90.224 E0.00843
G1 X156.348 Y90.183 F10800.000
;TYPE:External perimeter
G1 F1200.000
G1 X156.343 Y89.856 E0.01027
G1 X156.372 Y89.593 E0.00828
G1 X156.436 Y89.289 E0.00975
G1 X156.528 Y89.015 E0.00906
G1 X156.649 Y88.754 E0.00903
G1 X156.798 Y88.507 E0.00903
G1 X156.972 Y88.278 E0.00903
G1 X157.170 Y88.068 E0.00903
G1 X157.390 Y87.882 E0.00903
G1 X157.628 Y87.720 E0.00903
G1 X157.883 Y87.585 E0.00903
G1 X158.150 Y87.479 E0.00903
G1 X158.428 Y87.402 E0.00903
G1 X158.712 Y87.355 E0.00903
G1 X158.976 Y87.341 E0.00828
G1 X159.287 Y87.355 E0.00975
G1 X159.572 Y87.402 E0.00906
G1 X159.850 Y87.479 E0.00903
G1 X160.117 Y87.585 E0.00903
G1 X160.372 Y87.720 E0.00903
G1 X160.610 Y87.882 E0.00903
G1 X160.830 Y88.068 E0.00903
G1 X161.028 Y88.278 E0.00903
G1 X161.202 Y88.507 E0.00903
G1 X161.351 Y88.754 E0.00903
G1 X161.472 Y89.015 E0.00903
G1 X161.564 Y89.288 E0.00903
G1 X161.626 Y89.570 E0.00903
G1 X161.657 Y89.856 E0.00903
G1 X161.657 Y90.144 E0.00903
G1 X161.626 Y90.430 E0.00903
G1 X161.564 Y90.712 E0.00903
G1 X161.472 Y90.985 E0.00903
G1 X161.351 Y91.246 E0.00903
G1 X161.202 Y91.493 E0.00903
G1 X161.028 Y91.722 E0.00903
G1 X160.830 Y91.932 E0.00903
G1 X160.610 Y92.118 E0.00903
G1 X160.372 Y92.280 E0.00903
G1 X160.117 Y92.415 E0.00903
G1 X159.850 Y92.521 E0.00903
G1 X159.572 Y92.598 E0.00903
G1 X159.288 Y92.645 E0.00903
G1 X159.000 Y92.661 E0.00903
G1 X158.712 Y92.645 E0.00903
G1 X158.428 Y92.598 E0.00903
G1 X158.150 Y92.521 E0.00903
G1 X157.883 Y92.415 E0.00903
G1 X157.628 Y92.280 E0.00903
G1 X157.390 Y92.118 E0.00903
G1 X157.170 Y91.932 E0.00903
G1 X156.972 Y91.722 E0.00903
G1 X156.798 Y91.493 E0.00903
G1 X156.649 Y91.246 E0.00903
G1 X156.528 Y90.985 E0.00903
G1 X156.436 Y90.712 E0.00903
G1 X156.354 Y90.243 E0.01492
G1 X156.051 Y90.044 F10800.000
;WIPE_START
G1 F8640.000
G1 X156.343 Y89.856 E-0.08941
G1 X156.372 Y89.593 E-0.06099
G1 X156.436 Y89.289 E-0.07181
G1 X156.528 Y89.015 E-0.06673
G1 X156.649 Y88.754 E-0.06652
G1 X156.798 Y88.507 E-0.06652
G1 X156.972 Y88.278 E-0.06652
G1 X157.170 Y88.068 E-0.06652
G1 X157.390 Y87.882 E-0.06652
G1 X157.628 Y87.720 E-0.06652
G1 X157.883 Y87.585 E-0.06652
G1 X157.905 Y87.577 E-0.00543
;WIPE_END
G1 E-0.04000 F2100.000
G1 Z0.600 F10800.000
G1 X156.354 Y95.213
G1 Z0.200
G1 E0.80000 F2100.000
;TYPE:Perimeter
G1 F1200.000
G1 X131.021 Y95.213 E0.79431
G1 X130.769 Y95.200 E0.00791
G1 X130.317 Y95.104 E0.01450
G1 X129.894 Y94.916 E0.01450
G1 X129.520 Y94.644 E0.01450
G1 X129.356 Y94.480 E0.00726
G1 X129.084 Y94.106 E0.01450
G1 X128.896 Y93.683 E0.01450
G1 X128.836 Y93.460 E0.00726
G1 X128.800 Y93.231 E0.00726
G1 X128.787 Y92.979 E0.00791
G1 X128.787 Y87.021 E0.18683
G1 X128.800 Y86.769 E0.00791
G1 X128.896 Y86.317 E0.01450
G1 X129.084 Y85.894 E0.01450
G1 X129.211 Y85.700 E0.00726
G1 X129.520 Y85.356 E0.01450
G1 X129.700 Y85.211 E0.00726
G1 X129.894 Y85.084 E0.00726
G1 X130.317 Y84.896 E0.01450
G1 X130.769 Y84.800 E0.01450
G1 X131.021 Y84.787 E0.00791
G1 X159.979 Y84.787 E0.90798
M73 P2 R24
M73 Q2 S24
G1 X160.460 Y84.837 E0.01516
G1 X160.900 Y84.979 E0.01448
G1 X161.300 Y85.211 E0.01450
G1 X161.480 Y85.356 E0.00726
G1 X161.789 Y85.700 E0.01450
G1 X161.916 Y85.894 E0.00726
G1 X162.104 Y86.317 E0.01450
G1 X162.200 Y86.769 E0.01450
G1 X162.213 Y87.021 E0.00791
G1 X162.213 Y92.979 E0.18683
G1 X162.200 Y93.231 E0.00791
G1 X162.164 Y93.460 E0.00726
G1 X162.021 Y93.900 E0.01450
G1 X161.789 Y94.300 E0.01450
G1 X161.480 Y94.644 E0.01450
G1 X161.106 Y94.916 E0.01450
G1 X160.900 Y95.021 E0.00726
G1 X160.460 Y95.164 E0.01450
G1 X160.231 Y95.200 E0.00726
G1 X159.979 Y95.213 E0.00791
G1 X156.414 Y95.213 E0.11179
G1 X156.414 Y95.590 F10800.000
;TYPE:External perimeter
G1 F1200.000
G1 X131.011 Y95.590 E0.79650
G1 X130.729 Y95.575 E0.00884
G1 X130.462 Y95.533 E0.00850
G1 X130.200 Y95.463 E0.00850
G1 X129.947 Y95.366 E0.00850
G1 X129.705 Y95.243 E0.00850
G1 X129.478 Y95.095 E0.00850
G1 X129.267 Y94.924 E0.00850
G1 X129.076 Y94.733 E0.00850
G1 X128.905 Y94.522 E0.00850
G1 X128.757 Y94.295 E0.00850
G1 X128.634 Y94.053 E0.00850
G1 X128.537 Y93.800 E0.00850
G1 X128.467 Y93.538 E0.00850
G1 X128.425 Y93.271 E0.00850
G1 X128.410 Y92.989 E0.00884
G1 X128.410 Y87.011 E0.18745
G1 X128.425 Y86.729 E0.00884
G1 X128.467 Y86.462 E0.00850
G1 X128.537 Y86.200 E0.00850
G1 X128.634 Y85.947 E0.00850
G1 X128.757 Y85.705 E0.00850
G1 X128.905 Y85.478 E0.00850
G1 X129.076 Y85.267 E0.00850
G1 X129.267 Y85.076 E0.00850
G1 X129.478 Y84.905 E0.00850
G1 X129.705 Y84.757 E0.00850
G1 X129.947 Y84.634 E0.00850
G1 X130.200 Y84.537 E0.00850
G1 X130.462 Y84.467 E0.00850
G1 X130.729 Y84.425 E0.00850
G1 X131.011 Y84.410 E0.00884
G1 X159.989 Y84.410 E0.90860
G1 X160.266 Y84.424 E0.00868
G1 X160.539 Y84.467 E0.00866
G1 X160.800 Y84.537 E0.00849
G1 X161.053 Y84.634 E0.00850
G1 X161.295 Y84.757 E0.00850
G1 X161.522 Y84.905 E0.00850
G1 X161.733 Y85.076 E0.00850
G1 X161.924 Y85.267 E0.00850
