; generated by PrusaSlicer 2.3.0+linux-x64 on 2021-04-13 at 07:54:45 UTC

; 

; external perimeters extrusion width = 0.45mm
; perimeters extrusion width = 0.45mm
; infill extrusion width = 0.45mm
; solid infill extrusion width = 0.45mm
; top infill extrusion width = 0.40mm
; first layer extrusion width = 0.42mm

M73 P0 R37
M73 Q0 S38
M201 X1000 Y1000 Z200 E5000 ; sets maximum accelerations, mm/sec^2
M203 X200 Y200 Z12 E120 ; sets maximum feedrates, mm/sec
M204 P1250 R1250 T1250 ; sets acceleration (P, T) and retract acceleration (R), mm/sec^2
M205 X8.00 Y8.00 Z0.40 E4.50 ; sets the jerk limits, mm/sec
M205 S0 T0 ; sets the minimum extruding and travel feed rate, mm/sec
M107
;TYPE:Custom
M862.3 P "MK3" ; printer model check
M862.1 P0.4 ; nozzle diameter check
M115 U3.9.2 ; tell printer latest fw version
G90 ; use absolute coordinates
M83 ; extruder relative mode
M104 S215 ; set extruder temp
M140 S60 ; set bed temp
M190 S60 ; wait for bed temp
M109 S215 ; wait for extruder temp
G28 W ; home all without mesh bed level
G80 ; mesh bed leveling
G1 Y-3.0 F1000.0 ; go outside print area
G92 E0.0
G1 X60.0 E9.0 F1000.0 ; intro line
G1 X100.0 E12.5 F1000.0 ; intro line
G92 E0.0
M221 S95

; Don't change E values below. Excessive value can damage the printer.

M907 E538 ; set extruder motor current
G21 ; set units to millimeters
G90 ; use absolute coordinates
M83 ; use relative distances for extrusion
M900 K0.05 ; Filament gcode LA 1.5
M900 K30 ; Filament gcode LA 1.0
;LAYER_CHANGE
;Z:0.2
;HEIGHT:0.2
;BEFORE_LAYER_CHANGE
G92 E0.0
;0.2


G1 E-0.80000 F2100.000
G1 Z0.400 F10800.000
;AFTER_LAYER_CHANGE
;0.2
G1 X153.406 Y97.998
G1 Z0.200
G1 E0.80000 F2100.000
M204 S1000
;TYPE:Skirt
;WIDTH:0.42
G1 F1200.000
G1 X153.625 Y98.895 E0.02896
G1 X153.627 Y111.023 E0.38025
G1 X153.496 Y111.778 E0.02402
G1 X153.073 Y112.526 E0.02696
G1 X152.407 Y113.076 E0.02708
G1 X123.392 Y128.731 E1.03370
G1 X121.869 Y129.429 E0.05253
G1 X120.851 Y129.704 E0.03308
G1 X119.171 Y129.877 E0.05295
G1 X104.693 Y129.876 E0.45394
G1 X103.119 Y129.715 E0.04959
G1 X102.128 Y129.455 E0.03213
G1 X101.238 Y129.103 E0.03000
G1 X99.916 Y128.339 E0.04788
G1 X99.143 Y127.724 E0.03098
G1 X98.444 Y127.011 E0.03132
G1 X97.552 Y125.782 E0.04761
G1 X97.097 Y124.906 E0.03094
G1 X96.753 Y123.985 E0.03085
G1 X96.425 Y122.424 E0.05001
G1 X96.373 Y121.503 E0.02893
G1 X96.373 Y88.477 E1.03549
G1 X96.535 Y86.873 E0.05055
G1 X96.797 Y85.870 E0.03250
G1 X97.147 Y84.988 E0.02975
G1 X97.900 Y83.682 E0.04728
G1 X98.508 Y82.913 E0.03074
G1 X99.137 Y82.281 E0.02795
G1 X99.833 Y81.718 E0.02808
G1 X100.659 Y81.192 E0.03072
G1 X102.037 Y80.577 E0.04731
G1 X102.909 Y80.329 E0.02843
G1 X103.845 Y80.172 E0.02975
G1 X104.721 Y80.123 E0.02750
G1 X119.171 Y80.123 E0.45308
G1 X120.986 Y80.323 E0.05726
G1 X121.858 Y80.567 E0.02838
G1 X122.772 Y80.940 E0.03096
G1 X152.382 Y96.910 E1.05482
G1 X152.861 Y97.252 E0.01846
G1 X153.370 Y97.950 E0.02707
; printing object CU-3286-MB parts - Load Cell Mount 8mm.stl id:0 copy 0
;WIPE_START
G1 F8640.000
G1 X153.625 Y98.895 E-0.22611
G1 X153.625 Y101.207 E-0.53389
;WIPE_END
G1 E-0.04000 F2100.000
G1 Z0.600 F10800.000
G1 X149.370 Y102.660
G1 Z0.200
G1 E0.80000 F2100.000
;TYPE:External perimeter
G1 F1200.000
G1 X149.659 Y102.954 E0.01294
G1 X149.866 Y103.226 E0.01073
G1 X150.042 Y103.520 E0.01073
G1 X150.180 Y103.817 E0.01028
G1 X150.295 Y104.154 E0.01116
G1 X150.369 Y104.489 E0.01074
G1 X150.406 Y104.829 E0.01073
G1 X150.406 Y105.171 E0.01073
G1 X150.369 Y105.511 E0.01073
G1 X150.295 Y105.846 E0.01073
G1 X150.186 Y106.170 E0.01073
G1 X150.042 Y106.480 E0.01073
G1 X149.866 Y106.774 E0.01073
G1 X149.659 Y107.046 E0.01073
G1 X149.424 Y107.295 E0.01073
G1 X149.163 Y107.516 E0.01073
G1 X148.879 Y107.708 E0.01073
G1 X148.577 Y107.868 E0.01073
G1 X148.259 Y107.995 E0.01073
G1 X147.929 Y108.087 E0.01073
G1 X147.592 Y108.142 E0.01073
G1 X147.250 Y108.161 E0.01073
G1 X146.908 Y108.142 E0.01073
G1 X146.571 Y108.087 E0.01073
G1 X146.241 Y107.995 E0.01073
G1 X145.923 Y107.868 E0.01073
G1 X145.621 Y107.708 E0.01073
G1 X145.337 Y107.516 E0.01073
G1 X145.076 Y107.295 E0.01073
G1 X144.841 Y107.046 E0.01073
G1 X144.634 Y106.774 E0.01073
G1 X144.458 Y106.480 E0.01073
G1 X144.320 Y106.183 E0.01028
G1 X144.205 Y105.846 E0.01116
G1 X144.131 Y105.511 E0.01074
G1 X144.094 Y105.171 E0.01073
G1 X144.094 Y104.829 E0.01073
G1 X144.131 Y104.489 E0.01073
G1 X144.205 Y104.154 E0.01073
G1 X144.314 Y103.830 E0.01073
G1 X144.458 Y103.520 E0.01073
G1 X144.634 Y103.226 E0.01073
G1 X144.841 Y102.954 E0.01073
G1 X145.076 Y102.705 E0.01073
G1 X145.337 Y102.484 E0.01073
G1 X145.621 Y102.292 E0.01073
G1 X145.923 Y102.132 E0.01073
G1 X146.241 Y102.005 E0.01073
G1 X146.571 Y101.913 E0.01073
G1 X146.908 Y101.858 E0.01073
G1 X147.236 Y101.840 E0.01028
G1 X147.591 Y101.858 E0.01116
G1 X147.929 Y101.913 E0.01074
G1 X148.259 Y102.005 E0.01073
G1 X148.577 Y102.132 E0.01073
G1 X148.879 Y102.292 E0.01073
G1 X149.163 Y102.484 E0.01073
G1 X149.324 Y102.621 E0.00663
G1 X149.751 Y102.540 F10800.000
;WIPE_START
G1 F8640.000
G1 X149.659 Y102.954 E-0.10910
G1 X149.866 Y103.226 E-0.07902
G1 X150.042 Y103.520 E-0.07902
G1 X150.180 Y103.817 E-0.07572
G1 X150.295 Y104.154 E-0.08219
G1 X150.369 Y104.489 E-0.07913
G1 X150.406 Y104.829 E-0.07902
G1 X150.406 Y105.171 E-0.07902
G1 X150.369 Y105.511 E-0.07902
G1 X150.352 Y105.591 E-0.01876
;WIPE_END
G1 E-0.04000 F2100.000
G1 Z0.600 F10800.000
G1 X135.742 Y104.428
G1 Z0.200
G1 E0.80000 F2100.000
;TYPE:Perimeter
G1 F1200.000
G1 X135.783 Y104.808 E0.01201
G1 X135.783 Y105.192 E0.01201
G1 X135.742 Y105.572 E0.01201
G1 X135.659 Y105.947 E0.01201
G1 X135.537 Y106.310 E0.01201
G1 X135.376 Y106.657 E0.01201
G1 X135.179 Y106.986 E0.01201
G1 X134.947 Y107.291 E0.01201
G1 X134.683 Y107.569 E0.01201
G1 X134.391 Y107.817 E0.01201
G1 X134.074 Y108.032 E0.01201
G1 X133.736 Y108.211 E0.01201
G1 X133.380 Y108.353 E0.01201
G1 X133.011 Y108.456 E0.01201
G1 X132.633 Y108.517 E0.01201
G1 X132.250 Y108.538 E0.01201
G1 X131.867 Y108.517 E0.01201
G1 X131.489 Y108.456 E0.01201
G1 X131.120 Y108.353 E0.01201
G1 X130.764 Y108.211 E0.01201
G1 X130.426 Y108.032 E0.01201
G1 X130.121 Y107.825 E0.01154
G1 X129.818 Y107.570 E0.01244
G1 X129.553 Y107.291 E0.01205
G1 X129.321 Y106.986 E0.01201
G1 X129.124 Y106.657 E0.01201
G1 X128.963 Y106.310 E0.01201
G1 X128.841 Y105.947 E0.01201
G1 X128.758 Y105.572 E0.01201
G1 X128.717 Y105.192 E0.01201
G1 X128.717 Y104.808 E0.01201
G1 X128.758 Y104.428 E0.01201
G1 X128.841 Y104.053 E0.01201
G1 X128.958 Y103.705 E0.01154
G1 X129.123 Y103.344 E0.01244
G1 X129.321 Y103.014 E0.01205
G1 X129.553 Y102.709 E0.01201
G1 X129.817 Y102.431 E0.01201
G1 X130.109 Y102.183 E0.01201
G1 X130.426 Y101.968 E0.01201
G1 X130.764 Y101.789 E0.01201
G1 X131.120 Y101.647 E0.01201
G1 X131.489 Y101.544 E0.01201
G1 X131.867 Y101.483 E0.01201
G1 X132.235 Y101.463 E0.01154
G1 X132.631 Y101.482 E0.01244
G1 X133.011 Y101.544 E0.01205
G1 X133.380 Y101.647 E0.01201
G1 X133.736 Y101.789 E0.01201
G1 X134.074 Y101.968 E0.01201
G1 X134.391 Y102.183 E0.01201
G1 X134.683 Y102.431 E0.01201
G1 X134.947 Y102.709 E0.01201
G1 X135.179 Y103.014 E0.01201
G1 X135.376 Y103.343 E0.01201
G1 X135.537 Y103.690 E0.01201
G1 X135.659 Y104.053 E0.01201
G1 X135.729 Y104.369 E0.01013
G1 X135.360 Y104.450 F10800.000
;TYPE:External perimeter
G1 F1200.000
G1 X135.406 Y104.829 E0.01196
G1 X135.406 Y105.171 E0.01073
G1 X135.369 Y105.511 E0.01073
G1 X135.295 Y105.846 E0.01073
G1 X135.186 Y106.170 E0.01073
G1 X135.042 Y106.480 E0.01073
G1 X134.866 Y106.774 E0.01073
G1 X134.659 Y107.046 E0.01073
G1 X134.424 Y107.295 E0.01073
G1 X134.163 Y107.516 E0.01073
G1 X133.879 Y107.708 E0.01073
G1 X133.577 Y107.868 E0.01073
G1 X133.259 Y107.995 E0.01073
G1 X132.929 Y108.087 E0.01073
G1 X132.592 Y108.142 E0.01073
G1 X132.250 Y108.161 E0.01073
G1 X131.908 Y108.142 E0.01073
G1 X131.571 Y108.087 E0.01073
G1 X131.241 Y107.995 E0.01073
G1 X130.923 Y107.868 E0.01073
G1 X130.621 Y107.708 E0.01073
G1 X130.349 Y107.524 E0.01028
G1 X130.077 Y107.295 E0.01116
G1 X129.841 Y107.046 E0.01074
G1 X129.634 Y106.774 E0.01073
G1 X129.458 Y106.480 E0.01073
G1 X129.314 Y106.170 E0.01073
G1 X129.205 Y105.846 E0.01073
G1 X129.131 Y105.511 E0.01073
G1 X129.094 Y105.171 E0.01073
G1 X129.094 Y104.829 E0.01073
G1 X129.131 Y104.489 E0.01073
G1 X129.205 Y104.154 E0.01073
G1 X129.309 Y103.844 E0.01028
G1 X129.457 Y103.520 E0.01116
G1 X129.634 Y103.226 E0.01075
G1 X129.841 Y102.954 E0.01073
G1 X130.076 Y102.705 E0.01073
G1 X130.337 Y102.484 E0.01073
G1 X130.621 Y102.292 E0.01073
G1 X130.923 Y102.132 E0.01073
G1 X131.241 Y102.005 E0.01073
G1 X131.571 Y101.913 E0.01073
G1 X131.908 Y101.858 E0.01073
G1 X132.236 Y101.840 E0.01028
G1 X132.591 Y101.858 E0.01116
G1 X132.929 Y101.913 E0.01074
G1 X133.259 Y102.005 E0.01073
G1 X133.577 Y102.132 E0.01073
G1 X133.879 Y102.292 E0.01073
G1 X134.163 Y102.484 E0.01073
G1 X134.424 Y102.705 E0.01073
G1 X134.659 Y102.954 E0.01073
G1 X134.866 Y103.226 E0.01073
G1 X135.042 Y103.520 E0.01073
G1 X135.186 Y103.830 E0.01073
G1 X135.295 Y104.154 E0.01073
G1 X135.348 Y104.391 E0.00761
G1 X135.719 Y104.582 F10800.000
;WIPE_START
G1 F8640.000
G1 X135.406 Y104.829 E-0.10190
G1 X135.406 Y105.171 E-0.07902
G1 X135.369 Y105.511 E-0.07902
G1 X135.295 Y105.846 E-0.07902
G1 X135.186 Y106.170 E-0.07902
G1 X135.042 Y106.480 E-0.07902
G1 X134.866 Y106.774 E-0.07902
G1 X134.659 Y107.046 E-0.07902
G1 X134.424 Y107.295 E-0.07902
G1 X134.338 Y107.367 E-0.02593
;WIPE_END
G1 E-0.04000 F2100.000
G1 Z0.600 F10800.000
G1 X120.839 Y90.206
G1 Z0.200
G1 E0.80000 F2100.000
;TYPE:Perimeter
G1 F1200.000
G1 X120.589 Y90.419 E0.01031
G1 X120.329 Y90.595 E0.00983
G1 X120.027 Y90.757 E0.01075
G1 X119.720 Y90.879 E0.01036
G1 X119.403 Y90.967 E0.01031
G1 X119.078 Y91.020 E0.01031
G1 X118.750 Y91.038 E0.01031
G1 X118.422 Y91.020 E0.01031
G1 X118.097 Y90.967 E0.01031
G1 X117.780 Y90.879 E0.01031
G1 X117.474 Y90.757 E0.01031
G1 X117.184 Y90.603 E0.01031
G1 X116.924 Y90.427 E0.00983
G1 X116.662 Y90.207 E0.01075
G1 X116.434 Y89.967 E0.01036
G1 X116.235 Y89.705 E0.01031
G1 X116.066 Y89.423 E0.01031
G1 X115.934 Y89.139 E0.00983
G1 X115.823 Y88.814 E0.01075
G1 X115.752 Y88.492 E0.01036
G1 X115.716 Y88.164 E0.01031
G1 X115.716 Y87.836 E0.01031
G1 X115.752 Y87.508 E0.01031
G1 X115.823 Y87.187 E0.01031
G1 X115.928 Y86.875 E0.01031
G1 X116.066 Y86.577 E0.01031
G1 X116.235 Y86.295 E0.01031
G1 X116.434 Y86.033 E0.01031
G1 X116.661 Y85.794 E0.01031
G1 X116.911 Y85.581 E0.01031
G1 X117.184 Y85.397 E0.01031
G1 X117.474 Y85.243 E0.01031
G1 X117.780 Y85.121 E0.01031
G1 X118.097 Y85.033 E0.01031
G1 X118.422 Y84.980 E0.01031
G1 X118.735 Y84.963 E0.00983
G1 X119.077 Y84.979 E0.01075
G1 X119.403 Y85.033 E0.01036
G1 X119.720 Y85.121 E0.01031
G1 X120.026 Y85.243 E0.01031
G1 X120.316 Y85.397 E0.01031
G1 X120.589 Y85.581 E0.01031
G1 X120.839 Y85.794 E0.01031
G1 X121.066 Y86.033 E0.01031
G1 X121.265 Y86.295 E0.01031
G1 X121.434 Y86.577 E0.01031
G1 X121.572 Y86.875 E0.01031
G1 X121.677 Y87.187 E0.01031
G1 X121.748 Y87.508 E0.01031
G1 X121.784 Y87.836 E0.01031
G1 X121.784 Y88.164 E0.01031
G1 X121.748 Y88.492 E0.01031
G1 X121.677 Y88.813 E0.01031
G1 X121.572 Y89.125 E0.01031
G1 X121.434 Y89.423 E0.01031
G1 X121.265 Y89.705 E0.01031
G1 X121.066 Y89.967 E0.01031
G1 X120.881 Y90.162 E0.00843
G1 X120.607 Y89.903 F10800.000
;TYPE:External perimeter
G1 F1200.000
G1 X120.360 Y90.118 E0.01027
G1 X120.134 Y90.272 E0.00858
G1 X119.868 Y90.414 E0.00947
G1 X119.600 Y90.521 E0.00905
G1 X119.322 Y90.598 E0.00903
G1 X119.038 Y90.645 E0.00903
G1 X118.750 Y90.661 E0.00903
G1 X118.462 Y90.645 E0.00903
G1 X118.178 Y90.598 E0.00903
G1 X117.900 Y90.521 E0.00903
G1 X117.633 Y90.415 E0.00903
G1 X117.378 Y90.280 E0.00903
G1 X117.152 Y90.126 E0.00858
G1 X116.921 Y89.932 E0.00947
G1 X116.722 Y89.722 E0.00905
G1 X116.548 Y89.493 E0.00903
G1 X116.399 Y89.246 E0.00903
G1 X116.284 Y88.998 E0.00858
G1 X116.186 Y88.712 E0.00946
G1 X116.124 Y88.430 E0.00905
G1 X116.093 Y88.144 E0.00903
G1 X116.093 Y87.856 E0.00903
G1 X116.124 Y87.570 E0.00903
G1 X116.186 Y87.288 E0.00903
G1 X116.278 Y87.015 E0.00903
G1 X116.399 Y86.754 E0.00903
G1 X116.548 Y86.507 E0.00903
G1 X116.722 Y86.278 E0.00903
G1 X116.920 Y86.068 E0.00903
G1 X117.140 Y85.882 E0.00903
G1 X117.378 Y85.720 E0.00903
G1 X117.633 Y85.585 E0.00903
G1 X117.900 Y85.479 E0.00903
G1 X118.178 Y85.402 E0.00903
M73 P1 R37
G1 X118.462 Y85.355 E0.00903
G1 X118.736 Y85.340 E0.00858
G1 X119.037 Y85.355 E0.00947
M73 Q1 S38
G1 X119.322 Y85.402 E0.00905
G1 X119.600 Y85.479 E0.00903
G1 X119.867 Y85.585 E0.00903
G1 X120.122 Y85.720 E0.00903
G1 X120.360 Y85.882 E0.00903
G1 X120.580 Y86.068 E0.00903
G1 X120.778 Y86.278 E0.00903
G1 X120.952 Y86.507 E0.00903
G1 X121.101 Y86.754 E0.00903
G1 X121.222 Y87.015 E0.00903
G1 X121.314 Y87.288 E0.00903
G1 X121.376 Y87.570 E0.00903
G1 X121.407 Y87.856 E0.00903
G1 X121.407 Y88.144 E0.00903
G1 X121.376 Y88.430 E0.00903
G1 X121.314 Y88.712 E0.00903
G1 X121.222 Y88.985 E0.00903
G1 X121.101 Y89.246 E0.00903
G1 X120.952 Y89.493 E0.00903
G1 X120.648 Y89.859 E0.01492
G1 X120.692 Y90.219 F10800.000
;WIPE_START
G1 F8640.000
G1 X120.360 Y90.118 E-0.08941
G1 X120.134 Y90.272 E-0.06318
G1 X119.868 Y90.414 E-0.06971
G1 X119.600 Y90.521 E-0.06665
G1 X119.322 Y90.598 E-0.06652
G1 X119.038 Y90.645 E-0.06652
G1 X118.750 Y90.661 E-0.06652
G1 X118.462 Y90.645 E-0.06652
G1 X118.178 Y90.598 E-0.06652
G1 X117.900 Y90.521 E-0.06652
G1 X117.633 Y90.415 E-0.06652
G1 X117.612 Y90.404 E-0.00542
;WIPE_END
G1 E-0.04000 F2100.000
G1 Z0.600 F10800.000
G1 X118.528 Y92.477
G1 Z0.200
G1 E0.80000 F2100.000
;TYPE:Perimeter
G1 F1200.000
G1 X118.785 Y92.685 E0.01035
G1 X119.065 Y92.965 E0.01243
G1 X119.315 Y93.273 E0.01243
G1 X119.531 Y93.606 E0.01243
G1 X119.711 Y93.959 E0.01243
G1 X119.853 Y94.329 E0.01243
G1 X119.955 Y94.712 E0.01243
G1 X120.017 Y95.104 E0.01243
G1 X120.037 Y95.479 E0.01179
G1 X120.037 Y114.521 E0.59702
G1 X120.017 Y114.896 E0.01179
G1 X119.955 Y115.288 E0.01243
G1 X119.853 Y115.671 E0.01243
G1 X119.711 Y116.041 E0.01243
G1 X119.531 Y116.394 E0.01243
G1 X119.315 Y116.727 E0.01243
G1 X119.065 Y117.035 E0.01243
G1 X118.785 Y117.315 E0.01243
G1 X118.477 Y117.565 E0.01243
G1 X118.144 Y117.781 E0.01243
G1 X117.791 Y117.961 E0.01243
G1 X117.421 Y118.103 E0.01243
G1 X117.038 Y118.205 E0.01243
G1 X116.646 Y118.267 E0.01243
G1 X116.271 Y118.287 E0.01179
G1 X106.229 Y118.287 E0.31484
G1 X105.854 Y118.267 E0.01179
G1 X105.462 Y118.205 E0.01243
G1 X105.079 Y118.103 E0.01243
G1 X104.724 Y117.966 E0.01194
G1 X104.357 Y117.781 E0.01288
G1 X104.023 Y117.565 E0.01247
G1 X103.715 Y117.315 E0.01243
G1 X103.435 Y117.035 E0.01243
G1 X103.185 Y116.727 E0.01243
G1 X102.969 Y116.394 E0.01243
G1 X102.789 Y116.041 E0.01243
G1 X102.647 Y115.671 E0.01243
G1 X102.545 Y115.288 E0.01243
G1 X102.483 Y114.896 E0.01243
G1 X102.463 Y114.521 E0.01179
G1 X102.463 Y95.479 E0.59702
G1 X102.483 Y95.104 E0.01179
G1 X102.545 Y94.712 E0.01243
G1 X102.647 Y94.329 E0.01243
G1 X102.789 Y93.959 E0.01243
G1 X102.969 Y93.606 E0.01243
G1 X103.185 Y93.273 E0.01243
G1 X103.435 Y92.965 E0.01243
G1 X103.715 Y92.685 E0.01243
G1 X104.023 Y92.435 E0.01243
G1 X104.356 Y92.219 E0.01243
G1 X104.709 Y92.039 E0.01243
G1 X105.079 Y91.897 E0.01243
G1 X105.462 Y91.795 E0.01243
G1 X105.854 Y91.733 E0.01243
G1 X106.229 Y91.713 E0.01179
G1 X116.271 Y91.713 E0.31484
G1 X116.646 Y91.733 E0.01179
G1 X117.038 Y91.795 E0.01243
G1 X117.421 Y91.897 E0.01243
G1 X117.776 Y92.034 E0.01194
G1 X118.143 Y92.219 E0.01288
G1 X118.482 Y92.439 E0.01267
G1 X118.255 Y92.741 F10800.000
;TYPE:External perimeter
G1 F1200.000
G1 X118.532 Y92.965 E0.01119
G1 X118.785 Y93.218 E0.01119
G1 X119.009 Y93.495 E0.01119
G1 X119.204 Y93.795 E0.01119
G1 X119.366 Y94.113 E0.01119
G1 X119.494 Y94.446 E0.01119
G1 X119.586 Y94.791 E0.01119
G1 X119.642 Y95.144 E0.01119
G1 X119.660 Y95.489 E0.01086
G1 X119.660 Y114.511 E0.59640
G1 X119.642 Y114.856 E0.01086
G1 X119.586 Y115.209 E0.01119
G1 X119.494 Y115.554 E0.01119
G1 X119.366 Y115.887 E0.01119
G1 X119.204 Y116.205 E0.01119
G1 X119.009 Y116.505 E0.01119
G1 X118.785 Y116.782 E0.01119
G1 X118.532 Y117.035 E0.01119
