; generated by PrusaSlicer 2.3.0+linux-x64 on 2021-04-14 at 09:21:42 UTC

; 

; external perimeters extrusion width = 0.45mm
; perimeters extrusion width = 0.45mm
; infill extrusion width = 0.45mm
; solid infill extrusion width = 0.45mm
; top infill extrusion width = 0.40mm
; first layer extrusion width = 0.42mm

M73 P0 R8
M73 Q0 S8
M201 X1000 Y1000 Z200 E5000 ; sets maximum accelerations, mm/sec^2
M203 X200 Y200 Z12 E120 ; sets maximum feedrates, mm/sec
M204 P1250 R1250 T1250 ; sets acceleration (P, T) and retract acceleration (R), mm/sec^2
M205 X8.00 Y8.00 Z0.40 E4.50 ; sets the jerk limits, mm/sec
M205 S0 T0 ; sets the minimum extruding and travel feed rate, mm/sec
M107
;TYPE:Custom
M862.3 P "MK3" ; printer model check
M862.1 P0.4 ; nozzle diameter check
M115 U3.9.2 ; tell printer latest fw version
G90 ; use absolute coordinates
M83 ; extruder relative mode
M104 S215 ; set extruder temp
M140 S60 ; set bed temp
M190 S60 ; wait for bed temp
M109 S215 ; wait for extruder temp
G28 W ; home all without mesh bed level
G80 ; mesh bed leveling
G1 Y-3.0 F1000.0 ; go outside print area
G92 E0.0
G1 X60.0 E9.0 F1000.0 ; intro line
G1 X100.0 E12.5 F1000.0 ; intro line
G92 E0.0
M221 S95

; Don't change E values below. Excessive value can damage the printer.

M907 E538 ; set extruder motor current
G21 ; set units to millimeters
G90 ; use absolute coordinates
M83 ; use relative distances for extrusion
M900 K0.05 ; Filament gcode LA 1.5
M900 K30 ; Filament gcode LA 1.0
;LAYER_CHANGE
;Z:0.2
;HEIGHT:0.2
;BEFORE_LAYER_CHANGE
G92 E0.0
;0.2


M73 P1 R8
M73 Q1 S8
G1 E-0.80000 F2100.000
G1 Z0.400 F10800.000
;AFTER_LAYER_CHANGE
;0.2
G1 X107.101 Y97.357
G1 Z0.200
G1 E0.80000 F2100.000
M204 S1000
;TYPE:Skirt
;WIDTH:0.42
G1 F1200.000
G1 X108.231 Y96.713 E0.04078
G1 X109.311 Y96.370 E0.03553
G1 X110.458 Y96.246 E0.03618
G1 X139.504 Y96.246 E0.91071
G1 X140.591 Y96.351 E0.03424
G1 X141.409 Y96.574 E0.02658
G1 X142.401 Y97.031 E0.03426
G1 X143.338 Y97.712 E0.03631
G1 X144.085 Y98.526 E0.03464
M73 Q2 S8
G1 X144.542 Y99.230 E0.02632
G1 X144.976 Y100.233 E0.03426
G1 X145.214 Y101.325 E0.03503
G1 X145.253 Y108.070 E0.21149
M73 P2 R8
G1 X145.205 Y108.739 E0.02104
G1 X144.999 Y109.691 E0.03054
G1 X144.494 Y110.859 E0.03989
G1 X143.777 Y111.850 E0.03836
G1 X142.866 Y112.667 E0.03836
G1 X141.762 Y113.290 E0.03976
G1 X140.685 Y113.631 E0.03541
G1 X139.538 Y113.754 E0.03618
G1 X109.960 Y113.728 E0.92737
G1 X108.599 Y113.429 E0.04371
G1 X107.724 Y113.039 E0.03003
G1 X107.122 Y112.657 E0.02236
G1 X106.566 Y112.197 E0.02263
G1 X105.920 Y111.481 E0.03025
G1 X105.213 Y110.269 E0.04398
G1 X104.872 Y109.200 E0.03518
G1 X104.748 Y108.099 E0.03474
G1 X104.746 Y101.951 E0.19277
G1 X104.876 Y100.787 E0.03671
G1 X105.294 Y99.553 E0.04086
G1 X105.592 Y99.000 E0.01969
G1 X106.144 Y98.243 E0.02938
G1 X107.057 Y97.398 E0.03900
;WIPE_START
G1 F8640.000
G1 X108.231 Y96.713 E-0.31382
G1 X109.311 Y96.370 E-0.26165
G1 X110.106 Y96.284 E-0.18453
;WIPE_END
G1 E-0.04000 F2100.000
G1 Z0.600 F10800.000
G1 X106.436 Y98.481
G1 Z0.200
G1 E0.80000 F2100.000
G1 F1200.000
G1 X107.331 Y97.656 E0.03815
G1 X108.395 Y97.054 E0.03833
G1 X109.391 Y96.739 E0.03275
G1 X110.467 Y96.623 E0.03394
G1 X139.504 Y96.623 E0.91043
M73 P3 R8
M73 Q3 S8
G1 X140.526 Y96.723 E0.03219
G1 X141.279 Y96.928 E0.02448
G1 X142.209 Y97.355 E0.03211
G1 X143.090 Y97.997 E0.03418
G1 X143.789 Y98.759 E0.03239
G1 X144.210 Y99.410 E0.02432
G1 X144.617 Y100.347 E0.03203
G1 X144.841 Y101.382 E0.03323
G1 X144.876 Y108.057 E0.20928
G1 X144.833 Y108.677 E0.01947
G1 X144.642 Y109.568 E0.02858
G1 X144.167 Y110.670 E0.03762
G1 X143.495 Y111.599 E0.03596
G1 X142.641 Y112.364 E0.03596
G1 X141.598 Y112.950 E0.03750
G1 X140.606 Y113.262 E0.03263
G1 X139.529 Y113.377 E0.03394
G1 X109.997 Y113.353 E0.92595
G1 X108.733 Y113.077 E0.04058
G1 X107.901 Y112.706 E0.02858
G1 X107.339 Y112.349 E0.02086
G1 X106.828 Y111.926 E0.02080
G1 X106.214 Y111.244 E0.02877
G1 X105.554 Y110.105 E0.04128
G1 X105.241 Y109.119 E0.03244
G1 X105.124 Y108.079 E0.03282
G1 X105.123 Y101.962 E0.19179
G1 X105.241 Y100.880 E0.03413
G1 X105.632 Y99.719 E0.03841
G1 X106.404 Y98.531 E0.04441
; printing object CU-3286-MB parts - LC Standoff (1).stl id:0 copy 0
;WIPE_START
G1 F8640.000
G1 X107.331 Y97.656 E-0.29441
G1 X108.395 Y97.054 E-0.28224
G1 X109.152 Y96.814 E-0.18335
;WIPE_END
G1 E-0.04000 F2100.000
G1 Z0.600 F10800.000
M73 P3 R7
G1 X120.678 Y103.875
M73 Q4 S8
G1 Z0.200
G1 E0.80000 F2100.000
;TYPE:Perimeter
G1 F1200.000
G1 X120.816 Y103.577 E0.01031
G1 X120.985 Y103.295 E0.01031
G1 X121.184 Y103.033 E0.01031
G1 X121.411 Y102.794 E0.01031
G1 X121.661 Y102.581 E0.01031
G1 X121.934 Y102.397 E0.01031
G1 X122.224 Y102.243 E0.01031
G1 X122.530 Y102.121 E0.01031
G1 X122.847 Y102.033 E0.01031
M73 P4 R7
G1 X123.172 Y101.980 E0.01031
G1 X123.474 Y101.963 E0.00951
G1 X123.826 Y101.979 E0.01103
G1 X124.153 Y102.033 E0.01039
G1 X124.470 Y102.121 E0.01031
G1 X124.776 Y102.243 E0.01031
G1 X125.066 Y102.397 E0.01031
G1 X125.339 Y102.581 E0.01031
G1 X125.589 Y102.794 E0.01031
G1 X125.816 Y103.033 E0.01031
G1 X126.015 Y103.295 E0.01031
G1 X126.184 Y103.577 E0.01031
G1 X126.322 Y103.875 E0.01031
G1 X126.427 Y104.187 E0.01031
G1 X126.498 Y104.508 E0.01031
G1 X126.534 Y104.836 E0.01031
G1 X126.534 Y105.164 E0.01031
G1 X126.498 Y105.492 E0.01031
G1 X126.427 Y105.813 E0.01031
G1 X126.322 Y106.125 E0.01031
G1 X126.184 Y106.423 E0.01031
G1 X126.015 Y106.705 E0.01031
G1 X125.816 Y106.967 E0.01031
G1 X125.589 Y107.206 E0.01031
G1 X125.339 Y107.419 E0.01031
G1 X125.066 Y107.603 E0.01031
G1 X124.776 Y107.757 E0.01031
G1 X124.470 Y107.879 E0.01031
G1 X124.153 Y107.967 E0.01031
G1 X123.828 Y108.020 E0.01031
G1 X123.500 Y108.038 E0.01031
G1 X123.172 Y108.020 E0.01031
G1 X122.847 Y107.967 E0.01031
G1 X122.530 Y107.879 E0.01031
G1 X122.224 Y107.757 E0.01031
G1 X121.934 Y107.603 E0.01031
G1 X121.661 Y107.419 E0.01031
G1 X121.411 Y107.206 E0.01031
G1 X121.184 Y106.967 E0.01031
G1 X120.985 Y106.705 E0.01031
M73 Q4 S7
G1 X120.816 Y106.423 E0.01031
G1 X120.688 Y106.148 E0.00951
G1 X120.573 Y105.815 E0.01103
G1 X120.502 Y105.492 E0.01039
G1 X120.466 Y105.164 E0.01031
G1 X120.466 Y104.836 E0.01031
G1 X120.499 Y104.534 E0.00951
G1 X120.572 Y104.190 E0.01103
G1 X120.658 Y103.932 E0.00851
G1 X121.016 Y104.053 F10800.000
;TYPE:External perimeter
G1 F1200.000
G1 X121.149 Y103.754 E0.01027
G1 X121.298 Y103.507 E0.00903
G1 X121.472 Y103.278 E0.00903
G1 X121.670 Y103.068 E0.00903
G1 X121.890 Y102.882 E0.00903
G1 X122.128 Y102.720 E0.00903
G1 X122.383 Y102.585 E0.00903
G1 X122.650 Y102.479 E0.00903
G1 X122.928 Y102.402 E0.00903
G1 X123.212 Y102.355 E0.00903
G1 X123.476 Y102.341 E0.00828
G1 X123.787 Y102.355 E0.00975
G1 X124.072 Y102.402 E0.00906
G1 X124.350 Y102.479 E0.00903
G1 X124.617 Y102.585 E0.00903
G1 X124.872 Y102.720 E0.00903
G1 X125.110 Y102.882 E0.00903
G1 X125.330 Y103.068 E0.00903
G1 X125.528 Y103.278 E0.00903
G1 X125.702 Y103.507 E0.00903
G1 X125.851 Y103.754 E0.00903
G1 X125.972 Y104.015 E0.00903
G1 X126.064 Y104.288 E0.00903
G1 X126.126 Y104.570 E0.00903
G1 X126.157 Y104.856 E0.00903
G1 X126.157 Y105.144 E0.00903
G1 X126.126 Y105.430 E0.00903
G1 X126.064 Y105.712 E0.00903
G1 X125.972 Y105.985 E0.00903
G1 X125.851 Y106.246 E0.00903
G1 X125.702 Y106.493 E0.00903
G1 X125.528 Y106.722 E0.00903
G1 X125.330 Y106.932 E0.00903
G1 X125.110 Y107.118 E0.00903
G1 X124.872 Y107.280 E0.00903
G1 X124.617 Y107.415 E0.00903
G1 X124.350 Y107.521 E0.00903
G1 X124.072 Y107.598 E0.00903
G1 X123.788 Y107.645 E0.00903
G1 X123.500 Y107.661 E0.00903
G1 X123.212 Y107.645 E0.00903
G1 X122.928 Y107.598 E0.00903
G1 X122.650 Y107.521 E0.00903
G1 X122.383 Y107.415 E0.00903
G1 X122.128 Y107.280 E0.00903
G1 X121.890 Y107.118 E0.00903
G1 X121.670 Y106.932 E0.00903
G1 X121.472 Y106.722 E0.00903
G1 X121.298 Y106.493 E0.00903
G1 X121.149 Y106.246 E0.00903
G1 X121.038 Y106.007 E0.00828
G1 X120.937 Y105.713 E0.00975
G1 X120.874 Y105.430 E0.00906
G1 X120.843 Y105.144 E0.00903
G1 X120.843 Y104.856 E0.00903
G1 X120.872 Y104.593 E0.00828
G1 X120.936 Y104.289 E0.00975
G1 X120.997 Y104.110 E0.00594
G1 X120.810 Y103.798 F10800.000
;WIPE_START
G1 F8640.000
G1 X121.149 Y103.754 E-0.08941
G1 X121.298 Y103.507 E-0.06652
G1 X121.472 Y103.278 E-0.06652
G1 X121.670 Y103.068 E-0.06652
G1 X121.890 Y102.882 E-0.06652
G1 X122.128 Y102.720 E-0.06652
G1 X122.383 Y102.585 E-0.06652
G1 X122.650 Y102.479 E-0.06652
G1 X122.928 Y102.402 E-0.06652
G1 X123.212 Y102.355 E-0.06652
G1 X123.476 Y102.341 E-0.06099
G1 X123.523 Y102.343 E-0.01092
;WIPE_END
G1 E-0.04000 F2100.000
G1 Z0.600 F10800.000
G1 X115.172 Y104.743
G1 Z0.200
G1 E0.80000 F2100.000
;TYPE:Perimeter
G1 F1200.000
G1 X115.186 Y104.870 E0.00402
G1 X115.155 Y105.435 E0.01774
G1 X115.000 Y105.995 E0.01823
G1 X114.744 Y106.480 E0.01717
G1 X114.541 Y106.752 E0.01065
G1 X114.128 Y107.142 E0.01781
G1 X113.630 Y107.442 E0.01824
G1 X113.078 Y107.628 E0.01824
G1 X112.516 Y107.689 E0.01774
G1 X112.193 Y107.672 E0.01013
G1 X111.641 Y107.550 E0.01774
G1 X111.113 Y107.306 E0.01824
G1 X110.650 Y106.954 E0.01824
G1 X110.273 Y106.510 E0.01824
G1 X110.000 Y105.996 E0.01824
G1 X109.849 Y105.451 E0.01774
G1 X109.814 Y105.130 E0.01013
G1 X109.845 Y104.565 E0.01772
G1 X109.990 Y104.037 E0.01717
G1 X110.130 Y103.728 E0.01065
G1 X110.449 Y103.258 E0.01781
G1 X110.872 Y102.858 E0.01824
G1 X111.370 Y102.558 E0.01824
G1 X111.921 Y102.372 E0.01823
G1 X112.465 Y102.312 E0.01717
G1 X112.805 Y102.328 E0.01064
G1 X113.359 Y102.450 E0.01781
G1 X113.887 Y102.694 E0.01824
G1 X114.350 Y103.046 E0.01824
G1 X114.727 Y103.490 E0.01824
G1 X115.000 Y104.004 E0.01824
G1 X115.151 Y104.549 E0.01774
G1 X115.166 Y104.683 E0.00423
G1 X114.791 Y104.724 F10800.000
;TYPE:External perimeter
G1 F1200.000
G1 X114.808 Y104.881 E0.00493
G1 X114.781 Y105.374 E0.01549
G1 X114.647 Y105.855 E0.01567
G1 X114.425 Y106.278 E0.01497
G1 X114.258 Y106.500 E0.00871
G1 X113.899 Y106.840 E0.01552
G1 X113.471 Y107.098 E0.01567
G1 X112.997 Y107.257 E0.01567
G1 X112.506 Y107.311 E0.01549
G1 X112.244 Y107.297 E0.00820
G1 X111.762 Y107.191 E0.01549
G1 X111.308 Y106.981 E0.01567
G1 X110.910 Y106.678 E0.01567
G1 X110.587 Y106.297 E0.01567
G1 X110.353 Y105.856 E0.01567
G1 X110.220 Y105.379 E0.01549
G1 X110.192 Y105.119 E0.00820
G1 X110.219 Y104.626 E0.01549
G1 X110.346 Y104.166 E0.01497
G1 X110.461 Y103.913 E0.00871
G1 X110.738 Y103.504 E0.01552
G1 X111.101 Y103.160 E0.01567
G1 X111.529 Y102.902 E0.01567
G1 X112.003 Y102.743 E0.01567
G1 X112.477 Y102.690 E0.01497
G1 X112.755 Y102.703 E0.00871
G1 X113.238 Y102.809 E0.01552
G1 X113.692 Y103.019 E0.01567
G1 X114.090 Y103.322 E0.01567
G1 X114.413 Y103.703 E0.01567
G1 X114.647 Y104.144 E0.01567
G1 X114.784 Y104.664 E0.01686
G1 X114.940 Y104.776 F10800.000
;WIPE_START
G1 F8640.000
G1 X114.808 Y104.881 E-0.05019
G1 X114.781 Y105.374 E-0.11409
G1 X114.647 Y105.855 E-0.11537
G1 X114.425 Y106.278 E-0.11023
G1 X114.258 Y106.500 E-0.06413
G1 X113.899 Y106.840 E-0.11426
G1 X113.471 Y107.098 E-0.11542
G1 X113.157 Y107.203 E-0.07631
;WIPE_END
G1 E-0.04000 F2100.000
G1 Z0.600 F10800.000
G1 X135.466 Y104.836
G1 Z0.200
M73 Q5 S7
G1 E0.80000 F2100.000
;TYPE:Perimeter
G1 F1200.000
G1 X135.499 Y104.534 E0.00951
G1 X135.572 Y104.190 E0.01103
G1 X135.678 Y103.875 E0.01039
G1 X135.816 Y103.577 E0.01031
G1 X135.985 Y103.295 E0.01031
G1 X136.184 Y103.033 E0.01031
G1 X136.411 Y102.794 E0.01031
G1 X136.661 Y102.581 E0.01031
G1 X136.934 Y102.397 E0.01031
G1 X137.224 Y102.243 E0.01031
G1 X137.530 Y102.121 E0.01031
G1 X137.847 Y102.033 E0.01031
G1 X138.172 Y101.980 E0.01031
G1 X138.474 Y101.963 E0.00951
G1 X138.826 Y101.979 E0.01103
G1 X139.153 Y102.033 E0.01039
G1 X139.470 Y102.121 E0.01031
G1 X139.776 Y102.243 E0.01031
M73 P5 R7
G1 X140.066 Y102.397 E0.01031
G1 X140.339 Y102.581 E0.01031
G1 X140.589 Y102.794 E0.01031
G1 X140.816 Y103.033 E0.01031
G1 X141.015 Y103.295 E0.01031
G1 X141.184 Y103.577 E0.01031
G1 X141.322 Y103.875 E0.01031
G1 X141.427 Y104.187 E0.01031
G1 X141.498 Y104.508 E0.01031
G1 X141.534 Y104.836 E0.01031
G1 X141.534 Y105.164 E0.01031
G1 X141.498 Y105.492 E0.01031
G1 X141.427 Y105.813 E0.01031
G1 X141.322 Y106.125 E0.01031
G1 X141.184 Y106.423 E0.01031
G1 X141.015 Y106.705 E0.01031
G1 X140.816 Y106.967 E0.01031
G1 X140.589 Y107.206 E0.01031
G1 X140.339 Y107.419 E0.01031
G1 X140.066 Y107.603 E0.01031
G1 X139.776 Y107.757 E0.01031
G1 X139.470 Y107.879 E0.01031
G1 X139.153 Y107.967 E0.01031
G1 X138.828 Y108.020 E0.01031
G1 X138.500 Y108.038 E0.01031
G1 X138.172 Y108.020 E0.01031
G1 X137.847 Y107.967 E0.01031
G1 X137.530 Y107.879 E0.01031
G1 X137.224 Y107.757 E0.01031
G1 X136.934 Y107.603 E0.01031
G1 X136.661 Y107.419 E0.01031
G1 X136.411 Y107.206 E0.01031
G1 X136.184 Y106.967 E0.01031
G1 X135.985 Y106.705 E0.01031
G1 X135.816 Y106.423 E0.01031
G1 X135.678 Y106.125 E0.01031
G1 X135.573 Y105.813 E0.01031
G1 X135.502 Y105.492 E0.01031
G1 X135.466 Y105.164 E0.01031
G1 X135.466 Y104.896 E0.00843
G1 X135.843 Y104.896 F10800.000
;TYPE:External perimeter
G1 F1200.000
G1 X135.872 Y104.593 E0.00952
G1 X135.936 Y104.289 E0.00975
G1 X136.028 Y104.015 E0.00906
G1 X136.149 Y103.754 E0.00903
G1 X136.298 Y103.507 E0.00903
G1 X136.472 Y103.278 E0.00903
G1 X136.670 Y103.068 E0.00903
G1 X136.890 Y102.882 E0.00903
G1 X137.128 Y102.720 E0.00903
G1 X137.383 Y102.585 E0.00903
G1 X137.650 Y102.479 E0.00903
G1 X137.928 Y102.402 E0.00903
G1 X138.212 Y102.355 E0.00903
G1 X138.476 Y102.341 E0.00828
G1 X138.787 Y102.355 E0.00975
G1 X139.072 Y102.402 E0.00906
G1 X139.350 Y102.479 E0.00903
G1 X139.617 Y102.585 E0.00903
G1 X139.872 Y102.720 E0.00903
G1 X140.110 Y102.882 E0.00903
G1 X140.330 Y103.068 E0.00903
G1 X140.528 Y103.278 E0.00903
G1 X140.702 Y103.507 E0.00903
G1 X140.851 Y103.754 E0.00903
G1 X140.972 Y104.015 E0.00903
G1 X141.064 Y104.288 E0.00903
G1 X141.126 Y104.570 E0.00903
G1 X141.157 Y104.856 E0.00903
G1 X141.157 Y105.144 E0.00903
G1 X141.126 Y105.430 E0.00903
G1 X141.064 Y105.712 E0.00903
G1 X140.972 Y105.985 E0.00903
G1 X140.851 Y106.246 E0.00903
G1 X140.702 Y106.493 E0.00903
G1 X140.528 Y106.722 E0.00903
G1 X140.330 Y106.932 E0.00903
G1 X140.110 Y107.118 E0.00903
G1 X139.872 Y107.280 E0.00903
G1 X139.617 Y107.415 E0.00903
G1 X139.350 Y107.521 E0.00903
G1 X139.072 Y107.598 E0.00903
G1 X138.788 Y107.645 E0.00903
G1 X138.500 Y107.661 E0.00903
G1 X138.212 Y107.645 E0.00903
G1 X137.928 Y107.598 E0.00903
G1 X137.650 Y107.521 E0.00903
G1 X137.383 Y107.415 E0.00903
G1 X137.128 Y107.280 E0.00903
G1 X136.890 Y107.118 E0.00903
G1 X136.670 Y106.932 E0.00903
G1 X136.472 Y106.722 E0.00903
G1 X136.298 Y106.493 E0.00903
G1 X136.149 Y106.246 E0.00903
G1 X136.028 Y105.985 E0.00903
G1 X135.936 Y105.712 E0.00903
G1 X135.874 Y105.430 E0.00903
G1 X135.843 Y104.956 E0.01492
G1 X135.584 Y104.737 F10800.000
;WIPE_START
G1 F8640.000
G1 X135.872 Y104.593 E-0.08388
G1 X135.936 Y104.289 E-0.07181
G1 X136.028 Y104.015 E-0.06673
G1 X136.149 Y103.754 E-0.06652
G1 X136.298 Y103.507 E-0.06652
G1 X136.472 Y103.278 E-0.06652
G1 X136.670 Y103.068 E-0.06652
G1 X136.890 Y102.882 E-0.06652
G1 X137.128 Y102.720 E-0.06652
G1 X137.383 Y102.585 E-0.06652
G1 X137.650 Y102.479 E-0.06652
G1 X137.673 Y102.472 E-0.00542
;WIPE_END
G1 E-0.04000 F2100.000
G1 Z0.600 F10800.000
G1 X135.843 Y99.787
G1 Z0.200
G1 E0.80000 F2100.000
;TYPE:Perimeter
G1 F1200.000
G1 X139.479 Y99.787 E0.11401
G1 X139.960 Y99.837 E0.01516
G1 X140.400 Y99.979 E0.01448
G1 X140.606 Y100.084 E0.00726
G1 X140.980 Y100.356 E0.01450
G1 X141.289 Y100.700 E0.01450
G1 X141.521 Y101.100 E0.01450
G1 X141.664 Y101.540 E0.01450
G1 X141.700 Y101.769 E0.00726
G1 X141.713 Y102.021 E0.00791
G1 X141.713 Y107.979 E0.18683
G1 X141.700 Y108.231 E0.00791
G1 X141.604 Y108.683 E0.01450
G1 X141.416 Y109.106 E0.01450
G1 X141.289 Y109.300 E0.00726
G1 X140.980 Y109.644 E0.01450
G1 X140.606 Y109.916 E0.01450
G1 X140.400 Y110.021 E0.00726
G1 X139.960 Y110.164 E0.01450
G1 X139.731 Y110.200 E0.00726
G1 X139.479 Y110.213 E0.00791
G1 X110.521 Y110.213 E0.90798
G1 X110.269 Y110.200 E0.00791
G1 X109.817 Y110.104 E0.01450
G1 X109.600 Y110.021 E0.00726
G1 X109.200 Y109.789 E0.01450
G1 X109.020 Y109.644 E0.00726
G1 X108.711 Y109.300 E0.01450
