; generated by PrusaSlicer 2.3.0+linux-x64 on 2021-04-09 at 08:17:52 UTC

; 

; external perimeters extrusion width = 0.45mm
; perimeters extrusion width = 0.45mm
; infill extrusion width = 0.45mm
; solid infill extrusion width = 0.45mm
; top infill extrusion width = 0.40mm
; first layer extrusion width = 0.42mm

M73 P0 R186
M73 Q0 S188
M201 X1000 Y1000 Z200 E5000 ; sets maximum accelerations, mm/sec^2
M203 X200 Y200 Z12 E120 ; sets maximum feedrates, mm/sec
M204 P1250 R1250 T1250 ; sets acceleration (P, T) and retract acceleration (R), mm/sec^2
M205 X8.00 Y8.00 Z0.40 E4.50 ; sets the jerk limits, mm/sec
M205 S0 T0 ; sets the minimum extruding and travel feed rate, mm/sec
M107
;TYPE:Custom
M862.3 P "MK3" ; printer model check
M862.1 P0.4 ; nozzle diameter check
M115 U3.9.2 ; tell printer latest fw version
G90 ; use absolute coordinates
M83 ; extruder relative mode
M104 S215 ; set extruder temp
M140 S60 ; set bed temp
M190 S60 ; wait for bed temp
M109 S215 ; wait for extruder temp
G28 W ; home all without mesh bed level
G80 ; mesh bed leveling
G1 Y-3.0 F1000.0 ; go outside print area
G92 E0.0
G1 X60.0 E9.0 F1000.0 ; intro line
G1 X100.0 E12.5 F1000.0 ; intro line
G92 E0.0
M221 S95

; Don't change E values below. Excessive value can damage the printer.

M907 E538 ; set extruder motor current
G21 ; set units to millimeters
G90 ; use absolute coordinates
M83 ; use relative distances for extrusion
M900 K0.05 ; Filament gcode LA 1.5
M900 K30 ; Filament gcode LA 1.0
;LAYER_CHANGE
;Z:0.2
;HEIGHT:0.2
;BEFORE_LAYER_CHANGE
G92 E0.0
;0.2


G1 E-0.80000 F2100.000
G1 Z0.400 F10800.000
;AFTER_LAYER_CHANGE
;0.2
G1 X73.911 Y87.902
G1 Z0.200
G1 E0.80000 F2100.000
M204 S1000
;TYPE:Skirt
;WIDTH:0.42
G1 F1200.000
G1 X73.868 Y87.217 E0.02154
G1 X74.024 Y86.544 E0.02166
G1 X74.367 Y85.944 E0.02166
G1 X74.868 Y85.468 E0.02166
G1 X84.628 Y79.823 E0.35352
G1 X85.180 Y79.607 E0.01858
G1 X85.768 Y79.534 E0.01858
G1 X170.278 Y80.409 E2.64991
G1 X170.906 Y80.502 E0.01989
G1 X171.483 Y80.756 E0.01977
G1 X172.595 Y81.792 E0.04766
G1 X172.869 Y82.216 E0.01585
G1 X173.047 Y82.690 E0.01585
G1 X178.323 Y107.177 E0.78539
G1 X178.323 Y119.747 E0.39413
G1 X178.268 Y120.246 E0.01574
G1 X178.115 Y120.708 E0.01526
G1 X172.777 Y132.471 E0.40502
G1 X172.467 Y132.875 E0.01597
G1 X171.650 Y133.654 E0.03541
G1 X171.131 Y133.942 E0.01858
G1 X170.558 Y134.092 E0.01858
G1 X160.636 Y134.081 E0.31110
G1 X96.142 Y124.838 E2.04283
G1 X95.252 Y124.517 E0.02966
G1 X94.791 Y124.151 E0.01846
G1 X94.433 Y123.683 E0.01846
G1 X74.174 Y88.593 E1.27041
M73 P0 R185
G1 X73.932 Y87.958 E0.02131
; printing object Panda_OAK-D - Panda_OAK-D_Camera_Mount (1).stl id:0 copy 0
;WIPE_START
G1 F8640.000
G1 X73.868 Y87.217 E-0.17191
G1 X74.024 Y86.544 E-0.15950
G1 X74.367 Y85.944 E-0.15950
G1 X74.868 Y85.468 E-0.15950
G1 X75.279 Y85.231 E-0.10957
;WIPE_END
G1 E-0.04000 F2100.000
G1 Z0.600 F10800.000
G1 X77.858 Y87.846
G1 Z0.200
G1 E0.80000 F2100.000
;TYPE:Perimeter
G1 F1200.000
G1 X85.329 Y83.533 E0.27046
G1 X105.328 Y118.173 E1.25414
G1 X97.178 Y121.308 E0.27380
G1 X77.888 Y87.898 E1.20960
;WIPE_START
M73 Q0 S187
G1 F8640.000
G1 X80.727 Y86.233 E-0.76000
;WIPE_END
G1 E-0.04000 F2100.000
G1 Z0.600 F10800.000
G1 X105.996 Y117.917
G1 Z0.200
G1 E0.80000 F2100.000
G1 F1200.000
G1 X156.301 Y83.973 E1.90278
G1 X169.559 Y83.973 E0.41569
G1 X169.559 Y107.923 E0.75094
G1 X174.759 Y107.923 E0.16304
G1 X174.759 Y119.048 E0.34884
G1 X169.559 Y119.048 E0.16304
G1 X169.559 Y130.548 E0.36057
G1 X161.154 Y130.543 E0.26353
G1 X161.145 Y106.195 E0.76339
G1 X161.160 Y105.975 E0.00693
G1 X161.081 Y105.139 E0.02632
G1 X160.922 Y104.339 E0.02559
G1 X160.681 Y103.559 E0.02559
G1 X160.361 Y102.808 E0.02559
G1 X159.965 Y102.095 E0.02559
G1 X159.498 Y101.425 E0.02559
G1 X158.964 Y100.808 E0.02559
G1 X158.370 Y100.248 E0.02559
G1 X157.722 Y99.753 E0.02559
G1 X157.027 Y99.328 E0.02552
G1 X156.546 Y99.095 E0.01677
G1 X156.066 Y98.906 E0.01617
G1 X140.968 Y104.610 E0.50605
G1 X119.146 Y112.892 E0.73181
G1 X106.052 Y117.895 E0.43953
G1 X105.533 Y117.774 F10800.000
;TYPE:External perimeter
G1 F1200.000
G1 X156.186 Y83.596 E1.91592
G1 X169.936 Y83.596 E0.43113
G1 X169.936 Y107.546 E0.75094
G1 X175.136 Y107.546 E0.16304
G1 X175.136 Y119.426 E0.37249
G1 X169.936 Y119.426 E0.16304
G1 X169.936 Y130.926 E0.36057
G1 X161.257 Y130.926 E0.27213
G1 X160.777 Y130.890 E0.01508
G1 X160.768 Y106.183 E0.77468
G1 X160.782 Y105.980 E0.00638
G1 X160.708 Y105.194 E0.02475
G1 X160.556 Y104.432 E0.02437
G1 X160.326 Y103.689 E0.02437
G1 X160.021 Y102.974 E0.02437
G1 X159.645 Y102.294 E0.02437
G1 X159.200 Y101.657 E0.02437
G1 X158.692 Y101.069 E0.02437
G1 X158.126 Y100.536 E0.02437
G1 X157.508 Y100.064 E0.02437
G1 X156.846 Y99.659 E0.02433
G1 X156.395 Y99.440 E0.01573
G1 X156.063 Y99.310 E0.01116
G1 X141.101 Y104.963 E0.50149
G1 X119.281 Y113.244 E0.73179
G1 X106.209 Y118.239 E0.43876
G1 X97.012 Y121.776 E0.30894
G1 X77.343 Y87.708 E1.23341
G1 X85.467 Y83.018 E0.29410
G1 X105.503 Y117.722 E1.25645
G1 X105.774 Y118.093 F10800.000
;WIPE_START
G1 F8640.000
G1 X108.233 Y115.884 E-0.76000
;WIPE_END
G1 E-0.04000 F2100.000
G1 Z0.600 F10800.000
G1 X107.637 Y117.064
G1 Z0.200
G1 E0.80000 F2100.000
;TYPE:Gap fill
;WIDTH:0.143215
G1 F1200.000
G1 X107.862 Y116.947 E0.00212
;WIDTH:0.193108
G1 X108.087 Y116.830 E0.00317
;WIDTH:0.243001
G1 X108.312 Y116.713 E0.00422
;WIDTH:0.292895
G1 X108.537 Y116.596 E0.00527
;WIDTH:0.342788
G1 X108.763 Y116.479 E0.00633
;WIPE_START
G1 F8640.000
G1 X108.537 Y116.596 E-0.05859
;WIPE_END
G1 E-0.74141 F2100.000
G1 Z0.600 F10800.000
G1 X84.801 Y83.969
G1 Z0.200
G1 E0.80000 F2100.000
;TYPE:Solid infill
;WIDTH:0.420107
G1 F1200.000
G1 X85.872 Y85.040 E0.04753
G1 X86.601 Y86.302 E0.04571
G1 X84.587 Y84.288 E0.08934
G1 X84.249 Y84.483 E0.01225
G1 X87.329 Y87.564 E0.13665
G1 X88.058 Y88.826 E0.04571
G1 X83.910 Y84.679 E0.18397
G1 X83.572 Y84.874 E0.01225
G1 X88.787 Y90.088 E0.23129
G1 X89.515 Y91.351 E0.04571
G1 X83.234 Y85.069 E0.27861
G1 X82.896 Y85.264 E0.01225
G1 X90.244 Y92.613 E0.32593
G1 X90.973 Y93.875 E0.04571
G1 X82.558 Y85.460 E0.37325
G1 X82.219 Y85.655 E0.01225
G1 X91.701 Y95.137 E0.42057
G1 X92.430 Y96.399 E0.04571
G1 X81.881 Y85.850 E0.46789
G1 X81.543 Y86.045 E0.01225
G1 X93.159 Y97.661 E0.51521
G1 X93.888 Y98.923 E0.04571
G1 X81.205 Y86.240 E0.56253
G1 X80.867 Y86.436 E0.01225
G1 X94.616 Y100.185 E0.60985
G1 X95.345 Y101.447 E0.04571
G1 X80.529 Y86.631 E0.65717
G1 X80.190 Y86.826 E0.01225
G1 X96.074 Y102.709 E0.70448
G1 X96.802 Y103.971 E0.04571
G1 X79.852 Y87.021 E0.75180
G1 X79.514 Y87.217 E0.01225
G1 X97.531 Y105.234 E0.79912
G1 X98.260 Y106.496 E0.04571
G1 X79.176 Y87.412 E0.84644
G1 X78.838 Y87.607 E0.01225
G1 X98.988 Y107.758 E0.89376
G1 X99.717 Y109.020 E0.04571
G1 X78.500 Y87.802 E0.94108
G1 X78.245 Y87.950 E0.00923
G1 X78.424 Y88.261 E0.01127
G1 X100.446 Y110.282 E0.97673
G1 X101.174 Y111.544 E0.04571
G1 X79.153 Y89.523 E0.97673
G1 X79.882 Y90.785 E0.04571
G1 X101.903 Y112.806 E0.97673
G1 X102.632 Y114.068 E0.04571
G1 X80.610 Y92.047 E0.97673
G1 X81.339 Y93.309 E0.04571
G1 X103.360 Y115.330 E0.97673
M73 P0 R184
G1 X104.089 Y116.592 E0.04571
G1 X82.068 Y94.571 E0.97673
G1 X82.796 Y95.833 E0.04571
G1 X104.818 Y117.854 E0.97673
G1 X104.918 Y118.028 E0.00629
G1 X104.586 Y118.156 E0.01116
G1 X83.525 Y97.095 E0.93412
M73 Q0 S186
G1 X84.254 Y98.358 E0.04571
G1 X104.200 Y118.304 E0.88471
G1 X103.815 Y118.452 E0.01295
G1 X84.982 Y99.620 E0.83531
G1 X85.711 Y100.882 E0.04571
G1 X103.430 Y118.600 E0.78590
G1 X103.045 Y118.749 E0.01295
G1 X86.440 Y102.144 E0.73649
G1 X87.168 Y103.406 E0.04571
G1 X102.659 Y118.897 E0.68708
G1 X102.274 Y119.045 E0.01295
G1 X87.897 Y104.668 E0.63768
G1 X88.626 Y105.930 E0.04571
G1 X101.889 Y119.193 E0.58827
G1 X101.504 Y119.341 E0.01295
G1 X89.355 Y107.192 E0.53886
G1 X90.083 Y108.454 E0.04571
G1 X101.118 Y119.489 E0.48945
G1 X100.733 Y119.638 E0.01295
G1 X90.812 Y109.716 E0.44005
G1 X91.541 Y110.979 E0.04571
G1 X100.348 Y119.786 E0.39064
G1 X99.963 Y119.934 E0.01295
G1 X92.269 Y112.241 E0.34123
G1 X92.998 Y113.503 E0.04571
G1 X99.577 Y120.082 E0.29183
G1 X99.192 Y120.230 E0.01295
G1 X93.727 Y114.765 E0.24242
G1 X94.455 Y116.027 E0.04571
G1 X98.807 Y120.378 E0.19301
G1 X98.421 Y120.527 E0.01295
G1 X95.184 Y117.289 E0.14360
G1 X95.913 Y118.551 E0.04571
G1 X98.036 Y120.675 E0.09420
G1 X97.651 Y120.823 E0.01295
G1 X96.178 Y119.350 E0.06535
;WIPE_START
G1 F8640.000
G1 X97.651 Y120.823 E-0.48113
G1 X98.036 Y120.675 E-0.09531
G1 X97.474 Y120.113 E-0.18356
;WIPE_END
G1 E-0.04000 F2100.000
G1 Z0.600 F10800.000
G1 X173.903 Y108.036
G1 Z0.200
G1 E0.80000 F2100.000
;WIDTH:0.421277
G1 F1200.000
G1 X174.476 Y108.609 E0.02549
G1 X174.476 Y109.144 E0.01683
G1 X173.538 Y108.205 E0.04175
G1 X173.003 Y108.205 E0.01683
G1 X174.476 Y109.679 E0.06556
G1 X174.476 Y110.214 E0.01683
G1 X172.468 Y108.205 E0.08936
G1 X171.933 Y108.205 E0.01683
G1 X174.476 Y110.749 E0.11317
G1 X174.476 Y111.284 E0.01683
G1 X171.398 Y108.205 E0.13698
G1 X170.862 Y108.205 E0.01683
G1 X174.476 Y111.819 E0.16078
G1 X174.476 Y112.354 E0.01683
G1 X170.158 Y108.036 E0.19214
;WIPE_START
G1 F8640.000
G1 X172.485 Y110.363 E-0.76000
;WIPE_END
G1 E-0.04000 F2100.000
G1 Z0.600 F10800.000
G1 X169.446 Y84.851
G1 Z0.200
G1 E0.80000 F2100.000
G1 F1200.000
G1 X168.851 Y84.255 E0.02649
G1 X168.316 Y84.255 E0.01683
G1 X169.276 Y85.216 E0.04274
G1 X169.276 Y85.751 E0.01683
G1 X167.781 Y84.255 E0.06655
G1 X167.245 Y84.255 E0.01683
G1 X169.276 Y86.286 E0.09036
G1 X169.276 Y86.821 E0.01683
G1 X166.710 Y84.255 E0.11416
G1 X166.175 Y84.255 E0.01683
G1 X169.276 Y87.356 E0.13797
G1 X169.276 Y87.892 E0.01683
G1 X165.640 Y84.255 E0.16178
G1 X165.105 Y84.255 E0.01683
G1 X169.276 Y88.427 E0.18558
G1 X169.276 Y88.962 E0.01683
G1 X164.570 Y84.255 E0.20939
G1 X164.035 Y84.255 E0.01683
G1 X169.276 Y89.497 E0.23320
G1 X169.276 Y90.032 E0.01683
G1 X163.500 Y84.255 E0.25700
G1 X162.965 Y84.255 E0.01683
G1 X169.276 Y90.567 E0.28081
G1 X169.276 Y91.102 E0.01683
G1 X162.430 Y84.255 E0.30462
G1 X161.895 Y84.255 E0.01683
G1 X169.276 Y91.637 E0.32842
G1 X169.276 Y92.172 E0.01683
G1 X161.360 Y84.255 E0.35223
G1 X160.825 Y84.255 E0.01683
G1 X169.276 Y92.707 E0.37604
G1 X169.276 Y93.242 E0.01683
G1 X160.289 Y84.255 E0.39984
G1 X159.754 Y84.255 E0.01683
G1 X169.276 Y93.777 E0.42365
G1 X169.276 Y94.312 E0.01683
G1 X159.219 Y84.255 E0.44746
G1 X158.684 Y84.255 E0.01683
G1 X169.276 Y94.848 E0.47126
M73 P1 R184
G1 X169.276 Y95.383 E0.01683
G1 X158.149 Y84.255 E0.49507
M73 Q1 S186
G1 X157.614 Y84.255 E0.01683
G1 X169.276 Y95.918 E0.51887
G1 X169.276 Y96.453 E0.01683
G1 X157.079 Y84.255 E0.54268
G1 X156.544 Y84.255 E0.01683
G1 X169.276 Y96.988 E0.56649
G1 X169.276 Y97.523 E0.01683
G1 X156.161 Y84.408 E0.58350
G1 X155.842 Y84.624 E0.01213
G1 X169.276 Y98.058 E0.59772
G1 X169.276 Y98.593 E0.01683
G1 X155.522 Y84.839 E0.61193
G1 X155.203 Y85.055 E0.01213
G1 X169.276 Y99.128 E0.62615
G1 X169.276 Y99.663 E0.01683
G1 X154.883 Y85.270 E0.64036
G1 X154.564 Y85.486 E0.01213
G1 X169.276 Y100.198 E0.65458
G1 X169.276 Y100.733 E0.01683
G1 X154.244 Y85.702 E0.66879
G1 X153.925 Y85.917 E0.01213
G1 X169.276 Y101.268 E0.68301
G1 X169.276 Y101.804 E0.01683
G1 X153.605 Y86.133 E0.69722
G1 X153.286 Y86.348 E0.01213
G1 X169.276 Y102.339 E0.71144
G1 X169.276 Y102.874 E0.01683
G1 X152.966 Y86.564 E0.72565
G1 X152.647 Y86.779 E0.01213
G1 X169.276 Y103.409 E0.73987
G1 X169.276 Y103.944 E0.01683
G1 X152.328 Y86.995 E0.75408
G1 X152.008 Y87.211 E0.01213
G1 X169.276 Y104.479 E0.76830
G1 X169.276 Y105.014 E0.01683
G1 X151.689 Y87.426 E0.78251
G1 X151.369 Y87.642 E0.01213
G1 X169.276 Y105.549 E0.79673
G1 X169.276 Y106.084 E0.01683
G1 X151.050 Y87.857 E0.81094
G1 X150.730 Y88.073 E0.01213
G1 X169.276 Y106.619 E0.82516
G1 X169.276 Y107.154 E0.01683
G1 X150.411 Y88.289 E0.83937
G1 X150.091 Y88.504 E0.01213
G1 X169.276 Y107.689 E0.85359
G1 X169.276 Y108.205 E0.01624
G1 X169.792 Y108.205 E0.01624
G1 X174.476 Y112.889 E0.20840
G1 X174.476 Y113.424 E0.01683
G1 X149.772 Y88.720 E1.09916
M73 P1 R183
G1 X149.452 Y88.935 E0.01213
G1 X174.476 Y113.960 E1.11338
G1 X174.476 Y114.495 E0.01683
G1 X149.133 Y89.151 E1.12759
M73 Q1 S185
G1 X148.813 Y89.366 E0.01213
G1 X174.476 Y115.030 E1.14181
G1 X174.476 Y115.565 E0.01683
G1 X148.494 Y89.582 E1.15602
G1 X148.174 Y89.798 E0.01213
G1 X174.476 Y116.100 E1.17024
G1 X174.476 Y116.635 E0.01683
G1 X160.682 Y102.840 E0.61375
G1 X160.947 Y103.462 E0.02125
G1 X161.027 Y103.720 E0.00852
G1 X174.476 Y117.170 E0.59840
G1 X174.476 Y117.705 E0.01683
G1 X161.235 Y104.464 E0.58912
G1 X161.364 Y105.128 E0.02129
G1 X174.476 Y118.240 E0.58337
G1 X174.467 Y118.766 E0.01654
G1 X161.420 Y105.719 E0.58047
G1 X161.444 Y105.971 E0.00798
G1 X161.428 Y106.262 E0.00915
G1 X173.932 Y118.766 E0.55632
G1 X173.397 Y118.766 E0.01683
G1 X161.428 Y106.797 E0.53251
G1 X161.428 Y107.332 E0.01684
G1 X172.862 Y118.766 E0.50869
G1 X172.326 Y118.766 E0.01683
G1 X161.428 Y107.868 E0.48488
G1 X161.429 Y108.403 E0.01684
G1 X171.791 Y118.766 E0.46106
G1 X171.256 Y118.766 E0.01683
G1 X161.429 Y108.938 E0.43725
G1 X161.429 Y109.473 E0.01684
G1 X170.721 Y118.766 E0.41343
G1 X170.186 Y118.766 E0.01683
G1 X161.429 Y110.009 E0.38961
G1 X161.429 Y110.544 E0.01684
G1 X169.651 Y118.766 E0.36580
G1 X169.276 Y118.766 E0.01179
G1 X169.276 Y118.926 E0.00504
G1 X161.430 Y111.079 E0.34911
G1 X161.430 Y111.615 E0.01684
G1 X169.276 Y119.461 E0.34911
G1 X169.276 Y119.996 E0.01683
G1 X161.430 Y112.150 E0.34910
G1 X161.430 Y112.685 E0.01684
G1 X169.276 Y120.531 E0.34909
G1 X169.276 Y121.066 E0.01683
G1 X161.430 Y113.220 E0.34908
G1 X161.431 Y113.756 E0.01684
G1 X169.276 Y121.601 E0.34907
G1 X169.276 Y122.136 E0.01683
G1 X161.431 Y114.291 E0.34906
G1 X161.431 Y114.826 E0.01684
G1 X169.276 Y122.672 E0.34905
G1 X169.276 Y123.207 E0.01683
G1 X161.431 Y115.362 E0.34904
G1 X161.431 Y115.897 E0.01684
G1 X169.276 Y123.742 E0.34903
G1 X169.276 Y124.277 E0.01683
G1 X161.432 Y116.432 E0.34902
G1 X161.432 Y116.967 E0.01684
G1 X169.276 Y124.812 E0.34901
G1 X169.276 Y125.347 E0.01683
G1 X161.432 Y117.503 E0.34901
G1 X161.432 Y118.038 E0.01684
G1 X169.276 Y125.882 E0.34900
G1 X169.276 Y126.417 E0.01683
G1 X161.432 Y118.573 E0.34899
G1 X161.433 Y119.109 E0.01684
G1 X169.276 Y126.952 E0.34898
G1 X169.276 Y127.487 E0.01683
G1 X161.433 Y119.644 E0.34897
G1 X161.433 Y120.179 E0.01684
G1 X169.276 Y128.022 E0.34896
G1 X169.276 Y128.557 E0.01683
G1 X161.433 Y120.714 E0.34895
G1 X161.433 Y121.250 E0.01684
G1 X169.276 Y129.092 E0.34894
G1 X169.276 Y129.628 E0.01683
G1 X161.434 Y121.785 E0.34893
G1 X161.434 Y122.320 E0.01684
G1 X169.276 Y130.163 E0.34892
G1 X169.276 Y130.266 E0.00324
G1 X168.844 Y130.265 E0.01361
G1 X161.434 Y122.856 E0.32967
G1 X161.434 Y123.391 E0.01684
G1 X168.308 Y130.265 E0.30584
G1 X167.773 Y130.264 E0.01685
G1 X161.435 Y123.926 E0.28201
G1 X161.435 Y124.461 E0.01684
G1 X167.237 Y130.264 E0.25817
G1 X166.702 Y130.264 E0.01685
G1 X161.435 Y124.997 E0.23434
G1 X161.435 Y125.532 E0.01684
G1 X166.167 Y130.263 E0.21051
G1 X165.631 Y130.263 E0.01685
G1 X161.435 Y126.067 E0.18668
G1 X161.436 Y126.603 E0.01684
G1 X165.096 Y130.263 E0.16284
G1 X164.560 Y130.262 E0.01685
G1 X161.436 Y127.138 E0.13901
G1 X161.436 Y127.673 E0.01684
G1 X164.025 Y130.262 E0.11518
G1 X163.489 Y130.261 E0.01685
G1 X161.436 Y128.208 E0.09135
G1 X161.436 Y128.744 E0.01684
G1 X162.954 Y130.261 E0.06751
G1 X162.418 Y130.261 E0.01685
G1 X161.437 Y129.279 E0.04368
G1 X161.437 Y129.814 E0.01684
G1 X162.053 Y130.430 E0.02740
;WIPE_START
G1 F8640.000
G1 X161.437 Y129.814 E-0.20112
G1 X161.437 Y129.279 E-0.12360
G1 X162.418 Y130.261 E-0.32059
G1 X162.915 Y130.261 E-0.11469
;WIPE_END
G1 E-0.04000 F2100.000
G1 Z0.600 F10800.000
G1 X157.059 Y99.218
G1 Z0.200
G1 E0.80000 F2100.000
G1 F1200.000
G1 X147.855 Y90.013 E0.40953
G1 X147.535 Y90.229 E0.01213
G1 X155.953 Y98.647 E0.37452
G1 X155.565 Y98.793 E0.01306
G1 X147.216 Y90.444 E0.37146
G1 X146.896 Y90.660 E0.01213
G1 X155.176 Y98.940 E0.36840
G1 X154.788 Y99.087 E0.01306
G1 X146.577 Y90.876 E0.36533
G1 X146.257 Y91.091 E0.01213
G1 X154.399 Y99.233 E0.36227
G1 X154.011 Y99.380 E0.01306
G1 X145.938 Y91.307 E0.35920
