; generated by PrusaSlicer 2.3.0+linux-x64 on 2021-03-30 at 11:53:21 UTC

; 

; external perimeters extrusion width = 0.45mm
; perimeters extrusion width = 0.45mm
; infill extrusion width = 0.45mm
; solid infill extrusion width = 0.45mm
; top infill extrusion width = 0.40mm
; first layer extrusion width = 0.42mm

M73 P0 R190
M73 Q0 S191
M201 X1000 Y1000 Z200 E5000 ; sets maximum accelerations, mm/sec^2
M203 X200 Y200 Z12 E120 ; sets maximum feedrates, mm/sec
M204 P1250 R1250 T1250 ; sets acceleration (P, T) and retract acceleration (R), mm/sec^2
M205 X8.00 Y8.00 Z0.40 E4.50 ; sets the jerk limits, mm/sec
M205 S0 T0 ; sets the minimum extruding and travel feed rate, mm/sec
M107
;TYPE:Custom
M862.3 P "MK3" ; printer model check
M862.1 P0.4 ; nozzle diameter check
M115 U3.9.2 ; tell printer latest fw version
G90 ; use absolute coordinates
M83 ; extruder relative mode
M104 S215 ; set extruder temp
M140 S60 ; set bed temp
M190 S60 ; wait for bed temp
M109 S215 ; wait for extruder temp
G28 W ; home all without mesh bed level
G80 ; mesh bed leveling
G1 Y-3.0 F1000.0 ; go outside print area
G92 E0.0
G1 X60.0 E9.0 F1000.0 ; intro line
G1 X100.0 E12.5 F1000.0 ; intro line
G92 E0.0
M221 S95

; Don't change E values below. Excessive value can damage the printer.

M907 E538 ; set extruder motor current
G21 ; set units to millimeters
G90 ; use absolute coordinates
M83 ; use relative distances for extrusion
M900 K0.05 ; Filament gcode LA 1.5
M900 K30 ; Filament gcode LA 1.0
;LAYER_CHANGE
;Z:0.2
;HEIGHT:0.2
;BEFORE_LAYER_CHANGE
G92 E0.0
;0.2


G1 E-0.80000 F2100.000
G1 Z0.400 F10800.000
;AFTER_LAYER_CHANGE
;0.2
G1 X69.335 Y100.674
G1 Z0.200
G1 E0.80000 F2100.000
M204 S1000
;TYPE:Skirt
;WIDTH:0.42
G1 F1200.000
G1 X69.306 Y99.867 E0.02532
G1 X69.548 Y99.097 E0.02532
G1 X75.118 Y89.443 E0.34947
G1 X75.411 Y89.050 E0.01538
G1 X75.779 Y88.725 E0.01538
G1 X76.205 Y88.482 E0.01538
G1 X76.672 Y88.332 E0.01538
G1 X161.860 Y78.160 E2.69000
M73 P0 R189
G1 X176.289 Y78.148 E0.45242
G1 X177.067 Y78.280 E0.02473
G1 X177.761 Y78.661 E0.02484
G1 X178.665 Y79.570 E0.04018
G1 X179.062 Y80.341 E0.02720
G1 X184.363 Y104.954 E0.78942
G1 X184.363 Y117.490 E0.39305
G1 X184.273 Y118.122 E0.02000
G1 X178.870 Y130.118 E0.41252
G1 X178.548 Y130.570 E0.01740
G1 X177.774 Y131.329 E0.03399
G1 X177.303 Y131.623 E0.01740
G1 X176.774 Y131.801 E0.01752
G1 X176.290 Y131.852 E0.01526
G1 X166.615 Y131.813 E0.30335
G1 X106.075 Y122.718 E1.91951
G1 X105.550 Y122.495 E0.01787
G1 X70.437 Y102.222 E1.27127
G1 X70.048 Y101.930 E0.01526
G1 X69.724 Y101.561 E0.01538
G1 X69.360 Y100.729 E0.02848
; printing object Panda_OAK-D - Panda_OAK-D_Camera_Mount.stl id:0 copy 0
;WIPE_START
G1 F8640.000
G1 X69.306 Y99.867 E-0.19938
G1 X69.548 Y99.097 E-0.18643
G1 X70.358 Y97.693 E-0.37419
;WIPE_END
G1 E-0.04000 F2100.000
G1 Z0.600 F10800.000
G1 X73.283 Y99.750
G1 Z0.200
G1 E0.80000 F2100.000
;TYPE:Perimeter
G1 F1200.000
G1 X77.596 Y92.280 E0.27046
G1 X112.046 Y112.169 E1.24725
M73 Q0 S190
G1 X162.320 Y81.712 E1.84301
G1 X175.598 Y81.712 E0.41634
G1 X175.598 Y105.662 E0.75094
G1 X180.798 Y105.662 E0.16304
G1 X180.798 Y116.788 E0.34884
G1 X175.598 Y116.788 E0.16304
G1 X175.598 Y128.288 E0.36057
G1 X167.194 Y128.282 E0.26353
G1 X167.184 Y103.935 E0.76339
G1 X167.199 Y103.714 E0.00693
G1 X167.121 Y102.879 E0.02632
G1 X166.961 Y102.078 E0.02559
G1 X166.720 Y101.298 E0.02559
G1 X166.400 Y100.548 E0.02559
G1 X166.290 Y100.350 E0.00710
G1 X166.004 Y99.834 E0.01849
G1 X165.537 Y99.165 E0.02559
G1 X165.004 Y98.547 E0.02559
G1 X164.410 Y97.988 E0.02559
G1 X163.761 Y97.492 E0.02559
G1 X163.067 Y97.067 E0.02552
G1 X162.586 Y96.834 E0.01677
G1 X162.095 Y96.641 E0.01653
G1 X152.230 Y100.651 E0.33388
G1 X127.684 Y110.682 E0.83140
G1 X106.992 Y119.212 E0.70173
G1 X73.335 Y99.780 E1.21856
;WIPE_START
G1 F8640.000
G1 X74.961 Y96.918 E-0.76000
;WIPE_END
G1 E-0.04000 F2100.000
G1 Z0.600 F10800.000
G1 X175.976 Y105.285
G1 Z0.200
G1 E0.80000 F2100.000
;TYPE:External perimeter
G1 F1200.000
G1 X181.176 Y105.285 E0.16304
G1 X181.176 Y117.165 E0.37249
G1 X175.976 Y117.165 E0.16304
G1 X175.976 Y128.665 E0.36057
G1 X167.296 Y128.665 E0.27213
G1 X166.817 Y128.629 E0.01508
G1 X166.807 Y103.922 E0.77468
G1 X166.821 Y103.719 E0.00638
G1 X166.747 Y102.933 E0.02475
G1 X166.595 Y102.171 E0.02437
G1 X166.366 Y101.428 E0.02437
G1 X166.061 Y100.714 E0.02437
G1 X165.960 Y100.533 E0.00649
G1 X165.684 Y100.034 E0.01788
G1 X165.239 Y99.396 E0.02437
G1 X164.731 Y98.808 E0.02437
G1 X164.165 Y98.275 E0.02437
G1 X163.548 Y97.804 E0.02437
G1 X162.886 Y97.399 E0.02433
G1 X162.434 Y97.180 E0.01573
G1 X162.097 Y97.047 E0.01135
G1 X152.372 Y101.000 E0.32915
G1 X127.827 Y111.030 E0.83137
G1 X106.965 Y119.631 E0.70753
G1 X72.768 Y99.888 E1.23808
G1 X77.458 Y91.764 E0.29410
G1 X112.041 Y111.731 E1.25208
G1 X162.215 Y81.335 E1.83932
G1 X175.976 Y81.335 E0.43147
G1 X175.976 Y105.225 E0.74905
G1 X176.045 Y105.679 F10800.000
;WIPE_START
G1 F8640.000
G1 X179.267 Y105.263 E-0.76000
;WIPE_END
G1 E-0.04000 F2100.000
G1 Z0.600 F10800.000
G1 X175.485 Y82.588
G1 Z0.200
G1 E0.80000 F2100.000
;TYPE:Solid infill
;WIDTH:0.420047
G1 F1200.000
G1 X174.893 Y81.995 E0.02628
G1 X174.359 Y81.995 E0.01672
G1 X175.316 Y82.951 E0.04241
G1 X175.316 Y83.485 E0.01672
G1 X173.826 Y81.995 E0.06606
G1 X173.293 Y81.995 E0.01672
G1 X175.316 Y84.018 E0.08972
G1 X175.316 Y84.551 E0.01672
G1 X172.759 Y81.995 E0.11337
G1 X172.226 Y81.995 E0.01672
G1 X175.316 Y85.085 E0.13702
G1 X175.316 Y85.618 E0.01672
G1 X171.693 Y81.995 E0.16067
G1 X171.159 Y81.995 E0.01672
G1 X175.316 Y86.151 E0.18432
G1 X175.316 Y86.685 E0.01672
G1 X170.626 Y81.995 E0.20798
G1 X170.093 Y81.995 E0.01672
G1 X175.316 Y87.218 E0.23163
G1 X175.316 Y87.751 E0.01672
G1 X169.559 Y81.995 E0.25528
G1 X169.026 Y81.995 E0.01672
G1 X175.316 Y88.285 E0.27893
G1 X175.316 Y88.818 E0.01672
G1 X168.493 Y81.995 E0.30258
G1 X167.959 Y81.995 E0.01672
G1 X175.316 Y89.351 E0.32624
G1 X175.316 Y89.885 E0.01672
G1 X167.426 Y81.995 E0.34989
G1 X166.893 Y81.995 E0.01672
G1 X175.316 Y90.418 E0.37354
G1 X175.316 Y90.951 E0.01672
G1 X166.359 Y81.995 E0.39719
G1 X165.826 Y81.995 E0.01672
G1 X175.316 Y91.485 E0.42084
G1 X175.316 Y92.018 E0.01672
G1 X165.293 Y81.995 E0.44450
G1 X164.759 Y81.995 E0.01672
G1 X175.316 Y92.551 E0.46815
G1 X175.316 Y93.085 E0.01672
G1 X164.226 Y81.995 E0.49180
G1 X163.693 Y81.995 E0.01672
G1 X175.316 Y93.618 E0.51545
G1 X175.316 Y94.151 E0.01672
G1 X163.159 Y81.995 E0.53910
G1 X162.626 Y81.995 E0.01672
G1 X175.316 Y94.685 E0.56276
G1 X175.316 Y95.218 E0.01672
G1 X162.208 Y82.110 E0.58129
G1 X161.876 Y82.312 E0.01218
G1 X175.316 Y95.751 E0.59601
G1 X175.316 Y96.285 E0.01672
G1 X161.544 Y82.513 E0.61074
M73 P0 R188
G1 X161.212 Y82.714 E0.01218
G1 X175.316 Y96.818 E0.62547
G1 X175.316 Y97.351 E0.01672
G1 X160.880 Y82.915 E0.64020
G1 X160.547 Y83.116 E0.01218
G1 X175.316 Y97.885 E0.65493
G1 X175.316 Y98.418 E0.01672
G1 X160.215 Y83.318 E0.66966
G1 X159.883 Y83.519 E0.01218
G1 X175.316 Y98.951 E0.68439
G1 X175.316 Y99.485 E0.01672
G1 X159.551 Y83.720 E0.69912
G1 X159.219 Y83.921 E0.01218
G1 X175.316 Y100.018 E0.71385
G1 X175.316 Y100.551 E0.01672
G1 X158.887 Y84.123 E0.72857
G1 X158.555 Y84.324 E0.01218
G1 X175.316 Y101.085 E0.74330
G1 X175.316 Y101.618 E0.01672
G1 X158.223 Y84.525 E0.75803
G1 X157.890 Y84.726 E0.01218
G1 X175.316 Y102.151 E0.77276
G1 X175.316 Y102.685 E0.01672
G1 X157.558 Y84.927 E0.78749
M73 Q0 S189
G1 X157.226 Y85.129 E0.01218
G1 X175.316 Y103.218 E0.80222
G1 X175.316 Y103.751 E0.01672
G1 X156.894 Y85.330 E0.81695
G1 X156.562 Y85.531 E0.01218
G1 X175.316 Y104.285 E0.83168
G1 X175.316 Y104.818 E0.01672
G1 X156.230 Y85.732 E0.84641
G1 X155.898 Y85.933 E0.01218
G1 X175.485 Y105.521 E0.86866
;WIPE_START
G1 F8640.000
G1 X173.158 Y103.194 E-0.76000
;WIPE_END
G1 E-0.04000 F2100.000
G1 Z0.600 F10800.000
G1 X180.006 Y105.775
G1 Z0.200
G1 E0.80000 F2100.000
G1 F1200.000
G1 X180.516 Y106.285 E0.02260
G1 X180.516 Y106.818 E0.01672
G1 X179.643 Y105.945 E0.03872
G1 X179.109 Y105.945 E0.01672
G1 X180.516 Y107.351 E0.06237
G1 X180.516 Y107.885 E0.01672
G1 X178.576 Y105.945 E0.08603
G1 X178.043 Y105.945 E0.01672
G1 X180.516 Y108.418 E0.10968
G1 X180.516 Y108.951 E0.01672
G1 X177.509 Y105.945 E0.13333
G1 X176.976 Y105.945 E0.01672
G1 X180.516 Y109.485 E0.15698
G1 X180.516 Y110.018 E0.01672
G1 X176.442 Y105.945 E0.18064
G1 X175.909 Y105.945 E0.01672
G1 X180.516 Y110.551 E0.20429
G1 X180.516 Y111.085 E0.01672
G1 X155.566 Y86.135 E1.10647
G1 X155.233 Y86.336 E0.01218
G1 X180.516 Y111.618 E1.12120
G1 X180.516 Y112.151 E0.01672
G1 X154.901 Y86.537 E1.13593
G1 X154.569 Y86.738 E0.01218
G1 X180.516 Y112.685 E1.15066
G1 X180.516 Y113.218 E0.01672
G1 X154.237 Y86.939 E1.16539
G1 X153.905 Y87.141 E0.01218
G1 X180.516 Y113.751 E1.18011
G1 X180.516 Y114.285 E0.01672
G1 X166.655 Y100.424 E0.61470
G1 X167.025 Y101.328 E0.03064
G1 X180.516 Y114.818 E0.59827
G1 X180.516 Y115.351 E0.01672
G1 X167.251 Y102.087 E0.58823
G1 X167.384 Y102.753 E0.02130
G1 X180.516 Y115.885 E0.58234
G1 X180.516 Y116.418 E0.01672
G1 X167.449 Y103.352 E0.57945
G1 X167.483 Y103.711 E0.01130
G1 X167.470 Y103.906 E0.00612
G1 X180.069 Y116.505 E0.55875
G1 X179.536 Y116.505 E0.01672
G1 X167.467 Y104.436 E0.53521
G1 X167.468 Y104.970 E0.01673
G1 X179.003 Y116.505 E0.51155
G1 X178.469 Y116.505 E0.01672
G1 X167.468 Y105.504 E0.48789
G1 X167.468 Y106.037 E0.01673
G1 X177.936 Y116.505 E0.46423
M73 P1 R188
M73 Q1 S189
G1 X177.403 Y116.505 E0.01672
G1 X167.468 Y106.571 E0.44057
G1 X167.468 Y107.104 E0.01673
G1 X176.869 Y116.505 E0.41691
G1 X176.336 Y116.505 E0.01672
G1 X167.469 Y107.638 E0.39325
G1 X167.469 Y108.171 E0.01673
G1 X175.803 Y116.505 E0.36958
G1 X175.316 Y116.505 E0.01527
G1 X175.316 Y116.552 E0.00145
G1 X167.469 Y108.705 E0.34798
G1 X167.469 Y109.238 E0.01673
G1 X175.316 Y117.085 E0.34797
G1 X175.316 Y117.618 E0.01672
G1 X167.469 Y109.772 E0.34796
G1 X167.470 Y110.305 E0.01673
G1 X175.316 Y118.152 E0.34795
G1 X175.316 Y118.685 E0.01672
G1 X167.470 Y110.839 E0.34794
G1 X167.470 Y111.373 E0.01673
G1 X175.316 Y119.218 E0.34794
G1 X175.316 Y119.752 E0.01672
G1 X167.470 Y111.906 E0.34793
G1 X167.470 Y112.440 E0.01673
G1 X175.316 Y120.285 E0.34792
G1 X175.316 Y120.818 E0.01672
G1 X167.471 Y112.973 E0.34791
G1 X167.471 Y113.507 E0.01673
G1 X175.316 Y121.352 E0.34790
G1 X175.316 Y121.885 E0.01672
G1 X167.471 Y114.040 E0.34789
G1 X167.471 Y114.574 E0.01673
G1 X175.316 Y122.418 E0.34788
G1 X175.316 Y122.952 E0.01672
G1 X167.471 Y115.107 E0.34787
G1 X167.472 Y115.641 E0.01673
G1 X175.316 Y123.485 E0.34786
G1 X175.316 Y124.018 E0.01672
G1 X167.472 Y116.174 E0.34785
G1 X167.472 Y116.708 E0.01673
G1 X175.316 Y124.552 E0.34784
G1 X175.316 Y125.085 E0.01672
G1 X167.472 Y117.241 E0.34784
G1 X167.472 Y117.775 E0.01673
G1 X175.316 Y125.618 E0.34783
G1 X175.316 Y126.152 E0.01672
G1 X167.473 Y118.309 E0.34782
G1 X167.473 Y118.842 E0.01673
G1 X175.316 Y126.685 E0.34781
G1 X175.316 Y127.218 E0.01672
G1 X167.473 Y119.376 E0.34780
G1 X167.473 Y119.909 E0.01673
G1 X175.316 Y127.752 E0.34779
G1 X175.316 Y128.005 E0.00794
G1 X175.035 Y128.005 E0.00879
G1 X167.473 Y120.443 E0.33535
M73 P1 R187
G1 X167.474 Y120.976 E0.01673
G1 X174.502 Y128.004 E0.31168
G1 X173.968 Y128.004 E0.01674
G1 X167.474 Y121.510 E0.28800
G1 X167.474 Y122.043 E0.01673
G1 X173.434 Y128.004 E0.26432
G1 X172.901 Y128.003 E0.01674
G1 X167.474 Y122.577 E0.24064
G1 X167.475 Y123.110 E0.01673
G1 X172.367 Y128.003 E0.21696
G1 X171.833 Y128.002 E0.01674
G1 X167.475 Y123.644 E0.19329
G1 X167.475 Y124.178 E0.01673
G1 X171.299 Y128.002 E0.16961
G1 X170.766 Y128.002 E0.01674
G1 X167.475 Y124.711 E0.14593
G1 X167.475 Y125.245 E0.01673
G1 X170.232 Y128.001 E0.12225
G1 X169.698 Y128.001 E0.01674
G1 X167.476 Y125.778 E0.09858
G1 X167.476 Y126.312 E0.01673
G1 X169.165 Y128.001 E0.07490
G1 X168.631 Y128.000 E0.01674
G1 X167.476 Y126.845 E0.05122
G1 X167.476 Y127.379 E0.01673
G1 X168.097 Y128.000 E0.02754
G1 X167.563 Y127.999 E0.01674
G1 X167.307 Y127.743 E0.01139
;WIPE_START
G1 F8640.000
G1 X167.563 Y127.999 E-0.08389
G1 X168.097 Y128.000 E-0.12324
G1 X167.476 Y127.379 E-0.20281
G1 X167.476 Y126.845 E-0.12320
G1 X168.171 Y127.540 E-0.22687
;WIPE_END
G1 E-0.04000 F2100.000
G1 Z0.600 F10800.000
G1 X163.322 Y97.091
G1 Z0.200
G1 E0.80000 F2100.000
G1 F1200.000
G1 X153.573 Y87.342 E0.43234
G1 X153.241 Y87.543 E0.01218
G1 X162.051 Y96.354 E0.39073
G1 X161.672 Y96.508 E0.01284
G1 X152.909 Y87.744 E0.38864
G1 X152.576 Y87.946 E0.01218
G1 X161.293 Y96.662 E0.38656
G1 X160.914 Y96.816 E0.01284
G1 X152.244 Y88.147 E0.38447
G1 X151.912 Y88.348 E0.01218
G1 X160.535 Y96.970 E0.38238
G1 X160.155 Y97.124 E0.01284
G1 X151.580 Y88.549 E0.38029
G1 X151.248 Y88.750 E0.01218
G1 X159.776 Y97.279 E0.37820
G1 X159.397 Y97.433 E0.01284
G1 X150.916 Y88.952 E0.37611
G1 X150.584 Y89.153 E0.01218
G1 X159.018 Y97.587 E0.37403
G1 X158.638 Y97.741 E0.01284
G1 X150.252 Y89.354 E0.37194
G1 X149.919 Y89.555 E0.01218
G1 X158.259 Y97.895 E0.36985
G1 X157.880 Y98.049 E0.01284
G1 X149.587 Y89.756 E0.36776
M73 Q1 S188
G1 X149.255 Y89.958 E0.01218
G1 X157.501 Y98.203 E0.36567
G1 X157.122 Y98.357 E0.01284
G1 X148.923 Y90.159 E0.36359
G1 X148.591 Y90.360 E0.01218
G1 X156.742 Y98.512 E0.36150
G1 X156.363 Y98.666 E0.01284
G1 X148.259 Y90.561 E0.35941
G1 X147.927 Y90.762 E0.01218
G1 X155.984 Y98.820 E0.35732
G1 X155.605 Y98.974 E0.01284
G1 X147.595 Y90.964 E0.35523
G1 X147.262 Y91.165 E0.01218
G1 X155.226 Y99.128 E0.35315
G1 X154.846 Y99.282 E0.01284
G1 X146.930 Y91.366 E0.35106
G1 X146.598 Y91.567 E0.01218
G1 X154.467 Y99.436 E0.34897
G1 X154.088 Y99.590 E0.01284
G1 X146.266 Y91.769 E0.34688
G1 X145.934 Y91.970 E0.01218
G1 X153.709 Y99.745 E0.34479
G1 X153.329 Y99.899 E0.01284
G1 X145.602 Y92.171 E0.34270
G1 X145.270 Y92.372 E0.01218
G1 X152.950 Y100.053 E0.34062
G1 X152.571 Y100.207 E0.01284
G1 X144.937 Y92.573 E0.33853
G1 X144.605 Y92.775 E0.01218
G1 X152.192 Y100.361 E0.33644
G1 X151.813 Y100.516 E0.01283
G1 X144.273 Y92.976 E0.33437
G1 X143.941 Y93.177 E0.01218
G1 X151.435 Y100.670 E0.33231
G1 X151.056 Y100.825 E0.01283
G1 X143.609 Y93.378 E0.33025
G1 X143.277 Y93.579 E0.01218
G1 X150.677 Y100.980 E0.32819
G1 X150.299 Y101.135 E0.01283
G1 X142.945 Y93.781 E0.32613
G1 X142.613 Y93.982 E0.01218
G1 X149.920 Y101.289 E0.32406
G1 X149.541 Y101.444 E0.01283
G1 X142.280 Y94.183 E0.32200
G1 X141.948 Y94.384 E0.01218
G1 X149.163 Y101.599 E0.31994
G1 X148.784 Y101.753 E0.01283
G1 X141.616 Y94.585 E0.31788
G1 X141.284 Y94.787 E0.01218
G1 X148.406 Y101.908 E0.31582
G1 X148.027 Y102.063 E0.01283
G1 X140.952 Y94.988 E0.31376
G1 X140.620 Y95.189 E0.01218
G1 X147.648 Y102.218 E0.31170
G1 X147.270 Y102.372 E0.01283
G1 X140.288 Y95.390 E0.30963
G1 X139.956 Y95.592 E0.01218
G1 X146.891 Y102.527 E0.30757
G1 X146.512 Y102.682 E0.01283
G1 X139.623 Y95.793 E0.30551
G1 X139.291 Y95.994 E0.01218
G1 X146.134 Y102.836 E0.30345
G1 X145.755 Y102.991 E0.01283
G1 X138.959 Y96.195 E0.30139
G1 X138.627 Y96.396 E0.01218
G1 X145.377 Y103.146 E0.29933
G1 X144.998 Y103.301 E0.01283
G1 X138.295 Y96.598 E0.29726
G1 X137.963 Y96.799 E0.01218
G1 X144.619 Y103.455 E0.29520
G1 X144.241 Y103.610 E0.01283
G1 X137.631 Y97.000 E0.29314
G1 X137.299 Y97.201 E0.01218
G1 X143.862 Y103.765 E0.29108
G1 X143.484 Y103.920 E0.01283
G1 X136.966 Y97.402 E0.28902
G1 X136.634 Y97.604 E0.01218
G1 X143.105 Y104.074 E0.28696
G1 X142.726 Y104.229 E0.01283
G1 X136.302 Y97.805 E0.28489
G1 X135.970 Y98.006 E0.01218
G1 X142.348 Y104.384 E0.28283
G1 X141.969 Y104.538 E0.01283
G1 X135.638 Y98.207 E0.28077
G1 X135.306 Y98.408 E0.01218
G1 X141.590 Y104.693 E0.27871
G1 X141.212 Y104.848 E0.01283
G1 X134.974 Y98.610 E0.27665
G1 X134.642 Y98.811 E0.01218
G1 X140.833 Y105.003 E0.27459
G1 X140.455 Y105.157 E0.01283
G1 X134.309 Y99.012 E0.27252
G1 X133.977 Y99.213 E0.01218
G1 X140.076 Y105.312 E0.27046
G1 X139.697 Y105.467 E0.01283
G1 X133.645 Y99.415 E0.26840
G1 X133.313 Y99.616 E0.01218
G1 X139.319 Y105.621 E0.26634
G1 X138.940 Y105.776 E0.01283
G1 X132.981 Y99.817 E0.26428
G1 X132.649 Y100.018 E0.01218
G1 X138.562 Y105.931 E0.26222
G1 X138.183 Y106.086 E0.01283
G1 X132.317 Y100.219 E0.26015
