(Projekt CU-3286-MB parts - Cutout Template v3)
(Erstellt mit Estlcam Version 11 Build 11,237)
(Laufzeit ca. 00:10:20 Stunden)

(Benoetigte Werkzeuge:)
(Fraeser 2mm)

G90
M03 S24000
G00 Z5.0000


(Nr. 1: Ausschnitt 7)
G00 X10.5463 Y2.4500
G00 Z0.5000
G01 Z0.0000 F600 S24000
G01 Z-1.0000
G01 X21.6561 F1200
G01 Y4.2500
G01 X10.5463
G01 X10.3861 Y4.3718
G02 X12.1258 Y5.3500 I1.7167 J-1.0171
G01 X20.0767
G02 Y1.3500 I0.0232 J-2.0000
G01 X12.1258
G02 X10.3861 Y4.3718 I-0.0249 J1.9973
G01 X10.5463 Y4.2500
G01 Z-2.0000 F600
G01 X21.6561 F1200
G01 Y2.4500
G01 X10.5463
G01 X10.3861 Y2.3281
G02 X12.1258 Y5.3500 I1.7155 J1.0241
G01 X20.0767
G02 Y1.3500 I0.0232 J-2.0000
G01 X12.1258
G02 X10.3861 Y2.3281 I-0.0243 J1.9927
G01 X10.5463 Y2.4500
G01 Z-3.0000 F600
G01 X21.6561 F1200
G01 Y4.2500
G01 X10.5463
G01 X10.3861 Y4.3718
G02 X12.1258 Y5.3500 I1.7167 J-1.0171
G01 X20.0767
G02 Y1.3500 I0.0232 J-2.0000
G01 X12.1258
G02 X10.3861 Y4.3718 I-0.0249 J1.9973
G01 X10.5463 Y4.2500
G01 Z-4.0000 F600
G01 X21.6561 F1200
G01 Y2.4500
G01 X10.5463
G01 X10.3861 Y2.3281
G02 X12.1258 Y5.3500 I1.7155 J1.0241
G01 X20.0767
G02 Y1.3500 I0.0232 J-2.0000
G01 X12.1258
G02 X10.3861 Y2.3281 I-0.0243 J1.9927
G01 X10.5463 Y2.4500
G00 Z5.0000


(Nr. 2: Ausschnitt 6)


(Nr. 3: Ausschnitt 6)
G00 X7.7090 Y14.3176 Z5.0000
G00 Z0.5000
G01 Z0.0000 F600
G01 Z-1.0000
G02 Y15.1824 I0.2497 J0.4324 F1200
G02 X8.4579 Y14.7500 I0.2497 J-0.4324
G02 X7.7090 Y14.3176 I-0.4993 J0.0000
G01 Z-2.0000 F600
G02 Y15.1824 I0.2497 J0.4324 F1200
G02 X8.4579 Y14.7500 I0.2497 J-0.4324
G02 X7.7090 Y14.3176 I-0.4993 J0.0000
G01 Z-3.0000 F600
G02 Y15.1824 I0.2497 J0.4324 F1200
G02 X8.4579 Y14.7500 I0.2497 J-0.4324
G02 X7.7090 Y14.3176 I-0.4993 J0.0000
G01 Z-4.0000 F600
G02 Y15.1824 I0.2497 J0.4324 F1200
G02 X8.4579 Y14.7500 I0.2497 J-0.4324
G02 X7.7090 Y14.3176 I-0.4993 J0.0000
G00 Z5.0000


(Nr. 4: Ausschnitt 8)


(Nr. 5: Ausschnitt 8)
G00 X23.9262 Y14.5003 Z5.0000
G00 Z0.5000
G01 Z0.0000 F600
G01 Z-1.0000
G02 X24.3586 Y15.2493 I0.4324 J0.2497 F1200
G02 X24.7910 Y14.5003 I0.0000 J-0.4993
G02 X23.9262 I-0.4324 J0.2497
G01 Z-2.0000 F600
G02 X24.3586 Y15.2493 I0.4324 J0.2497 F1200
G02 X24.7910 Y14.5003 I0.0000 J-0.4993
G02 X23.9262 I-0.4324 J0.2497
G01 Z-3.0000 F600
G02 X24.3586 Y15.2493 I0.4324 J0.2497 F1200
G02 X24.7910 Y14.5003 I0.0000 J-0.4993
G02 X23.9262 I-0.4324 J0.2497
G01 Z-4.0000 F600
G02 X24.3586 Y15.2493 I0.4324 J0.2497 F1200
G02 X24.7910 Y14.5003 I0.0000 J-0.4993
G02 X23.9262 I-0.4324 J0.2497
G00 Z5.0000


(Nr. 6: Ausschnitt 9)
G00 X43.9600 Y22.3000 Z5.0000
G00 Z0.5000
G01 Z0.0000 F600
G01 Z-1.0000
G01 X62.6146 F1200
G01 X62.2876
G01 Y24.1000
G01 X44.2876
G01 Y25.9000
G01 X62.2876
G01 Y27.7000
G01 X62.6146
G01 X43.9606
G01 X44.5839 Y29.5000
G01 X61.9913
G01 X60.7906 Y31.3000
G01 X45.7846
G01 X47.7761 Y33.1000
G01 X58.7991
G00 Z5.0000
G00 X61.9913 Y22.3000
G00 Z0.5000
G01 Z-1.0000 F600
G01 Y20.5000 F1200
G01 X44.5839
G01 X45.7846 Y18.7000
G01 X60.7906
G01 X58.7991 Y16.9000
G01 X47.7761
G01 X47.6203 Y16.7649
G02 X43.6864 Y22.2052 I5.6467 J8.2256
G01 X43.6903 Y22.1906
G01 X43.6667 Y22.2798
G03 X44.0876 Y23.1836 I-0.8033 J0.9240
G01 Y26.8196
G03 X43.6674 Y27.7131 I-1.1974 J-0.0176
G02 X50.4928 Y34.6012 I9.6113 J-2.6981
G01 X50.4782 Y34.5973
G01 X50.5745 Y34.6202
G03 X51.4680 Y34.2000 I0.9107 J0.7766
G01 X55.1072
G03 X56.0007 Y34.6202 I-0.0176 J1.1974
G02 X62.8888 Y27.7948 I-2.6981 J-9.6113
G01 X62.8849 Y27.8094
G01 X62.9078 Y27.7131
G03 X62.4876 Y26.8196 I0.7766 J-0.9107
G01 Y23.1804
G03 X62.9078 Y22.2869 I1.1974 J0.0176
G02 X56.0824 Y15.3988 I-9.6113 J2.6981
G01 X56.0970 Y15.4027
G01 X56.0007 Y15.3798
G03 X55.1072 Y15.8000 I-0.9107 J-0.7766
G01 X51.4680
G03 X50.5745 Y15.3798 I0.0176 J-1.1974
G02 X47.6203 Y16.7649 I2.5978 J9.3841
G01 X47.7761 Y16.9000
G01 Z-2.0000 F600
G01 X58.7991 F1200
G01 X60.7906 Y18.7000
G01 X45.7846
G01 X44.5839 Y20.5000
G01 X61.9913
G01 X62.6146 Y22.3000
G01 X43.9600
G01 X44.2876
G01 Y24.1000
G01 X62.2876
G01 Y25.9000
G01 X44.2876
G01 Y27.7000
G01 X43.9606
G01 X62.6146
G01 X61.9913 Y29.5000
G01 X44.5839
G01 X45.7846 Y31.3000
G01 X60.7906
G01 X58.7991 Y33.1000
G01 X47.7761
G01 X47.6203 Y33.2351
G02 X50.4928 Y34.6012 I5.6296 J-8.1345
G01 X50.4782 Y34.5973
G01 X50.5745 Y34.6202
G03 X51.4680 Y34.2000 I0.9107 J0.7766
G01 X55.1072
G03 X56.0007 Y34.6202 I-0.0176 J1.1974
G02 X62.8888 Y27.7948 I-2.6981 J-9.6113
G01 X62.8849 Y27.8094
G01 X62.9078 Y27.7131
G03 X62.4876 Y26.8196 I0.7766 J-0.9107
G01 Y23.1804
G03 X62.9078 Y22.2869 I1.1974 J0.0176
G02 X56.0824 Y15.3988 I-9.6113 J2.6981
G01 X56.0970 Y15.4027
G01 X56.0007 Y15.3798
G03 X55.1072 Y15.8000 I-0.9107 J-0.7766
G01 X51.4680
G03 X50.5745 Y15.3798 I0.0176 J-1.1974
G02 X43.6864 Y22.2052 I2.6981 J9.6113
G01 X43.6903 Y22.1906
G01 X43.6667 Y22.2798
G03 X44.0876 Y23.1836 I-0.8033 J0.9240
G01 Y26.8196
G03 X43.6674 Y27.7131 I-1.1974 J-0.0176
G02 X47.6203 Y33.2351 I9.5728 J-2.6767
G01 X47.7761 Y33.1000
G01 Z-3.0000 F600
G01 X58.7991 F1200
G01 X60.7906 Y31.3000
G01 X45.7846
G01 X44.5839 Y29.5000
G01 X61.9913
G01 X62.6146 Y27.7000
G01 X43.9606
G01 X44.2876
G01 Y25.9000
G01 X62.2876
G01 Y24.1000
G01 X44.2876
G01 Y22.3000
G01 X43.9600
G01 X62.6146
G01 X61.9913 Y20.5000
G01 X44.5839
G01 X45.7846 Y18.7000
G01 X60.7906
G01 X58.7991 Y16.9000
G01 X47.7761
G01 X47.6203 Y16.7649
G02 X43.6864 Y22.2052 I5.6467 J8.2256
G01 X43.6903 Y22.1906
G01 X43.6667 Y22.2798
G03 X44.0876 Y23.1836 I-0.8033 J0.9240
G01 Y26.8196
G03 X43.6674 Y27.7131 I-1.1974 J-0.0176
G02 X50.4928 Y34.6012 I9.6113 J-2.6981
G01 X50.4782 Y34.5973
G01 X50.5745 Y34.6202
G03 X51.4680 Y34.2000 I0.9107 J0.7766
G01 X55.1072
G03 X56.0007 Y34.6202 I-0.0176 J1.1974
G02 X62.8888 Y27.7948 I-2.6981 J-9.6113
G01 X62.8849 Y27.8094
G01 X62.9078 Y27.7131
G03 X62.4876 Y26.8196 I0.7766 J-0.9107
G01 Y23.1804
G03 X62.9078 Y22.2869 I1.1974 J0.0176
G02 X56.0824 Y15.3988 I-9.6113 J2.6981
G01 X56.0970 Y15.4027
G01 X56.0007 Y15.3798
G03 X55.1072 Y15.8000 I-0.9107 J-0.7766
G01 X51.4680
G03 X50.5745 Y15.3798 I0.0176 J-1.1974
G02 X47.6203 Y16.7649 I2.5978 J9.3841
G01 X47.7761 Y16.9000
G01 Z-4.0000 F600
G01 X58.7991 F1200
G01 X60.7906 Y18.7000
G01 X45.7846
G01 X44.5839 Y20.5000
G01 X61.9913
G01 X62.6146 Y22.3000
G01 X43.9600
G01 X44.2876
G01 Y24.1000
G01 X62.2876
G01 Y25.9000
G01 X44.2876
G01 Y27.7000
G01 X43.9606
G01 X62.6146
G01 X61.9913 Y29.5000
G01 X44.5839
G01 X45.7846 Y31.3000
G01 X60.7906
G01 X58.7991 Y33.1000
G01 X47.7761
G01 X47.6203 Y33.2351
G02 X50.4928 Y34.6012 I5.6296 J-8.1345
G01 X50.4782 Y34.5973
G01 X50.5745 Y34.6202
G03 X51.4680 Y34.2000 I0.9107 J0.7766
G01 X55.1072
G03 X56.0007 Y34.6202 I-0.0176 J1.1974
G02 X62.8888 Y27.7948 I-2.6981 J-9.6113
G01 X62.8849 Y27.8094
G01 X62.9078 Y27.7131
G03 X62.4876 Y26.8196 I0.7766 J-0.9107
G01 Y23.1804
G03 X62.9078 Y22.2869 I1.1974 J0.0176
G02 X56.0824 Y15.3988 I-9.6113 J2.6981
G01 X56.0970 Y15.4027
G01 X56.0007 Y15.3798
G03 X55.1072 Y15.8000 I-0.9107 J-0.7766
G01 X51.4680
G03 X50.5745 Y15.3798 I0.0176 J-1.1974
G02 X43.6864 Y22.2052 I2.6981 J9.6113
G01 X43.6903 Y22.1906
G01 X43.6667 Y22.2798
G03 X44.0876 Y23.1836 I-0.8033 J0.9240
G01 Y26.8196
G03 X43.6674 Y27.7131 I-1.1974 J-0.0176
G02 X47.6203 Y33.2351 I9.5728 J-2.6767
G01 X47.7761 Y33.1000
G00 Z5.0000


(Nr. 7: Ausschnitt 5)
G00 X34.1932 Y58.3438 Z5.0000
G00 Z0.5000
G01 Z0.0000 F600
G01 Z-1.0000
G01 X32.0944 F1200
G01 X31.8955 Y58.3058
G02 X34.3908 Y58.4223 I1.2486 J0.0383
G02 X31.8955 Y58.3058 I-1.2467 J-0.0788
G01 X32.0944 Y58.3438
G01 Z-2.0000 F600
G01 X34.1932 F1200
G01 X34.3921 Y58.3058
G02 X31.8943 Y58.3438 I-1.2486 J0.0377
G02 X34.3921 Y58.3058 I1.2492 J0.0003
G01 X34.1932 Y58.3438
G01 Z-3.0000 F600
G01 X32.0944 F1200
G01 X31.8955 Y58.3058
G02 X34.3908 Y58.4223 I1.2486 J0.0383
G02 X31.8955 Y58.3058 I-1.2467 J-0.0788
G01 X32.0944 Y58.3438
G01 Z-4.0000 F600
G01 X34.1932 F1200
G01 X34.3921 Y58.3058
G02 X31.8943 Y58.3438 I-1.2486 J0.0377
G02 X34.3921 Y58.3058 I1.2492 J0.0003
G01 X34.1932 Y58.3438
G00 Z5.0000


(Nr. 8: Ausschnitt 4)
G00 X19.1932 Y58.3438 Z5.0000
G00 Z0.5000
G01 Z0.0000 F600
G01 Z-1.0000
G01 X17.0944 F1200
G01 X16.8955 Y58.3058
G02 X19.3908 Y58.4223 I1.2486 J0.0383
G02 X16.8955 Y58.3058 I-1.2467 J-0.0788
G01 X17.0944 Y58.3438
G01 Z-2.0000 F600
G01 X19.1932 F1200
G01 X19.3921 Y58.3818
G02 X16.8968 Y58.2653 I-1.2486 J-0.0383
G02 X19.3921 Y58.3818 I1.2467 J0.0788
G01 X19.1932 Y58.3438
G01 Z-3.0000 F600
G01 X17.0944 F1200
G01 X16.8955 Y58.3058
G02 X19.3908 Y58.4223 I1.2486 J0.0383
G02 X16.8955 Y58.3058 I-1.2467 J-0.0788
G01 X17.0944 Y58.3438
G01 Z-4.0000 F600
G01 X19.1932 F1200
G01 X19.3921 Y58.3818
G02 X16.8968 Y58.2653 I-1.2486 J-0.0383
G02 X19.3921 Y58.3818 I1.2467 J0.0788
G01 X19.1932 Y58.3438
G00 Z5.0000


(Nr. 9: Ausschnitt 2)


(Nr. 10: Ausschnitt 2)
G00 X23.8901 Y87.5338 Z5.0000
G00 Z0.5000
G01 Z0.0000 F600
G01 Z-1.0000
G02 X23.5841 Y88.7951 I0.2111 J0.7190 F1200
G02 X24.8295 Y88.4295 I0.5171 J-0.5423
G02 X23.8901 Y87.5338 I-0.7282 J-0.1767
G01 Z-2.0000 F600
G02 X23.5841 Y88.7951 I0.2111 J0.7190 F1200
G02 X24.8295 Y88.4295 I0.5171 J-0.5423
G02 X23.8901 Y87.5338 I-0.7282 J-0.1767
G01 Z-3.0000 F600
G02 X23.5841 Y88.7951 I0.2111 J0.7190 F1200
G02 X24.8295 Y88.4295 I0.5171 J-0.5423
G02 X23.8901 Y87.5338 I-0.7282 J-0.1767
G01 Z-4.0000 F600
G02 X23.5841 Y88.7951 I0.2111 J0.7190 F1200
G02 X24.8295 Y88.4295 I0.5171 J-0.5423
G02 X23.8901 Y87.5338 I-0.7282 J-0.1767
G00 Z5.0000


(Nr. 11: Ausschnitt 1)


(Nr. 12: Ausschnitt 1)
G00 X8.0478 Y87.5053 Z5.0000
G00 Z0.5000
G01 Z0.0000 F600
G01 Z-1.0000
G02 X7.4806 Y88.6728 I0.0535 J0.7475 F1200
G02 X8.7753 Y88.5802 I0.6206 J-0.4200
G02 X8.0478 Y87.5053 I-0.6740 J-0.3274
G01 Z-2.0000 F600
G02 X7.4806 Y88.6728 I0.0535 J0.7475 F1200
G02 X8.7753 Y88.5802 I0.6206 J-0.4200
G02 X8.0478 Y87.5053 I-0.6740 J-0.3274
G01 Z-3.0000 F600
G02 X7.4806 Y88.6728 I0.0535 J0.7475 F1200
G02 X8.7753 Y88.5802 I0.6206 J-0.4200
G02 X8.0478 Y87.5053 I-0.6740 J-0.3274
G01 Z-4.0000 F600
G02 X7.4806 Y88.6728 I0.0535 J0.7475 F1200
G02 X8.7753 Y88.5802 I0.6206 J-0.4200
G02 X8.0478 Y87.5053 I-0.6740 J-0.3274
G00 Z5.0000


(Nr. 13: Ausschnitt 3)
G00 X42.8882 Y90.0000 Z5.0000
G00 Z0.5000
G01 Z0.0000 F600
G01 Z-1.0000
G01 X63.6870 F1200
G01 X63.8859 Y89.9649
G02 X62.7712 Y88.9000 I-1.0990 J0.0345
G01 X43.8040
G02 Y91.1000 I-0.0157 J1.1000
G01 X62.7712
G02 X63.8859 Y89.9649 I0.0158 J-1.0994
G01 X63.6870 Y90.0000
G01 Z-2.0000 F600
G01 X42.8882 F1200
G01 X42.6893 Y89.9649
G02 X43.8040 Y91.1000 I1.0990 J0.0356
G01 X62.7712
G02 Y88.9000 I0.0157 J-1.1000
G01 X43.8040
G02 X42.6893 Y89.9649 I-0.0157 J1.0994
G01 X42.8882 Y90.0000
G01 Z-3.0000 F600
G01 X63.6870 F1200
G01 X63.8859 Y89.9649
G02 X62.7712 Y88.9000 I-1.0990 J0.0345
G01 X43.8040
G02 Y91.1000 I-0.0157 J1.1000
G01 X62.7712
G02 X63.8859 Y89.9649 I0.0158 J-1.0994
G01 X63.6870 Y90.0000
G01 Z-4.0000 F600
G01 X42.8882 F1200
G01 X42.6893 Y89.9649
G02 X43.8040 Y91.1000 I1.0990 J0.0356
G01 X62.7712
G02 Y88.9000 I0.0157 J-1.1000
G01 X43.8040
G02 X42.6893 Y89.9649 I-0.0157 J1.0994
G01 X42.8882 Y90.0000
G00 Z5.0000


(Nr. 14: Ausschnitt 33)
G00 X71.6286 Y71.2486 Z5.0000
G00 Z0.5000
G01 Z0.0000 F600
G01 Z-1.0000
G02 X71.2876 Y72.0164 I0.6622 J0.7537 F1200
G01 Y100.9836
G02 X72.3040 Y102.0000 I1.0016 J0.0148
G01 X136.2712
G02 X137.2876 Y100.9836 I0.0148 J-1.0016
G01 Y72.0164
G02 X136.2712 Y71.0000 I-1.0016 J-0.0148
G01 X72.3040
G02 X71.6286 Y71.2486 I-0.0139 J1.0039
G01 Z-1.5000 F600
G02 X71.2876 Y72.0164 I0.6622 J0.7537 F1200
G01 Y100.9836
G02 X72.3040 Y102.0000 I1.0016 J0.0148
G01 X136.2712
G02 X137.2876 Y100.9836 I0.0148 J-1.0016
G01 Y72.0164
G02 X136.2712 Y71.0000 I-1.0016 J-0.0148
G01 X72.3040
G02 X71.6286 Y71.2486 I-0.0139 J1.0039
G00 Z5.0000


(Nr. 15: Ausschnitt 34)
G00 X71.4876 Y72.1000 Z5.0000
G00 Z0.5000
G01 Z0.0000 F600
G01 Z-1.0000
G01 X137.0876 F1200
G01 Y73.9000
G01 X71.4876
G01 Y75.7000
G01 X137.0876
G01 Y77.5000
G01 X71.4876
G01 Y79.3000
G01 X137.0876
G01 Y81.1000
G01 X71.4876
G01 Y82.9000
G01 X137.0876
G01 Y84.7000
G01 X71.4876
G01 Y86.5000
G01 X137.0876
G01 Y88.3000
G01 X71.4876
G01 Y90.1000
G01 X137.0876
G01 Y91.9000
G01 X71.4876
G01 Y93.7000
G01 X137.0876
G01 Y95.5000
G01 X71.4876
G01 Y97.3000
G01 X137.0876
G01 Y99.1000
G01 X71.4876
G01 Y100.9000
G01 X137.0876
G01 X137.2876 Y100.7678
G01 Y72.0164
G02 X136.2712 Y71.0000 I-1.0016 J-0.0148
G01 X72.3040
G02 X71.2876 Y72.0164 I-0.0148 J1.0016
G01 Y100.9836
G02 X72.3040 Y102.0000 I1.0016 J0.0148
G01 X136.2712
G02 X137.2876 Y100.9836 I0.0148 J-1.0016
G01 Y100.7678
G01 X137.0876 Y100.9000
G01 Z-1.5000 F600
G01 X71.4876 F1200
G01 Y99.1000
G01 X137.0876
G01 Y97.3000
G01 X71.4876
G01 Y95.5000
G01 X137.0876
G01 Y93.7000
G01 X71.4876
G01 Y91.9000
G01 X137.0876
G01 Y90.1000
G01 X71.4876
G01 Y88.3000
G01 X137.0876
G01 Y86.5000
G01 X71.4876
G01 Y84.7000
G01 X137.0876
G01 Y82.9000
G01 X71.4876
G01 Y81.1000
G01 X137.0876
G01 Y79.3000
G01 X71.4876
G01 Y77.5000
G01 X137.0876
G01 Y75.7000
G01 X71.4876
G01 Y73.9000
G01 X137.0876
G01 Y72.1000
G01 X71.4876
G01 X71.2876 Y72.2322
G01 Y100.9836
G02 X72.3040 Y102.0000 I1.0016 J0.0148
G01 X136.2712
G02 X137.2876 Y100.9836 I0.0148 J-1.0016
G01 Y72.0164
G02 X136.2712 Y71.0000 I-1.0016 J-0.0148
G01 X72.3040
G02 X71.2876 Y72.0164 I-0.0148 J1.0016
G01 Y72.2322
G01 X71.4876 Y72.1000
G00 Z5.0000


(Nr. 16: Ausschnitt 31)


(Nr. 17: Ausschnitt 31)
G00 X85.1043 Y78.8313 Z5.0000
G00 Z0.5000
G01 Z0.0000 F600
G01 Z-1.0000
G02 X85.2331 Y79.2431 I0.1833 J0.1687 F1200
G02 X85.5254 Y78.9256 I0.0545 J-0.2431
G02 X85.1043 Y78.8313 I-0.2378 J0.0744
G01 Z-2.0000 F600
G02 X85.2331 Y79.2431 I0.1833 J0.1687 F1200
G02 X85.5254 Y78.9256 I0.0545 J-0.2431
G02 X85.1043 Y78.8313 I-0.2378 J0.0744
G01 Z-3.0000 F600
G02 X85.2331 Y79.2431 I0.1833 J0.1687 F1200
G02 X85.5254 Y78.9256 I0.0545 J-0.2431
G02 X85.1043 Y78.8313 I-0.2378 J0.0744
G01 Z-4.0000 F600
G02 X85.2331 Y79.2431 I0.1833 J0.1687 F1200
G02 X85.5254 Y78.9256 I0.0545 J-0.2431
G02 X85.1043 Y78.8313 I-0.2378 J0.0744
G00 Z5.0000


(Nr. 18: Ausschnitt 32)


(Nr. 19: Ausschnitt 32)
G00 X85.1189 Y93.8167 Z5.0000
G00 Z0.5000
G01 Z0.0000 F600
G01 Z-1.0000
G02 X85.2132 Y94.2378 I0.1687 J0.1833 F1200
G02 X85.5307 Y93.9455 I0.0744 J-0.2378
G02 X85.1189 Y93.8167 I-0.2431 J0.0545
G01 Z-2.0000 F600
G02 X85.2132 Y94.2378 I0.1687 J0.1833 F1200
G02 X85.5307 Y93.9455 I0.0744 J-0.2378
G02 X85.1189 Y93.8167 I-0.2431 J0.0545
G01 Z-3.0000 F600
G02 X85.2132 Y94.2378 I0.1687 J0.1833 F1200
G02 X85.5307 Y93.9455 I0.0744 J-0.2378
G02 X85.1189 Y93.8167 I-0.2431 J0.0545
G01 Z-4.0000 F600
G02 X85.2132 Y94.2378 I0.1687 J0.1833 F1200
G02 X85.5307 Y93.9455 I0.0744 J-0.2378
G02 X85.1189 Y93.8167 I-0.2431 J0.0545
G00 Z5.0000


(Nr. 20: Ausschnitt 30)


(Nr. 21: Ausschnitt 30)
G00 X123.0910 Y93.8470 Z5.0000
G00 Z0.5000
G01 Z0.0000 F600
G01 Z-1.0000
G02 X123.2534 Y94.2468 I0.1966 J0.1530 F1200
G02 X123.5184 Y93.9062 I0.0342 J-0.2468
G02 X123.0910 Y93.8470 I-0.2308 J0.0938
G01 Z-2.0000 F600
G02 X123.2534 Y94.2468 I0.1966 J0.1530 F1200
G02 X123.5184 Y93.9062 I0.0342 J-0.2468
G02 X123.0910 Y93.8470 I-0.2308 J0.0938
G01 Z-3.0000 F600
G02 X123.2534 Y94.2468 I0.1966 J0.1530 F1200
G02 X123.5184 Y93.9062 I0.0342 J-0.2468
G02 X123.0910 Y93.8470 I-0.2308 J0.0938
G01 Z-4.0000 F600
G02 X123.2534 Y94.2468 I0.1966 J0.1530 F1200
G02 X123.5184 Y93.9062 I0.0342 J-0.2468
G02 X123.0910 Y93.8470 I-0.2308 J0.0938
G00 Z5.0000


(Nr. 22: Ausschnitt 36)


(Nr. 23: Ausschnitt 36)
G00 X123.0790 Y78.8637 Z5.0000
G00 Z0.5000
G01 Z0.0000 F600
G01 Z-1.0000
G02 X123.2739 Y79.2488 I0.2086 J0.1363 F1200
G02 X123.5099 Y78.8875 I0.0137 J-0.2488
G02 X123.0790 Y78.8637 I-0.2223 J0.1125
G01 Z-2.0000 F600
G02 X123.2739 Y79.2488 I0.2086 J0.1363 F1200
G02 X123.5099 Y78.8875 I0.0137 J-0.2488
G02 X123.0790 Y78.8637 I-0.2223 J0.1125
G01 Z-3.0000 F600
G02 X123.2739 Y79.2488 I0.2086 J0.1363 F1200
G02 X123.5099 Y78.8875 I0.0137 J-0.2488
G02 X123.0790 Y78.8637 I-0.2223 J0.1125
G01 Z-4.0000 F600
G02 X123.2739 Y79.2488 I0.2086 J0.1363 F1200
G02 X123.5099 Y78.8875 I0.0137 J-0.2488
G02 X123.0790 Y78.8637 I-0.2223 J0.1125
G00 Z5.0000


(Nr. 24: Ausschnitt 38)


(Nr. 25: Ausschnitt 38)
G00 X123.0790 Y78.8637 Z5.0000
G00 Z0.5000
G01 Z0.0000 F600
G01 Z-1.0000
G02 X123.2739 Y79.2488 I0.2086 J0.1363 F1200
G02 X123.5099 Y78.8875 I0.0137 J-0.2488
G02 X123.0790 Y78.8637 I-0.2223 J0.1125
G01 Z-2.0000 F600
G02 X123.2739 Y79.2488 I0.2086 J0.1363 F1200
G02 X123.5099 Y78.8875 I0.0137 J-0.2488
G02 X123.0790 Y78.8637 I-0.2223 J0.1125
G01 Z-3.0000 F600
G02 X123.2739 Y79.2488 I0.2086 J0.1363 F1200
G02 X123.5099 Y78.8875 I0.0137 J-0.2488
G02 X123.0790 Y78.8637 I-0.2223 J0.1125
G01 Z-4.0000 F600
G02 X123.2739 Y79.2488 I0.2086 J0.1363 F1200
G02 X123.5099 Y78.8875 I0.0137 J-0.2488
G02 X123.0790 Y78.8637 I-0.2223 J0.1125
G00 Z5.0000


(Nr. 26: Ausschnitt 28)
G00 X129.4876 Y79.3000 Z5.0000
G00 Z0.5000
G01 Z0.0000 F600
G01 Z-1.0000
G01 X135.0876 F1200
G01 Y81.1000
G01 X129.4876
G01 Y82.9000
G01 X135.0876
G01 Y84.7000
G01 X129.4876
G01 Y86.5000
G01 X135.0876
G01 Y88.3000
G01 X129.4876
G01 Y90.1000
G01 X135.0876
G01 Y91.9000
G01 X129.4876
G01 Y93.7000
G01 X135.0876
G01 X135.0865 Y95.5000
G01 X129.4887
G01 X130.1444 Y97.3000
G01 X134.4308
G00 Z5.0000
G00 X135.0865 Y79.3000
G00 Z0.5000
G01 Z-1.0000 F600
G01 Y77.5000 F1200
G01 X129.4887
G01 X130.1444 Y75.7000
G01 X134.4308
G01 X134.5172 Y75.4982
G02 X129.2876 Y77.5218 I-2.2319 J2.0012
G01 Y95.4782
G02 X135.2876 I3.0000 J0.0208
G01 Y77.5218
G02 X134.5172 Y75.4982 I-2.9807 J-0.0236
G01 X134.4308 Y75.7000
G01 Z-2.0000 F600
G01 X130.1444 F1200
G01 X129.4887 Y77.5000
G01 X135.0865
G01 X135.0876 Y79.3000
G01 X129.4876
G01 Y81.1000
G01 X135.0876
G01 Y82.9000
G01 X129.4876
G01 Y84.7000
G01 X135.0876
G01 Y86.5000
G01 X129.4876
G01 Y88.3000
G01 X135.0876
G01 Y90.1000
G01 X129.4876
G01 Y91.9000
G01 X135.0876
G01 Y93.7000
G01 X129.4876
G01 X129.4887 Y95.5000
G01 X135.0865
G01 X134.4308 Y97.3000
G01 X130.1444
G01 X130.0580 Y97.5018
G02 X135.2876 Y95.4782 I2.2319 J-2.0012
G01 Y77.5218
G02 X129.2876 I-3.0000 J-0.0208
G01 Y95.4782
G02 X130.0580 Y97.5018 I2.9807 J0.0236
G01 X130.1444 Y97.3000
G01 Z-3.0000 F600
G01 X134.4308 F1200
G01 X135.0865 Y95.5000
G01 X129.4887
G01 X129.4876 Y93.7000
G01 X135.0876
G01 Y91.9000
G01 X129.4876
G01 Y90.1000
G01 X135.0876
G01 Y88.3000
G01 X129.4876
G01 Y86.5000
G01 X135.0876
G01 Y84.7000
G01 X129.4876
G01 Y82.9000
G01 X135.0876
G01 Y81.1000
G01 X129.4876
G01 Y79.3000
G01 X135.0876
G01 X135.0865 Y77.5000
G01 X129.4887
G01 X130.1444 Y75.7000
G01 X134.4308
G01 X134.5172 Y75.4982
G02 X129.2876 Y77.5218 I-2.2319 J2.0012
G01 Y95.4782
G02 X135.2876 I3.0000 J0.0208
G01 Y77.5218
G02 X134.5172 Y75.4982 I-2.9807 J-0.0236
G01 X134.4308 Y75.7000
G01 Z-4.0000 F600
G01 X130.1444 F1200
G01 X129.4887 Y77.5000
G01 X135.0865
G01 X135.0876 Y79.3000
G01 X129.4876
G01 Y81.1000
G01 X135.0876
G01 Y82.9000
G01 X129.4876
G01 Y84.7000
G01 X135.0876
G01 Y86.5000
G01 X129.4876
G01 Y88.3000
G01 X135.0876
G01 Y90.1000
G01 X129.4876
G01 Y91.9000
G01 X135.0876
G01 Y93.7000
G01 X129.4876
G01 X129.4887 Y95.5000
G01 X135.0865
G01 X134.4308 Y97.3000
G01 X130.1444
G01 X130.0580 Y97.5018
G02 X135.2876 Y95.4782 I2.2319 J-2.0012
G01 Y77.5218
G02 X129.2876 I-3.0000 J-0.0208
G01 Y95.4782
G02 X130.0580 Y97.5018 I2.9807 J0.0236
G01 X130.1444 Y97.3000
G00 Z5.0000


(Nr. 27: Ausschnitt 20)
G00 X129.1932 Y58.3438 Z5.0000
G00 Z0.5000
G01 Z0.0000 F600
G01 Z-1.0000
G01 X127.0944 F1200
G01 X126.8955 Y58.3058
G02 X129.3908 Y58.4223 I1.2486 J0.0383
G02 X126.8955 Y58.3058 I-1.2467 J-0.0788
G01 X127.0944 Y58.3438
G01 Z-2.0000 F600
G01 X129.1932 F1200
G01 X129.3921 Y58.3058
G02 X126.8943 Y58.3438 I-1.2486 J0.0377
G02 X129.3921 Y58.3058 I1.2492 J0.0003
G01 X129.1932 Y58.3438
G01 Z-3.0000 F600
G01 X127.0944 F1200
G01 X126.8955 Y58.3058
G02 X129.3908 Y58.4223 I1.2486 J0.0383
G02 X126.8955 Y58.3058 I-1.2467 J-0.0788
G01 X127.0944 Y58.3438
G01 Z-4.0000 F600
G01 X129.1932 F1200
G01 X129.3921 Y58.3058
G02 X126.8943 Y58.3438 I-1.2486 J0.0377
G02 X129.3921 Y58.3058 I1.2492 J0.0003
G01 X129.1932 Y58.3438
G00 Z5.0000


(Nr. 28: Ausschnitt 19)
G00 X142.0944 Y58.3438 Z5.0000
G00 Z0.5000
G01 Z0.0000 F600
G01 Z-1.0000
G01 X144.1932 F1200
G01 X144.3921 Y58.3818
G02 X141.8968 Y58.2653 I-1.2486 J-0.0383
G02 X144.3921 Y58.3818 I1.2467 J0.0788
G01 X144.1932 Y58.3438
G01 Z-2.0000 F600
G01 X142.0944 F1200
G01 X141.8955 Y58.3818
G02 X144.3933 Y58.3438 I1.2486 J-0.0377
G02 X141.8955 Y58.3818 I-1.2492 J-0.0003
G01 X142.0944 Y58.3438
G01 Z-3.0000 F600
G01 X144.1932 F1200
G01 X144.3921 Y58.3818
G02 X141.8968 Y58.2653 I-1.2486 J-0.0383
G02 X144.3921 Y58.3818 I1.2467 J0.0788
G01 X144.1932 Y58.3438
G01 Z-4.0000 F600
G01 X142.0944 F1200
G01 X141.8955 Y58.3818
G02 X144.3933 Y58.3438 I1.2486 J-0.0377
G02 X141.8955 Y58.3818 I-1.2492 J-0.0003
G01 X142.0944 Y58.3438
G00 Z5.0000


(Nr. 29: Ausschnitt 18)
G00 X152.3454 Y58.3438 Z5.0000
G00 Z0.5000
G01 Z0.0000 F600
G01 Z-1.0000
G01 X155.9422 F1200
G01 X156.1379 Y58.2570
G02 X152.1452 Y58.3438 I-1.9954 J0.0855
G02 X156.1379 Y58.2570 I1.9973 J0.0014
G01 X155.9422 Y58.3438
G01 Z-2.0000 F600
G01 X152.3454 F1200
G01 X152.1497 Y58.4306
G02 X156.1424 Y58.3438 I1.9954 J-0.0855
G02 X152.1497 Y58.4306 I-1.9973 J-0.0014
G01 X152.3454 Y58.3438
G01 Z-3.0000 F600
G01 X155.9422 F1200
G01 X156.1379 Y58.2570
G02 X152.1452 Y58.3438 I-1.9954 J0.0855
G02 X156.1379 Y58.2570 I1.9973 J0.0014
G01 X155.9422 Y58.3438
G01 Z-4.0000 F600
G01 X152.3454 F1200
G01 X152.1497 Y58.4306
G02 X156.1424 Y58.3438 I1.9954 J-0.0855
G02 X152.1497 Y58.4306 I-1.9973 J-0.0014
G01 X152.3454 Y58.3438
G00 Z5.0000


(Nr. 30: Ausschnitt 15)


(Nr. 31: Ausschnitt 15)
G00 X170.6748 Y45.5327 Z5.0000
G00 Z0.5000
G01 Z0.0000 F600
G01 Z-1.0000
G02 X171.5705 Y46.4720 I0.7190 J0.2111 F1200
G02 X171.9361 Y45.2267 I-0.1767 J-0.7282
G02 X170.6748 Y45.5327 I-0.5423 J0.5171
G01 Z-2.0000 F600
G02 X171.5705 Y46.4720 I0.7190 J0.2111 F1200
G02 X171.9361 Y45.2267 I-0.1767 J-0.7282
G02 X170.6748 Y45.5327 I-0.5423 J0.5171
G01 Z-3.0000 F600
G02 X171.5705 Y46.4720 I0.7190 J0.2111 F1200
G02 X171.9361 Y45.2267 I-0.1767 J-0.7282
G02 X170.6748 Y45.5327 I-0.5423 J0.5171
G01 Z-4.0000 F600
G02 X171.5705 Y46.4720 I0.7190 J0.2111 F1200
G02 X171.9361 Y45.2267 I-0.1767 J-0.7282
G02 X170.6748 Y45.5327 I-0.5423 J0.5171
G00 Z5.0000


(Nr. 32: Ausschnitt 14)


(Nr. 33: Ausschnitt 14)
G00 X170.6521 Y29.6372 Z5.0000
G00 Z0.5000
G01 Z0.0000 F600
G01 Z-1.0000
G02 X171.6723 Y30.4395 I0.7417 J0.1066 F1200
G02 X171.8570 Y29.1548 I-0.2785 J-0.6957
G02 X170.6521 Y29.6372 I-0.4632 J0.5890
G01 Z-2.0000 F600
G02 X171.6723 Y30.4395 I0.7417 J0.1066 F1200
G02 X171.8570 Y29.1548 I-0.2785 J-0.6957
G02 X170.6521 Y29.6372 I-0.4632 J0.5890
G01 Z-3.0000 F600
G02 X171.6723 Y30.4395 I0.7417 J0.1066 F1200
G02 X171.8570 Y29.1548 I-0.2785 J-0.6957
G02 X170.6521 Y29.6372 I-0.4632 J0.5890
G01 Z-4.0000 F600
G02 X171.6723 Y30.4395 I0.7417 J0.1066 F1200
G02 X171.8570 Y29.1548 I-0.2785 J-0.6957
G02 X170.6521 Y29.6372 I-0.4632 J0.5890
G00 Z5.0000


(Nr. 34: Ausschnitt 13)


(Nr. 35: Ausschnitt 13)
G00 X170.6521 Y20.6372 Z5.0000
G00 Z0.5000
G01 Z0.0000 F600
G01 Z-1.0000
G02 X171.6723 Y21.4395 I0.7417 J0.1066 F1200
G02 X171.8570 Y20.1548 I-0.2785 J-0.6957
G02 X170.6521 Y20.6372 I-0.4632 J0.5890
G01 Z-2.0000 F600
G02 X171.6723 Y21.4395 I0.7417 J0.1066 F1200
G02 X171.8570 Y20.1548 I-0.2785 J-0.6957
G02 X170.6521 Y20.6372 I-0.4632 J0.5890
G01 Z-3.0000 F600
G02 X171.6723 Y21.4395 I0.7417 J0.1066 F1200
G02 X171.8570 Y20.1548 I-0.2785 J-0.6957
G02 X170.6521 Y20.6372 I-0.4632 J0.5890
G01 Z-4.0000 F600
G02 X171.6723 Y21.4395 I0.7417 J0.1066 F1200
G02 X171.8570 Y20.1548 I-0.2785 J-0.6957
G02 X170.6521 Y20.6372 I-0.4632 J0.5890
G00 Z5.0000


(Nr. 36: Ausschnitt 12)


(Nr. 37: Ausschnitt 12)
G00 X170.6444 Y4.7438 Z5.0000
G00 Z0.5000
G01 Z0.0000 F600
G01 Z-1.0000
G02 X171.7685 Y5.3928 I0.7494 J0.0000 F1200
G02 Y4.0948 I-0.3747 J-0.6490
G02 X170.6444 Y4.7438 I-0.3747 J0.6490
G01 Z-2.0000 F600
G02 X171.7685 Y5.3928 I0.7494 J0.0000 F1200
G02 Y4.0948 I-0.3747 J-0.6490
G02 X170.6444 Y4.7438 I-0.3747 J0.6490
G01 Z-3.0000 F600
G02 X171.7685 Y5.3928 I0.7494 J0.0000 F1200
G02 Y4.0948 I-0.3747 J-0.6490
G02 X170.6444 Y4.7438 I-0.3747 J0.6490
G01 Z-4.0000 F600
G02 X171.7685 Y5.3928 I0.7494 J0.0000 F1200
G02 Y4.0948 I-0.3747 J-0.6490
G02 X170.6444 Y4.7438 I-0.3747 J0.6490
G00 Z5.0000


(Nr. 38: Ausschnitt 11)
G00 X146.3068 Y20.5000 Z5.0000
G00 Z0.5000
G01 Z0.0000 F600
G01 Z-1.0000
G01 X130.4876 F1200
G01 Y22.3000
G01 X147.0818
G01 X147.4392 Y24.1000
G01 X130.4876
G01 Y25.9000
G01 X147.4392
G01 X147.0818 Y27.7000
G01 X130.4876
G01 Y29.5000
G01 X146.3068
G01 X144.9866 Y31.3000
G01 X131.5865
G01 X133.9335 Y33.1000
G01 X142.6454
G00 Z5.0000
G00 X144.9866 Y20.5000
G00 Z0.5000
G01 Z-1.0000 F600
G01 Y18.7000 F1200
G01 X131.5865
G01 X133.9335 Y16.9000
G01 X142.6454
G01 X142.6547 Y16.6804
G02 X130.2876 Y20.0731 I-4.3703 J8.3058
G01 Y29.9269
G02 X146.3726 Y20.2058 I8.0028 J-4.9262
G02 X142.6547 Y16.6804 I-8.0372 J4.7528
G01 X142.6454 Y16.9000
G01 Z-2.0000 F600
G01 X133.9335 F1200
G01 X131.5865 Y18.7000
G01 X144.9866
G01 X146.3068 Y20.5000
G01 X130.4876
G01 Y22.3000
G01 X147.0818
G01 X147.4392 Y24.1000
G01 X130.4876
G01 Y25.9000
G01 X147.4392
G01 X147.0818 Y27.7000
G01 X130.4876
G01 Y29.5000
G01 X146.3068
G01 X144.9866 Y31.3000
G01 X131.5865
G01 X133.9335 Y33.1000
G01 X142.6454
G01 X142.6547 Y33.3196
G02 X134.1889 Y16.5411 I-4.3663 J-8.3219
G02 X130.2876 Y20.0731 I4.0578 J8.4027
G01 Y29.9269
G02 X142.6547 Y33.3196 I7.9968 J-4.9133
G01 X142.6454 Y33.1000
G01 Z-3.0000 F600
G01 X133.9335 F1200
G01 X131.5865 Y31.3000
G01 X144.9866
G01 X146.3068 Y29.5000
G01 X130.4876
G01 Y27.7000
G01 X147.0818
G01 X147.4392 Y25.9000
G01 X130.4876
G01 Y24.1000
G01 X147.4392
G01 X147.0818 Y22.3000
G01 X130.4876
G01 Y20.5000
G01 X146.3068
G01 X144.9866 Y18.7000
G01 X131.5865
G01 X133.9335 Y16.9000
G01 X142.6454
G01 X142.6547 Y16.6804
G02 X130.2876 Y20.0731 I-4.3703 J8.3058
G01 Y29.9269
G02 X146.3726 Y20.2058 I8.0028 J-4.9262
G02 X142.6547 Y16.6804 I-8.0372 J4.7528
G01 X142.6454 Y16.9000
G01 Z-4.0000 F600
G01 X133.9335 F1200
G01 X131.5865 Y18.7000
G01 X144.9866
G01 X146.3068 Y20.5000
G01 X130.4876
G01 Y22.3000
G01 X147.0818
G01 X147.4392 Y24.1000
G01 X130.4876
G01 Y25.9000
G01 X147.4392
G01 X147.0818 Y27.7000
G01 X130.4876
G01 Y29.5000
G01 X146.3068
G01 X144.9866 Y31.3000
G01 X131.5865
G01 X133.9335 Y33.1000
G01 X142.6454
G01 X142.6547 Y33.3196
G02 X134.1889 Y16.5411 I-4.3663 J-8.3219
G02 X130.2876 Y20.0731 I4.0578 J8.4027
G01 Y29.9269
G02 X142.6547 Y33.3196 I7.9968 J-4.9133
G01 X142.6454 Y33.1000
G00 Z5.0000


(Nr. 39: Ausschnitt 10)
G00 X107.4392 Y25.9000 Z5.0000
G00 Z0.5000
G01 Z0.0000 F600
G01 Z-1.0000
G01 X90.4876 F1200
G01 Y24.1000
G01 X107.4392
G01 X107.0818 Y22.3000
G01 X90.4876
G01 Y20.5000
G01 X106.3068
G01 X104.9866 Y18.7000
G01 X91.5865
G01 X93.9335 Y16.9000
G01 X102.6454
G00 Z5.0000
G00 X107.0818 Y25.9000
G00 Z0.5000
G01 Z-1.0000 F600
G01 Y27.7000 F1200
G01 X90.4876
G01 Y29.5000
G01 X106.3068
G01 X104.9866 Y31.3000
G01 X91.5865
G01 X93.9335 Y33.1000
G01 X102.6454
G01 X102.6547 Y33.3196
G02 X94.1889 Y16.5411 I-4.3663 J-8.3219
G02 X90.2876 Y20.0731 I4.0578 J8.4027
G01 Y29.9269
G02 X102.6547 Y33.3196 I7.9968 J-4.9133
G01 X102.6454 Y33.1000
G01 Z-2.0000 F600
G01 X93.9335 F1200
G01 X91.5865 Y31.3000
G01 X104.9866
G01 X106.3068 Y29.5000
G01 X90.4876
G01 Y27.7000
G01 X107.0818
G01 X107.4392 Y25.9000
G01 X90.4876
G01 Y24.1000
G01 X107.4392
G01 X107.0818 Y22.3000
G01 X90.4876
G01 Y20.5000
G01 X106.3068
G01 X104.9866 Y18.7000
G01 X91.5865
G01 X93.9335 Y16.9000
G01 X102.6454
G01 X102.6547 Y16.6804
G02 X90.2876 Y20.0731 I-4.3703 J8.3058
G01 Y29.9269
G02 X106.3726 Y20.2058 I8.0028 J-4.9262
G02 X102.6547 Y16.6804 I-8.0372 J4.7528
G01 X102.6454 Y16.9000
G01 Z-3.0000 F600
G01 X93.9335 F1200
G01 X91.5865 Y18.7000
G01 X104.9866
G01 X106.3068 Y20.5000
G01 X90.4876
G01 Y22.3000
G01 X107.0818
G01 X107.4392 Y24.1000
G01 X90.4876
G01 Y25.9000
G01 X107.4392
G01 X107.0818 Y27.7000
G01 X90.4876
G01 Y29.5000
G01 X106.3068
G01 X104.9866 Y31.3000
G01 X91.5865
G01 X93.9335 Y33.1000
G01 X102.6454
G01 X102.6547 Y33.3196
G02 X94.1889 Y16.5411 I-4.3663 J-8.3219
G02 X90.2876 Y20.0731 I4.0578 J8.4027
G01 Y29.9269
G02 X102.6547 Y33.3196 I7.9968 J-4.9133
G01 X102.6454 Y33.1000
G01 Z-4.0000 F600
G01 X93.9335 F1200
G01 X91.5865 Y31.3000
G01 X104.9866
G01 X106.3068 Y29.5000
G01 X90.4876
G01 Y27.7000
G01 X107.0818
G01 X107.4392 Y25.9000
G01 X90.4876
G01 Y24.1000
G01 X107.4392
G01 X107.0818 Y22.3000
G01 X90.4876
G01 Y20.5000
G01 X106.3068
G01 X104.9866 Y18.7000
G01 X91.5865
G01 X93.9335 Y16.9000
G01 X102.6454
G01 X102.6547 Y16.6804
G02 X90.2876 Y20.0731 I-4.3703 J8.3058
G01 Y29.9269
G02 X106.3726 Y20.2058 I8.0028 J-4.9262
G02 X102.6547 Y16.6804 I-8.0372 J4.7528
G01 X102.6454 Y16.9000
G00 Z5.0000


(Nr. 40: Ausschnitt 21)
G00 X65.9422 Y58.3438 Z5.0000
G00 Z0.5000
G01 Z0.0000 F600
G01 Z-1.0000
G01 X62.3454 F1200
G01 X62.1497 Y58.2570
G02 X66.1315 Y58.5527 I1.9953 J0.0881
G02 X62.1497 Y58.2570 I-1.9862 J-0.2102
G01 X62.3454 Y58.3438
G01 Z-2.0000 F600
G01 X65.9422 F1200
G01 X66.1379 Y58.2570
G02 X62.1452 Y58.3438 I-1.9954 J0.0855
G02 X66.1379 Y58.2570 I1.9973 J0.0014
G01 X65.9422 Y58.3438
G01 Z-3.0000 F600
G01 X62.3454 F1200
G01 X62.1497 Y58.2570
G02 X66.1315 Y58.5527 I1.9953 J0.0881
G02 X62.1497 Y58.2570 I-1.9862 J-0.2102
G01 X62.3454 Y58.3438
G01 Z-4.0000 F600
G01 X65.9422 F1200
G01 X66.1379 Y58.2570
G02 X62.1452 Y58.3438 I-1.9954 J0.0855
G02 X66.1379 Y58.2570 I1.9973 J0.0014
G01 X65.9422 Y58.3438
G00 Z5.0000


(Nr. 41: Ausschnitt 24)


(Nr. 42: Ausschnitt 24)
G00 X170.6917 Y70.4819 Z5.0000
G00 Z0.5000
G01 Z0.0000 F600
G01 Z-1.0000
G02 X171.5181 Y71.4828 I0.7021 J0.2619 F1200
G02 X171.9716 Y70.2667 I-0.1243 J-0.7390
G02 X170.6917 Y70.4819 I-0.5778 J0.4771
G01 Z-2.0000 F600
G02 X171.5181 Y71.4828 I0.7021 J0.2619 F1200
G02 X171.9716 Y70.2667 I-0.1243 J-0.7390
G02 X170.6917 Y70.4819 I-0.5778 J0.4771
G01 Z-3.0000 F600
G02 X171.5181 Y71.4828 I0.7021 J0.2619 F1200
G02 X171.9716 Y70.2667 I-0.1243 J-0.7390
G02 X170.6917 Y70.4819 I-0.5778 J0.4771
G01 Z-4.0000 F600
G02 X171.5181 Y71.4828 I0.7021 J0.2619 F1200
G02 X171.9716 Y70.2667 I-0.1243 J-0.7390
G02 X170.6917 Y70.4819 I-0.5778 J0.4771
G00 Z5.0000


(Nr. 43: Ausschnitt 22)
G00 X176.0260 Y74.2438 Z5.0000
G00 Z0.5000
G01 Z0.0000 F600
G01 Z-1.0000
G01 X202.5116 F1200
G01 X203.4591 Y76.0438
G01 X175.0785
G01 X174.6476 Y77.8438
G01 X203.8900
G01 Y79.6438
G01 X174.6476
G01 X175.0785 Y81.4438
G01 X203.4591
G01 X202.5116 Y83.2438
G01 X176.0260
G01 X177.8017 Y85.0438
G01 X200.7359
G00 Z5.0000
G00 Y74.2438
G00 Z0.5000
G01 Z-1.0000 F600
G01 Y72.4438 F1200
G01 X177.8017
G01 X177.6716 Y72.2912
G02 X182.4089 Y86.7438 I4.7208 J6.4553
G01 X196.1287
G02 Y70.7438 I0.0146 J-8.0000
G01 X182.4089
G02 X177.6716 Y72.2912 I-0.0209 J7.9612
G01 X177.8017 Y72.4438
G01 Z-2.0000 F600
G01 X200.7359 F1200
G01 X202.5116 Y74.2438
G01 X176.0260
G01 X175.0785 Y76.0438
G01 X203.4591
G01 X203.8900 Y77.8438
G01 X174.6476
G01 Y79.6438
G01 X203.8900
G01 X203.4591 Y81.4438
G01 X175.0785
G01 X176.0260 Y83.2438
G01 X202.5116
G01 X200.7359 Y85.0438
G01 X177.8017
G01 X177.6716 Y85.1964
G02 X182.4089 Y86.7438 I4.7191 J-6.4221
G01 X196.1287
G02 Y70.7438 I0.0146 J-8.0000
G01 X182.4089
G02 X177.6716 Y85.1964 I-0.0168 J7.9972
G01 X177.8017 Y85.0438
G01 Z-3.0000 F600
G01 X200.7359 F1200
G01 X202.5116 Y83.2438
G01 X176.0260
G01 X175.0785 Y81.4438
G01 X203.4591
G01 X203.8900 Y79.6438
G01 X174.6476
G01 Y77.8438
G01 X203.8900
G01 X203.4591 Y76.0438
G01 X175.0785
G01 X176.0260 Y74.2438
G01 X202.5116
G01 X200.7359 Y72.4438
G01 X177.8017
G01 X177.6716 Y72.2912
G02 X182.4089 Y86.7438 I4.7208 J6.4553
G01 X196.1287
G02 Y70.7438 I0.0146 J-8.0000
G01 X182.4089
G02 X177.6716 Y72.2912 I-0.0209 J7.9612
G01 X177.8017 Y72.4438
G01 Z-4.0000 F600
G01 X200.7359 F1200
G01 X202.5116 Y74.2438
G01 X176.0260
G01 X175.0785 Y76.0438
G01 X203.4591
G01 X203.8900 Y77.8438
G01 X174.6476
G01 Y79.6438
G01 X203.8900
G01 X203.4591 Y81.4438
G01 X175.0785
G01 X176.0260 Y83.2438
G01 X202.5116
G01 X200.7359 Y85.0438
G01 X177.8017
G01 X177.6716 Y85.1964
G02 X182.4089 Y86.7438 I4.7191 J-6.4221
G01 X196.1287
G02 Y70.7438 I0.0146 J-8.0000
G01 X182.4089
G02 X177.6716 Y85.1964 I-0.0168 J7.9972
G01 X177.8017 Y85.0438
G00 Z5.0000


(Nr. 44: Ausschnitt 25)


(Nr. 45: Ausschnitt 25)
G00 X170.7361 Y86.3847 Z5.0000
G00 Z0.5000
G01 Z0.0000 F600
G01 Z-1.0000
G02 X171.4116 Y87.4930 I0.6577 J0.3591 F1200
G02 X172.0337 Y86.3538 I-0.0178 J-0.7492
G02 X170.7361 Y86.3847 I-0.6399 J0.3900
G01 Z-2.0000 F600
G02 X171.4116 Y87.4930 I0.6577 J0.3591 F1200
G02 X172.0337 Y86.3538 I-0.0178 J-0.7492
G02 X170.7361 Y86.3847 I-0.6399 J0.3900
G01 Z-3.0000 F600
G02 X171.4116 Y87.4930 I0.6577 J0.3591 F1200
G02 X172.0337 Y86.3538 I-0.0178 J-0.7492
G02 X170.7361 Y86.3847 I-0.6399 J0.3900
G01 Z-4.0000 F600
G02 X171.4116 Y87.4930 I0.6577 J0.3591 F1200
G02 X172.0337 Y86.3538 I-0.0178 J-0.7492
G02 X170.7361 Y86.3847 I-0.6399 J0.3900
G00 Z5.0000


(Nr. 46: Ausschnitt 26)


(Nr. 47: Ausschnitt 26)
G00 X170.7361 Y95.3847 Z5.0000
G00 Z0.5000
G01 Z0.0000 F600
G01 Z-1.0000
G02 X171.4116 Y96.4930 I0.6577 J0.3591 F1200
G02 X172.0337 Y95.3538 I-0.0178 J-0.7492
G02 X170.7361 Y95.3847 I-0.6399 J0.3900
G01 Z-2.0000 F600
G02 X171.4116 Y96.4930 I0.6577 J0.3591 F1200
G02 X172.0337 Y95.3538 I-0.0178 J-0.7492
G02 X170.7361 Y95.3847 I-0.6399 J0.3900
G01 Z-3.0000 F600
G02 X171.4116 Y96.4930 I0.6577 J0.3591 F1200
G02 X172.0337 Y95.3538 I-0.0178 J-0.7492
G02 X170.7361 Y95.3847 I-0.6399 J0.3900
G01 Z-4.0000 F600
G02 X171.4116 Y96.4930 I0.6577 J0.3591 F1200
G02 X172.0337 Y95.3538 I-0.0178 J-0.7492
G02 X170.7361 Y95.3847 I-0.6399 J0.3900
G00 Z5.0000


(Nr. 48: Ausschnitt 23)
G00 X176.0261 Y99.2439 Z5.0000
G00 Z0.5000
G01 Z0.0000 F600
G01 Z-1.0000
G01 X202.5116 F1200
G01 X203.4591 Y101.0439
G01 X175.0785
G01 X174.6476 Y102.8439
G01 X203.8900
G01 Y104.6439
G01 X174.6476
G01 X175.0785 Y106.4439
G01 X203.4591
G01 X202.5116 Y108.2439
G01 X176.0261
G01 X177.8017 Y110.0439
G01 X200.7359
G00 Z5.0000
G00 Y99.2439
G00 Z0.5000
G01 Z-1.0000 F600
G01 Y97.4439 F1200
G01 X177.8017
G01 X177.6716 Y97.2913
G02 X182.4089 Y111.7439 I4.7208 J6.4553
G01 X196.1287
G02 Y95.7439 I0.0146 J-8.0000
G01 X182.4089
G02 X177.6716 Y97.2913 I-0.0209 J7.9612
G01 X177.8017 Y97.4439
G01 Z-2.0000 F600
G01 X200.7359 F1200
G01 X202.5116 Y99.2439
G01 X176.0261
G01 X175.0785 Y101.0439
G01 X203.4591
G01 X203.8900 Y102.8439
G01 X174.6476
G01 Y104.6439
G01 X203.8900
G01 X203.4591 Y106.4439
G01 X175.0785
G01 X176.0261 Y108.2439
G01 X202.5116
G01 X200.7359 Y110.0439
G01 X177.8017
G01 X177.6716 Y110.1964
G02 X182.4089 Y111.7439 I4.7191 J-6.4221
G01 X196.1287
G02 Y95.7439 I0.0146 J-8.0000
G01 X182.4089
G02 X177.6716 Y110.1964 I-0.0168 J7.9972
G01 X177.8017 Y110.0439
G01 Z-3.0000 F600
G01 X200.7359 F1200
G01 X202.5116 Y108.2439
G01 X176.0261
G01 X175.0785 Y106.4439
G01 X203.4591
G01 X203.8900 Y104.6439
G01 X174.6476
G01 Y102.8439
G01 X203.8900
G01 X203.4591 Y101.0439
G01 X175.0785
G01 X176.0261 Y99.2439
G01 X202.5116
G01 X200.7359 Y97.4439
G01 X177.8017
G01 X177.6716 Y97.2913
G02 X182.4089 Y111.7439 I4.7208 J6.4553
G01 X196.1287
G02 Y95.7439 I0.0146 J-8.0000
G01 X182.4089
G02 X177.6716 Y97.2913 I-0.0209 J7.9612
G01 X177.8017 Y97.4439
G01 Z-4.0000 F600
G01 X200.7359 F1200
G01 X202.5116 Y99.2439
G01 X176.0261
G01 X175.0785 Y101.0439
G01 X203.4591
G01 X203.8900 Y102.8439
G01 X174.6476
G01 Y104.6439
G01 X203.8900
G01 X203.4591 Y106.4439
G01 X175.0785
G01 X176.0261 Y108.2439
G01 X202.5116
G01 X200.7359 Y110.0439
G01 X177.8017
G01 X177.6716 Y110.1964
G02 X182.4089 Y111.7439 I4.7191 J-6.4221
G01 X196.1287
G02 Y95.7439 I0.0146 J-8.0000
G01 X182.4089
G02 X177.6716 Y110.1964 I-0.0168 J7.9972
G01 X177.8017 Y110.0439
G00 Z5.0000


(Nr. 49: Ausschnitt 27)


(Nr. 50: Ausschnitt 27)
G00 X170.7634 Y111.3387 Z5.0000
G00 Z0.5000
G01 Z0.0000 F600
G01 Z-1.0000
G02 X171.3581 Y112.4924 I0.6304 J0.4051 F1200
G02 X172.0599 Y111.4005 I0.0357 J-0.7485
G02 X170.7634 Y111.3387 I-0.6661 J0.3434
G01 Z-2.0000 F600
G02 X171.3581 Y112.4924 I0.6304 J0.4051 F1200
G02 X172.0599 Y111.4005 I0.0357 J-0.7485
G02 X170.7634 Y111.3387 I-0.6661 J0.3434
G01 Z-3.0000 F600
G02 X171.3581 Y112.4924 I0.6304 J0.4051 F1200
G02 X172.0599 Y111.4005 I0.0357 J-0.7485
G02 X170.7634 Y111.3387 I-0.6661 J0.3434
G01 Z-4.0000 F600
G02 X171.3581 Y112.4924 I0.6304 J0.4051 F1200
G02 X172.0599 Y111.4005 I0.0357 J-0.7485
G02 X170.7634 Y111.3387 I-0.6661 J0.3434
G00 Z5.0000


(Nr. 51: Ausschnitt 17)
G00 X184.0944 Y58.3438 Z5.0000
G00 Z0.5000
G01 Z0.0000 F600
G01 Z-1.0000
G01 X186.1932 F1200
G01 X186.3921 Y58.3058
G02 X183.8943 Y58.3438 I-1.2486 J0.0377
G02 X186.3921 Y58.3058 I1.2492 J0.0003
G01 X186.1932 Y58.3438
G01 Z-2.0000 F600
G01 X184.0944 F1200
G01 X183.8955 Y58.3058
G02 X186.3908 Y58.4223 I1.2486 J0.0383
G02 X183.8955 Y58.3058 I-1.2467 J-0.0788
G01 X184.0944 Y58.3438
G01 Z-3.0000 F600
G01 X186.1932 F1200
G01 X186.3921 Y58.3058
G02 X183.8943 Y58.3438 I-1.2486 J0.0377
G02 X186.3921 Y58.3058 I1.2492 J0.0003
G01 X186.1932 Y58.3438
G01 Z-4.0000 F600
G01 X184.0944 F1200
G01 X183.8955 Y58.3058
G02 X186.3908 Y58.4223 I1.2486 J0.0383
G02 X183.8955 Y58.3058 I-1.2467 J-0.0788
G01 X184.0944 Y58.3438
G00 Z5.0000


(Nr. 52: Ausschnitt 16)
G00 X199.0944 Y58.3438 Z5.0000
G00 Z0.5000
G01 Z0.0000 F600
G01 Z-1.0000
G01 X201.1932 F1200
G01 X201.3921 Y58.3058
G02 X198.8943 Y58.3438 I-1.2486 J0.0377
G02 X201.3921 Y58.3058 I1.2492 J0.0003
G01 X201.1932 Y58.3438
G01 Z-2.0000 F600
G01 X199.0944 F1200
G01 X198.8955 Y58.3818
G02 X201.3933 Y58.3438 I1.2486 J-0.0377
G02 X198.8955 Y58.3818 I-1.2492 J-0.0003
G01 X199.0944 Y58.3438
G01 Z-3.0000 F600
G01 X201.1932 F1200
G01 X201.3921 Y58.3058
G02 X198.8943 Y58.3438 I-1.2486 J0.0377
G02 X201.3921 Y58.3058 I1.2492 J0.0003
G01 X201.1932 Y58.3438
G01 Z-4.0000 F600
G01 X199.0944 F1200
G01 X198.8955 Y58.3818
G02 X201.3933 Y58.3438 I1.2486 J-0.0377
G02 X198.8955 Y58.3818 I-1.2492 J-0.0003
G01 X199.0944 Y58.3438
G00 Z5.0000
G00 X0.0000 Y0.0000

M05
M30
