(Project CU-3286-MB - Sketch MillingExportV3)
(Created by Estlcam version 11 build 11.244)
(Machining time about 00:03:49 hours)

(Required tools:)
(End Mill 2mm)

G90
M03 S24000
G00 Z5.0000


(No. 1: Hole 19)
G00 X8.9169 Y7.7052
G00 Z0.5000
G01 Z0.0000 F1200 S24000
G01 Z-1.0000
G02 X4.2000 Y15.0151 I3.2842 J7.2960
G01 Y28.7349
G02 X20.2000 I8.0000 J0.0146
G01 Y15.0151
G02 X8.9169 Y7.7052 I-8.0000 J-0.0145
G01 Z-2.0000
G02 X4.2000 Y15.0151 I3.2842 J7.2960
G01 Y28.7349
G02 X20.2000 I8.0000 J0.0146
G01 Y15.0151
G02 X8.9169 Y7.7052 I-8.0000 J-0.0145
G01 Z-3.0000
G02 X4.2000 Y15.0151 I3.2842 J7.2960
G01 Y28.7349
G02 X20.2000 I8.0000 J0.0146
G01 Y15.0151
G02 X8.9169 Y7.7052 I-8.0000 J-0.0145
G01 Z-4.0000
G02 X4.2000 Y15.0151 I3.2842 J7.2960
G01 Y28.7349
G02 X20.2000 I8.0000 J0.0146
G01 Y15.0151
G02 X8.9169 Y7.7052 I-8.0000 J-0.0145
G00 Z5.0000


(No. 2: Hole 20)
G00 X30.8968 Y-8.1095 Z5.0000
G00 Z0.5000
G01 Z0.0000 F1200
G01 Z-1.0000
G02 X32.6994 Y-6.9118 I1.2470 J0.0785
G02 X32.8353 Y-9.0718 I-0.5556 J-1.1192
G02 X30.8968 Y-8.1095 I-0.6915 J1.0407
G01 Z-2.0000
G02 X32.6994 Y-6.9118 I1.2470 J0.0785
G02 X32.8353 Y-9.0718 I-0.5556 J-1.1192
G02 X30.8968 Y-8.1095 I-0.6915 J1.0407
G01 Z-3.0000
G02 X32.6994 Y-6.9118 I1.2470 J0.0785
G02 X32.8353 Y-9.0718 I-0.5556 J-1.1192
G02 X30.8968 Y-8.1095 I-0.6915 J1.0407
G01 Z-4.0000
G02 X32.6994 Y-6.9118 I1.2470 J0.0785
G02 X32.8353 Y-9.0718 I-0.5556 J-1.1192
G02 X30.8968 Y-8.1095 I-0.6915 J1.0407
G00 Z5.0000


(No. 3: Hole 21)
G00 X46.8968 Y-8.1095 Z5.0000
G00 Z0.5000
G01 Z0.0000 F1200
G01 Z-1.0000
G02 X48.6994 Y-6.9118 I1.2470 J0.0785
G02 X48.8353 Y-9.0718 I-0.5556 J-1.1192
G02 X46.8968 Y-8.1095 I-0.6915 J1.0407
G01 Z-2.0000
G02 X48.6994 Y-6.9118 I1.2470 J0.0785
G02 X48.8353 Y-9.0718 I-0.5556 J-1.1192
G02 X46.8968 Y-8.1095 I-0.6915 J1.0407
G01 Z-3.0000
G02 X48.6994 Y-6.9118 I1.2470 J0.0785
G02 X48.8353 Y-9.0718 I-0.5556 J-1.1192
G02 X46.8968 Y-8.1095 I-0.6915 J1.0407
G01 Z-4.0000
G02 X48.6994 Y-6.9118 I1.2470 J0.0785
G02 X48.8353 Y-9.0718 I-0.5556 J-1.1192
G02 X46.8968 Y-8.1095 I-0.6915 J1.0407
G00 Z5.0000


(No. 4: Hole 22)
G00 X56.9034 Y-8.1816 Z5.0000
G00 Z0.5000
G01 Z0.0000 F1200
G01 Z-1.0000
G02 X58.1589 Y-6.7810 I1.2413 J0.1504
G01 X67.1287
G02 Y-9.2810 I0.0146 J-1.2500
G01 X58.1589
G02 X56.9034 Y-8.1816 I-0.0141 J1.2505
G01 Z-2.0000
G02 X58.1589 Y-6.7810 I1.2413 J0.1504
G01 X67.1287
G02 Y-9.2810 I0.0146 J-1.2500
G01 X58.1589
G02 X56.9034 Y-8.1816 I-0.0141 J1.2505
G01 Z-3.0000
G02 X58.1589 Y-6.7810 I1.2413 J0.1504
G01 X67.1287
G02 Y-9.2810 I0.0146 J-1.2500
G01 X58.1589
G02 X56.9034 Y-8.1816 I-0.0141 J1.2505
G01 Z-4.0000
G02 X58.1589 Y-6.7810 I1.2413 J0.1504
G01 X67.1287
G02 Y-9.2810 I0.0146 J-1.2500
G01 X58.1589
G02 X56.9034 Y-8.1816 I-0.0141 J1.2505
G00 Z5.0000


(No. 5: Hole 18)
G00 X65.1136 Y13.0822 Z5.0000
G00 Z0.5000
G01 Z0.0000 F1200
G01 Z-1.0000
G02 X70.7824 Y20.1907 I4.8864 J1.9178
G02 X74.1041 Y11.7271 I-0.7824 J-5.1907
G02 X65.1136 Y13.0822 I-4.1041 J3.2729
G01 Z-2.0000
G02 X70.7824 Y20.1907 I4.8864 J1.9178
G02 X74.1041 Y11.7271 I-0.7824 J-5.1907
G02 X65.1136 Y13.0822 I-4.1041 J3.2729
G01 Z-3.0000
G02 X70.7824 Y20.1907 I4.8864 J1.9178
G02 X74.1041 Y11.7271 I-0.7824 J-5.1907
G02 X65.1136 Y13.0822 I-4.1041 J3.2729
G01 Z-4.0000
G02 X70.7824 Y20.1907 I4.8864 J1.9178
G02 X74.1041 Y11.7271 I-0.7824 J-5.1907
G02 X65.1136 Y13.0822 I-4.1041 J3.2729
G00 Z5.0000


(No. 6: Hole 17)
G00 X65.6628 Y37.0430 Z5.0000
G00 Z0.5000
G01 Z0.0000 F1200
G01 Z-1.0000
G02 X69.6077 Y45.2346 I4.3372 J2.9570
G02 X74.7295 Y37.7224 I0.3923 J-5.2346
G02 X65.6628 Y37.0430 I-4.7295 J2.2776
G01 Z-2.0000
G02 X69.6077 Y45.2346 I4.3372 J2.9570
G02 X74.7295 Y37.7224 I0.3923 J-5.2346
G02 X65.6628 Y37.0430 I-4.7295 J2.2776
G01 Z-3.0000
G02 X69.6077 Y45.2346 I4.3372 J2.9570
G02 X74.7295 Y37.7224 I0.3923 J-5.2346
G02 X65.6628 Y37.0430 I-4.7295 J2.2776
G01 Z-4.0000
G02 X69.6077 Y45.2346 I4.3372 J2.9570
G02 X74.7295 Y37.7224 I0.3923 J-5.2346
G02 X65.6628 Y37.0430 I-4.7295 J2.2776
G00 Z5.0000


(No. 7: Hole 10)
G00 X89.4537 Y44.6489 Z5.0000
G00 Z0.5000
G01 Z0.0000 F1200
G01 Z-1.0000
G02 X89.9691 Y45.6486 I0.5463 J0.3511
G02 X90.5772 Y44.7024 I0.0309 J-0.6486
G02 X89.4537 Y44.6489 I-0.5772 J0.2976
G01 Z-2.0000
G02 X89.9691 Y45.6486 I0.5463 J0.3511
G02 X90.5772 Y44.7024 I0.0309 J-0.6486
G02 X89.4537 Y44.6489 I-0.5772 J0.2976
G01 Z-3.0000
G02 X89.9691 Y45.6486 I0.5463 J0.3511
G02 X90.5772 Y44.7024 I0.0309 J-0.6486
G02 X89.4537 Y44.6489 I-0.5772 J0.2976
G01 Z-4.0000
G02 X89.9691 Y45.6486 I0.5463 J0.3511
G02 X90.5772 Y44.7024 I0.0309 J-0.6486
G02 X89.4537 Y44.6489 I-0.5772 J0.2976
G00 Z5.0000


(No. 8: Hole 9)
G00 X105.4301 Y44.6888 Z5.0000
G00 Z0.5000
G01 Z0.0000 F1200
G01 Z-1.0000
G02 X106.0155 Y45.6492 I0.5699 J0.3112
G02 X106.5545 Y44.6620 I-0.0155 J-0.6492
G02 X105.4301 Y44.6888 I-0.5545 J0.3380
G01 Z-2.0000
G02 X106.0155 Y45.6492 I0.5699 J0.3112
G02 X106.5545 Y44.6620 I-0.0155 J-0.6492
G02 X105.4301 Y44.6888 I-0.5545 J0.3380
G01 Z-3.0000
G02 X106.0155 Y45.6492 I0.5699 J0.3112
G02 X106.5545 Y44.6620 I-0.0155 J-0.6492
G02 X105.4301 Y44.6888 I-0.5545 J0.3380
G01 Z-4.0000
G02 X106.0155 Y45.6492 I0.5699 J0.3112
G02 X106.5545 Y44.6620 I-0.0155 J-0.6492
G02 X105.4301 Y44.6888 I-0.5545 J0.3380
G00 Z5.0000


(No. 9: Hole 3)
G00 X118.8147 Y12.4101 Z5.0000
G00 Z0.5000
G01 Z0.0000 F1200
G01 Z-1.0000
G02 X118.7274 Y13.0149 I1.9949 J0.5966
G01 Y75.7404
G03 X117.7274 Y76.7404 I-1.0000 J0.0000
G01 X97.7438
G02 X96.7274 Y77.7567 I-0.0148 J1.0016
G01 Y104.7240
G02 X97.7438 Y105.7404 I1.0016 J0.0148
G01 X115.7110
G02 X116.7274 Y104.7240 I0.0148 J-1.0016
G01 Y96.9904
G03 X117.7274 Y95.9904 I1.0000 J0.0000
G01 X193.7110
G02 X194.7274 Y94.9740 I0.0148 J-1.0016
G01 Y87.0067
G02 X193.6180 Y85.9844 I-1.0195 J-0.0068
G03 X192.7274 Y84.9904 I0.1094 J-0.9940
G01 Y13.0149
G02 X190.7028 Y10.9904 I-2.0032 J-0.0214
G01 X120.7519
G02 X118.8147 Y12.4101 I-0.0218 J2.0018
G01 Z-2.0000
G02 X118.7274 Y13.0149 I1.9949 J0.5966
G01 Y75.7404
G03 X117.7274 Y76.7404 I-1.0000 J0.0000
G01 X97.7438
G02 X96.7274 Y77.7567 I-0.0148 J1.0016
G01 Y104.7240
G02 X97.7438 Y105.7404 I1.0016 J0.0148
G01 X115.7110
G02 X116.7274 Y104.7240 I0.0148 J-1.0016
G01 Y96.9904
G03 X117.7274 Y95.9904 I1.0000 J0.0000
G01 X193.7110
G02 X194.7274 Y94.9740 I0.0148 J-1.0016
G01 Y87.0067
G02 X193.6180 Y85.9844 I-1.0195 J-0.0068
G03 X192.7274 Y84.9904 I0.1094 J-0.9940
G01 Y13.0149
G02 X190.7028 Y10.9904 I-2.0032 J-0.0214
G01 X120.7519
G02 X118.8147 Y12.4101 I-0.0218 J2.0018
G01 Z-3.0000
G02 X118.7274 Y13.0149 I1.9949 J0.5966
G01 Y75.7404
G03 X117.7274 Y76.7404 I-1.0000 J0.0000
G01 X97.7438
G02 X96.7274 Y77.7567 I-0.0148 J1.0016
G01 Y104.7240
G02 X97.7438 Y105.7404 I1.0016 J0.0148
G01 X115.7110
G02 X116.7274 Y104.7240 I0.0148 J-1.0016
G01 Y96.9904
G03 X117.7274 Y95.9904 I1.0000 J0.0000
G01 X193.7110
G02 X194.7274 Y94.9740 I0.0148 J-1.0016
G01 Y87.0067
G02 X193.6180 Y85.9844 I-1.0195 J-0.0068
G03 X192.7274 Y84.9904 I0.1094 J-0.9940
G01 Y13.0149
G02 X190.7028 Y10.9904 I-2.0032 J-0.0214
G01 X120.7519
G02 X118.8147 Y12.4101 I-0.0218 J2.0018
G01 Z-4.0000
G02 X118.7274 Y13.0149 I1.9949 J0.5966
G01 Y75.7404
G03 X117.7274 Y76.7404 I-1.0000 J0.0000
G01 X97.7438
G02 X96.7274 Y77.7567 I-0.0148 J1.0016
G01 Y104.7240
G02 X97.7438 Y105.7404 I1.0016 J0.0148
G01 X115.7110
G02 X116.7274 Y104.7240 I0.0148 J-1.0016
G01 Y96.9904
G03 X117.7274 Y95.9904 I1.0000 J0.0000
G01 X193.7110
G02 X194.7274 Y94.9740 I0.0148 J-1.0016
G01 Y87.0067
G02 X193.6180 Y85.9844 I-1.0195 J-0.0068
G03 X192.7274 Y84.9904 I0.1094 J-0.9940
G01 Y13.0149
G02 X190.7028 Y10.9904 I-2.0032 J-0.0214
G01 X120.7519
G02 X118.8147 Y12.4101 I-0.0218 J2.0018
G00 Z5.0000


(No. 10: Hole 23)
G00 X133.8943 Y-8.0310 Z5.0000
G00 Z0.5000
G01 Z0.0000 F1200
G01 Z-1.0000
G02 X135.1589 Y-6.7810 I1.2505 J-0.0004
G01 X144.1287
G02 Y-9.2810 I0.0146 J-1.2500
G01 X135.1589
G02 X133.8943 Y-8.0310 I-0.0142 J1.2503
G01 Z-2.0000
G02 X135.1589 Y-6.7810 I1.2505 J-0.0004
G01 X144.1287
G02 Y-9.2810 I0.0146 J-1.2500
G01 X135.1589
G02 X133.8943 Y-8.0310 I-0.0142 J1.2503
G01 Z-3.0000
G02 X135.1589 Y-6.7810 I1.2505 J-0.0004
G01 X144.1287
G02 Y-9.2810 I0.0146 J-1.2500
G01 X135.1589
G02 X133.8943 Y-8.0310 I-0.0142 J1.2503
G01 Z-4.0000
G02 X135.1589 Y-6.7810 I1.2505 J-0.0004
G01 X144.1287
G02 Y-9.2810 I0.0146 J-1.2500
G01 X135.1589
G02 X133.8943 Y-8.0310 I-0.0142 J1.2503
G00 Z5.0000


(No. 11: Hole 24)
G00 X152.8943 Y-8.0310 Z5.0000
G00 Z0.5000
G01 Z0.0000 F1200
G01 Z-1.0000
G02 X154.7686 Y-6.9489 I1.2495 J0.0000
G02 Y-9.1131 I-0.6248 J-1.0821
G02 X152.8943 Y-8.0310 I-0.6248 J1.0821
G01 Z-2.0000
G02 X154.7686 Y-6.9489 I1.2495 J0.0000
G02 Y-9.1131 I-0.6248 J-1.0821
G02 X152.8943 Y-8.0310 I-0.6248 J1.0821
G01 Z-3.0000
G02 X154.7686 Y-6.9489 I1.2495 J0.0000
G02 Y-9.1131 I-0.6248 J-1.0821
G02 X152.8943 Y-8.0310 I-0.6248 J1.0821
G01 Z-4.0000
G02 X154.7686 Y-6.9489 I1.2495 J0.0000
G02 Y-9.1131 I-0.6248 J-1.0821
G02 X152.8943 Y-8.0310 I-0.6248 J1.0821
G00 Z5.0000


(No. 12: Hole 25)
G00 X168.8943 Y-8.0310 Z5.0000
G00 Z0.5000
G01 Z0.0000 F1200
G01 Z-1.0000
G02 X170.7686 Y-6.9489 I1.2495 J0.0000
G02 Y-9.1131 I-0.6248 J-1.0821
G02 X168.8943 Y-8.0310 I-0.6248 J1.0821
G01 Z-2.0000
G02 X170.7686 Y-6.9489 I1.2495 J0.0000
G02 Y-9.1131 I-0.6248 J-1.0821
G02 X168.8943 Y-8.0310 I-0.6248 J1.0821
G01 Z-3.0000
G02 X170.7686 Y-6.9489 I1.2495 J0.0000
G02 Y-9.1131 I-0.6248 J-1.0821
G02 X168.8943 Y-8.0310 I-0.6248 J1.0821
G01 Z-4.0000
G02 X170.7686 Y-6.9489 I1.2495 J0.0000
G02 Y-9.1131 I-0.6248 J-1.0821
G02 X168.8943 Y-8.0310 I-0.6248 J1.0821
G00 Z5.0000


(No. 13: Hole 7)
G00 X204.6969 Y86.4178 Z5.0000
G00 Z0.5000
G01 Z0.0000 F1200
G01 Z-1.0000
G02 X205.3493 Y87.3340 I0.5907 J0.2698
G02 X205.8166 Y86.3109 I-0.0617 J-0.6464
G02 X204.6969 Y86.4178 I-0.5290 J0.3767
G01 Z-2.0000
G02 X205.3493 Y87.3340 I0.5907 J0.2698
G02 X205.8166 Y86.3109 I-0.0617 J-0.6464
G02 X204.6969 Y86.4178 I-0.5290 J0.3767
G01 Z-3.0000
G02 X205.3493 Y87.3340 I0.5907 J0.2698
G02 X205.8166 Y86.3109 I-0.0617 J-0.6464
G02 X204.6969 Y86.4178 I-0.5290 J0.3767
G01 Z-4.0000
G02 X205.3493 Y87.3340 I0.5907 J0.2698
G02 X205.8166 Y86.3109 I-0.0617 J-0.6464
G02 X204.6969 Y86.4178 I-0.5290 J0.3767
G00 Z5.0000


(No. 14: Hole 8)
G00 X214.6969 Y86.4178 Z5.0000
G00 Z0.5000
G01 Z0.0000 F1200
G01 Z-1.0000
G02 X215.3493 Y87.3340 I0.5907 J0.2698
G02 X215.8166 Y86.3109 I-0.0617 J-0.6464
G02 X214.6969 Y86.4178 I-0.5290 J0.3767
G01 Z-2.0000
G02 X215.3493 Y87.3340 I0.5907 J0.2698
G02 X215.8166 Y86.3109 I-0.0617 J-0.6464
G02 X214.6969 Y86.4178 I-0.5290 J0.3767
G01 Z-3.0000
G02 X215.3493 Y87.3340 I0.5907 J0.2698
G02 X215.8166 Y86.3109 I-0.0617 J-0.6464
G02 X214.6969 Y86.4178 I-0.5290 J0.3767
G01 Z-4.0000
G02 X215.3493 Y87.3340 I0.5907 J0.2698
G02 X215.8166 Y86.3109 I-0.0617 J-0.6464
G02 X214.6969 Y86.4178 I-0.5290 J0.3767
G00 Z5.0000


(No. 15: Hole 6)
G00 X207.4220 Y119.1879 Z5.0000
G00 Z0.5000
G01 Z0.0000 F1200
G01 Z-1.0000
G02 X207.2876 Y119.7040 I0.8740 J0.5032
G01 Y126.6712
G02 X208.3040 Y127.6876 I1.0016 J0.0148
G01 X212.2712
G02 X213.2876 Y126.6712 I0.0148 J-1.0016
G01 Y119.7040
G02 X212.2712 Y118.6876 I-1.0016 J-0.0148
G01 X208.3040
G02 X207.4220 Y119.1879 I-0.0146 J1.0018
G01 Z-2.0000
G02 X207.2876 Y119.7040 I0.8740 J0.5032
G01 Y126.6712
G02 X208.3040 Y127.6876 I1.0016 J0.0148
G01 X212.2712
G02 X213.2876 Y126.6712 I0.0148 J-1.0016
G01 Y119.7040
G02 X212.2712 Y118.6876 I-1.0016 J-0.0148
G01 X208.3040
G02 X207.4220 Y119.1879 I-0.0146 J1.0018
G01 Z-3.0000
G02 X207.2876 Y119.7040 I0.8740 J0.5032
G01 Y126.6712
G02 X208.3040 Y127.6876 I1.0016 J0.0148
G01 X212.2712
G02 X213.2876 Y126.6712 I0.0148 J-1.0016
G01 Y119.7040
G02 X212.2712 Y118.6876 I-1.0016 J-0.0148
G01 X208.3040
G02 X207.4220 Y119.1879 I-0.0146 J1.0018
G01 Z-4.0000
G02 X207.2876 Y119.7040 I0.8740 J0.5032
G01 Y126.6712
G02 X208.3040 Y127.6876 I1.0016 J0.0148
G01 X212.2712
G02 X213.2876 Y126.6712 I0.0148 J-1.0016
G01 Y119.7040
G02 X212.2712 Y118.6876 I-1.0016 J-0.0148
G01 X208.3040
G02 X207.4220 Y119.1879 I-0.0146 J1.0018
G00 Z5.0000


(No. 16: Hole 5)
G00 X182.1724 Y113.3208 Z5.0000
G00 Z0.5000
G01 Z0.0000 F1200
G01 Z-1.0000
G02 X183.1751 Y115.2388 I1.0550 J0.6695
G02 X184.3347 Y113.4115 I0.0523 J-1.2484
G02 X182.1724 Y113.3208 I-1.1073 J0.5789
G01 Z-2.0000
G02 X183.1751 Y115.2388 I1.0550 J0.6695
G02 X184.3347 Y113.4115 I0.0523 J-1.2484
G02 X182.1724 Y113.3208 I-1.1073 J0.5789
G01 Z-3.0000
G02 X183.1751 Y115.2388 I1.0550 J0.6695
G02 X184.3347 Y113.4115 I0.0523 J-1.2484
G02 X182.1724 Y113.3208 I-1.1073 J0.5789
G01 Z-4.0000
G02 X183.1751 Y115.2388 I1.0550 J0.6695
G02 X184.3347 Y113.4115 I0.0523 J-1.2484
G02 X182.1724 Y113.3208 I-1.1073 J0.5789
G00 Z5.0000


(No. 17: Hole 4)
G00 X127.3165 Y113.1350 Z5.0000
G00 Z0.5000
G01 Z0.0000 F1200
G01 Z-1.0000
G02 X127.9421 Y115.2069 I0.9109 J0.8553
G02 X129.4236 Y113.6292 I0.2853 J-1.2165
G02 X127.3165 Y113.1350 I-1.1962 J0.3611
G01 Z-2.0000
G02 X127.9421 Y115.2069 I0.9109 J0.8553
G02 X129.4236 Y113.6292 I0.2853 J-1.2165
G02 X127.3165 Y113.1350 I-1.1962 J0.3611
G01 Z-3.0000
G02 X127.9421 Y115.2069 I0.9109 J0.8553
G02 X129.4236 Y113.6292 I0.2853 J-1.2165
G02 X127.3165 Y113.1350 I-1.1962 J0.3611
G01 Z-4.0000
G02 X127.9421 Y115.2069 I0.9109 J0.8553
G02 X129.4236 Y113.6292 I0.2853 J-1.2165
G02 X127.3165 Y113.1350 I-1.1962 J0.3611
G00 Z5.0000


(No. 18: Hole 12)
G00 X88.3021 Y92.7496 Z5.0000
G00 Z0.5000
G01 Z0.0000 F1200
G01 Z-1.0000
G02 X88.5150 Y93.8540 I0.4252 J0.4908
G02 X89.3650 Y93.1175 I0.2124 J-0.6136
G02 X88.3021 Y92.7496 I-0.6376 J0.1229
G01 Z-2.0000
G02 X88.5150 Y93.8540 I0.4252 J0.4908
G02 X89.3650 Y93.1175 I0.2124 J-0.6136
G02 X88.3021 Y92.7496 I-0.6376 J0.1229
G01 Z-3.0000
G02 X88.5150 Y93.8540 I0.4252 J0.4908
G02 X89.3650 Y93.1175 I0.2124 J-0.6136
G02 X88.3021 Y92.7496 I-0.6376 J0.1229
G01 Z-4.0000
G02 X88.5150 Y93.8540 I0.4252 J0.4908
G02 X89.3650 Y93.1175 I0.2124 J-0.6136
G02 X88.3021 Y92.7496 I-0.6376 J0.1229
G00 Z5.0000


(No. 19: Hole 11)
G00 X88.2682 Y76.7812 Z5.0000
G00 Z0.5000
G01 Z0.0000 F1200
G01 Z-1.0000
G02 X88.5593 Y77.8676 I0.4592 J0.4592
G02 X89.3546 Y77.0723 I0.1681 J-0.6272
G02 X88.2682 Y76.7812 I-0.6272 J0.1681
G01 Z-2.0000
G02 X88.5593 Y77.8676 I0.4592 J0.4592
G02 X89.3546 Y77.0723 I0.1681 J-0.6272
G02 X88.2682 Y76.7812 I-0.6272 J0.1681
G01 Z-3.0000
G02 X88.5593 Y77.8676 I0.4592 J0.4592
G02 X89.3546 Y77.0723 I0.1681 J-0.6272
G02 X88.2682 Y76.7812 I-0.6272 J0.1681
G01 Z-4.0000
G02 X88.5593 Y77.8676 I0.4592 J0.4592
G02 X89.3546 Y77.0723 I0.1681 J-0.6272
G02 X88.2682 Y76.7812 I-0.6272 J0.1681
G00 Z5.0000


(No. 20: Hole 13)
G00 X55.6109 Y66.1678 Z5.0000
G00 Z0.5000
G01 Z0.0000 F1200
G01 Z-1.0000
G02 X55.7444 Y67.2845 I0.3891 J0.5198
G02 X56.6448 Y66.6105 I0.2556 J-0.5969
G02 X55.6109 Y66.1678 I-0.6448 J0.0771
G01 Z-2.0000
G02 X55.7444 Y67.2845 I0.3891 J0.5198
G02 X56.6448 Y66.6105 I0.2556 J-0.5969
G02 X55.6109 Y66.1678 I-0.6448 J0.0771
G01 Z-3.0000
G02 X55.7444 Y67.2845 I0.3891 J0.5198
G02 X56.6448 Y66.6105 I0.2556 J-0.5969
G02 X55.6109 Y66.1678 I-0.6448 J0.0771
G01 Z-4.0000
G02 X55.7444 Y67.2845 I0.3891 J0.5198
G02 X56.6448 Y66.6105 I0.2556 J-0.5969
G02 X55.6109 Y66.1678 I-0.6448 J0.0771
G00 Z5.0000


(No. 21: Hole 2)
G00 X45.5003 Y72.8220 Z5.0000
G00 Z0.5000
G01 Z0.0000 F1200
G01 Z-1.0000
G02 X45.0000 Y73.7040 I0.5015 J0.8673
G01 Y113.6712
G02 X46.0164 Y114.6876 I1.0016 J0.0148
G01 X49.9836
G02 X51.0000 Y113.6712 I0.0148 J-1.0016
G01 Y73.7040
G02 X49.9836 Y72.6876 I-1.0016 J-0.0148
G01 X46.0164
G02 X45.5003 Y72.8220 I-0.0129 J1.0084
G01 Z-2.0000
G02 X45.0000 Y73.7040 I0.5015 J0.8673
G01 Y113.6712
G02 X46.0164 Y114.6876 I1.0016 J0.0148
G01 X49.9836
G02 X51.0000 Y113.6712 I0.0148 J-1.0016
G01 Y73.7040
G02 X49.9836 Y72.6876 I-1.0016 J-0.0148
G01 X46.0164
G02 X45.5003 Y72.8220 I-0.0129 J1.0084
G01 Z-3.0000
G02 X45.0000 Y73.7040 I0.5015 J0.8673
G01 Y113.6712
G02 X46.0164 Y114.6876 I1.0016 J0.0148
G01 X49.9836
G02 X51.0000 Y113.6712 I0.0148 J-1.0016
G01 Y73.7040
G02 X49.9836 Y72.6876 I-1.0016 J-0.0148
G01 X46.0164
G02 X45.5003 Y72.8220 I-0.0129 J1.0084
G01 Z-4.0000
G02 X45.0000 Y73.7040 I0.5015 J0.8673
G01 Y113.6712
G02 X46.0164 Y114.6876 I1.0016 J0.0148
G01 X49.9836
G02 X51.0000 Y113.6712 I0.0148 J-1.0016
G01 Y73.7040
G02 X49.9836 Y72.6876 I-1.0016 J-0.0148
G01 X46.0164
G02 X45.5003 Y72.8220 I-0.0129 J1.0084
G00 Z5.0000


(No. 22: Hole 14)
G00 X39.6888 Y66.1177 Z5.0000
G00 Z0.5000
G01 Z0.0000 F1200
G01 Z-1.0000
G02 X39.6620 Y67.2421 I0.3112 J0.5699
G02 X40.6492 Y66.7031 I0.3380 J-0.5545
G02 X39.6888 Y66.1177 I-0.6492 J-0.0155
G01 Z-2.0000
G02 X39.6620 Y67.2421 I0.3112 J0.5699
G02 X40.6492 Y66.7031 I0.3380 J-0.5545
G02 X39.6888 Y66.1177 I-0.6492 J-0.0155
G01 Z-3.0000
G02 X39.6620 Y67.2421 I0.3112 J0.5699
G02 X40.6492 Y66.7031 I0.3380 J-0.5545
G02 X39.6888 Y66.1177 I-0.6492 J-0.0155
G01 Z-4.0000
G02 X39.6620 Y67.2421 I0.3112 J0.5699
G02 X40.6492 Y66.7031 I0.3380 J-0.5545
G02 X39.6888 Y66.1177 I-0.6492 J-0.0155
G00 Z5.0000


(No. 23: Hole 15)
G00 X19.9302 Y39.1593 Z5.0000
G00 Z0.5000
G01 Z0.0000 F1200
G01 Z-1.0000
G02 X19.8233 Y40.2790 I0.2698 J0.5907
G02 X20.8464 Y39.8117 I0.3767 J-0.5290
G02 X19.9302 Y39.1593 I-0.6464 J-0.0617
G01 Z-2.0000
G02 X19.8233 Y40.2790 I0.2698 J0.5907
G02 X20.8464 Y39.8117 I0.3767 J-0.5290
G02 X19.9302 Y39.1593 I-0.6464 J-0.0617
G01 Z-3.0000
G02 X19.8233 Y40.2790 I0.2698 J0.5907
G02 X20.8464 Y39.8117 I0.3767 J-0.5290
G02 X19.9302 Y39.1593 I-0.6464 J-0.0617
G01 Z-4.0000
G02 X19.8233 Y40.2790 I0.2698 J0.5907
G02 X20.8464 Y39.8117 I0.3767 J-0.5290
G02 X19.9302 Y39.1593 I-0.6464 J-0.0617
G00 Z5.0000


(No. 24: Hole 16)
G00 X4.1537 Y39.1023 Z5.0000
G00 Z0.5000
G01 Z0.0000 F1200
G01 Z-1.0000
G02 X3.6622 Y40.1140 I0.0463 J0.6477
G02 X4.7841 Y40.0337 I0.5378 J-0.3640
G02 X4.1537 Y39.1023 I-0.5841 J-0.2837
G01 Z-2.0000
G02 X3.6622 Y40.1140 I0.0463 J0.6477
G02 X4.7841 Y40.0337 I0.5378 J-0.3640
G02 X4.1537 Y39.1023 I-0.5841 J-0.2837
G01 Z-3.0000
G02 X3.6622 Y40.1140 I0.0463 J0.6477
G02 X4.7841 Y40.0337 I0.5378 J-0.3640
G02 X4.1537 Y39.1023 I-0.5841 J-0.2837
G01 Z-4.0000
G02 X3.6622 Y40.1140 I0.0463 J0.6477
G02 X4.7841 Y40.0337 I0.5378 J-0.3640
G02 X4.1537 Y39.1023 I-0.5841 J-0.2837
G00 Z5.0000


(No. 25: Drill 1)
G00 X4.0000 Y96.6876 Z5.0000
G00 Z0.5000
G01 Z-1.0000 F1200
G00 Z0.5000
G00 Z-0.5000
G01 Z-2.0000
G00 Z0.5000
G00 Z-1.5000
G01 Z-3.0000
G00 Z0.5000
G00 Z-2.5000
G01 Z-4.0000
G00 Z5.0000


(No. 26: Hole 1)
G00 X7.1346 Y111.6903 Z5.0000
G00 Z0.5000
G01 Z0.0000 F1200
G01 Z-1.0000
G02 X6.2000 Y112.7040 I0.0660 J0.9985
G02 X6.2197 Y113.8826 I4.5761 J0.5128
G02 X7.2164 Y114.6876 I0.9816 J-0.1958
G01 X17.1836
G02 X18.2000 Y113.6712 I0.0148 J-1.0016
G02 X18.1803 Y112.4926 I-4.5761 J-0.5128
G02 X17.1836 Y111.6876 I-0.9816 J0.1958
G01 X7.2164
G01 X7.1346 Y111.6903
G01 Z-2.0000
G02 X6.2000 Y112.7040 I0.0660 J0.9985
G02 X6.2197 Y113.8826 I4.5761 J0.5128
G02 X7.2164 Y114.6876 I0.9816 J-0.1958
G01 X17.1836
G02 X18.2000 Y113.6712 I0.0148 J-1.0016
G02 X18.1803 Y112.4926 I-4.5761 J-0.5128
G02 X17.1836 Y111.6876 I-0.9816 J0.1958
G01 X7.2164
G01 X7.1346 Y111.6903
G01 Z-3.0000
G02 X6.2000 Y112.7040 I0.0660 J0.9985
G02 X6.2197 Y113.8826 I4.5761 J0.5128
G02 X7.2164 Y114.6876 I0.9816 J-0.1958
G01 X17.1836
G02 X18.2000 Y113.6712 I0.0148 J-1.0016
G02 X18.1803 Y112.4926 I-4.5761 J-0.5128
G02 X17.1836 Y111.6876 I-0.9816 J0.1958
G01 X7.2164
G01 X7.1346 Y111.6903
G01 Z-4.0000
G02 X6.2000 Y112.7040 I0.0660 J0.9985
G02 X6.2197 Y113.8826 I4.5761 J0.5128
G02 X7.2164 Y114.6876 I0.9816 J-0.1958
G01 X17.1836
G02 X18.2000 Y113.6712 I0.0148 J-1.0016
G02 X18.1803 Y112.4926 I-4.5761 J-0.5128
G02 X17.1836 Y111.6876 I-0.9816 J0.1958
G01 X7.2164
G01 X7.1346 Y111.6903
G00 Z5.0000


(No. 27: Drill 2)
G00 X20.4000 Y96.6876 Z5.0000
G00 Z0.5000
G01 Z-1.0000 F1200
G00 Z0.5000
G00 Z-0.5000
G01 Z-2.0000
G00 Z0.5000
G00 Z-1.5000
G01 Z-3.0000
G00 Z0.5000
G00 Z-2.5000
G01 Z-4.0000
G00 Z5.0000
G00 X0.0000 Y0.0000

M05
M30
